; generated by Slic3r 1.33.8.devel on 2018-02-26 at 23:03:12

; 

; external perimeters extrusion width = 0.60mm
; perimeters extrusion width = 0.43mm
; infill extrusion width = 0.70mm
; solid infill extrusion width = 0.70mm
; top infill extrusion width = 0.43mm
; first layer extrusion width = 0.42mm

M107
M115 U3.0.12 ; tell printer latest fw version
M83  ; extruder relative mode
M104 S215 ; set extruder temp
M140 S55 ; set bed temp
M190 S55 ; wait for bed temp
M109 S215 ; wait for extruder temp
G28 W ; home all without mesh bed level
G80 ; mesh bed leveling
G1 Y-3.0 F1000.0 ; go outside pritn area
G1 X60.0 E9.0  F1000.0 ; intro line
G1 X100.0 E12.5  F1000.0 ; intro line
; Filament gcode

G21 ; set units to millimeters
G90 ; use absolute coordinates
M83 ; use relative distances for extrusion
G1 E-0.80000 F2100.00000
G1 Z0.200 F7200.000
G1 X94.761 Y83.031 F7200.000
G1 E0.80000 F2100.00000
M204 S1000
G1 F2100
G1 X99.989 Y77.224 E0.23504
G1 X106.310 Y72.631 E0.23504
G1 X113.441 Y69.455 E0.23481
G1 X121.088 Y67.828 E0.23516
G1 X128.662 Y67.815 E0.22784
G1 X136.534 Y69.447 E0.24183
G1 X143.467 Y72.518 E0.22806
G1 X143.895 Y72.764 E0.01487
G1 X150.184 Y77.397 E0.23497
G1 X155.242 Y83.035 E0.22784
G1 X159.151 Y89.810 E0.23527
G1 X161.562 Y97.239 E0.23493
G1 X162.365 Y105.238 E0.24183
G1 X161.559 Y112.777 E0.22807
G1 X159.143 Y120.208 E0.23504
G1 X155.239 Y126.969 E0.23481
G1 X150.006 Y132.781 E0.23527
G1 X143.690 Y137.369 E0.23481
G1 X136.551 Y140.547 E0.23504
G1 X128.908 Y142.172 E0.23504
G1 X121.102 Y142.173 E0.23481
G1 X113.451 Y140.548 E0.23527
G1 X106.319 Y137.374 E0.23481
G1 X99.994 Y132.780 E0.23516
G1 X94.913 Y127.157 E0.22795
G1 X90.967 Y120.424 E0.23474
G1 X90.765 Y119.970 E0.01495
G1 X88.437 Y112.758 E0.22798
G1 X87.635 Y104.762 E0.24172
G1 X88.441 Y97.223 E0.22807
G1 X90.857 Y89.792 E0.23504
G1 X94.731 Y83.083 E0.23301
G1 F5760
G1 X96.196 Y81.450 E-0.76000
G1 E-0.04000 F2100.00000
G1 X108.967 Y93.746 F7200.000
G1 E0.80000 F2100.00000
G1 F1680
G1 X109.937 Y92.477 E0.04807
G1 X111.008 Y91.291 E0.04807
G1 X112.175 Y90.193 E0.04819
G1 X113.421 Y89.199 E0.04795
G1 X114.748 Y88.308 E0.04807
G1 X116.142 Y87.528 E0.04807
G1 X117.596 Y86.864 E0.04807
G1 X119.099 Y86.321 E0.04807
G1 X120.641 Y85.902 E0.04807
G1 X122.216 Y85.610 E0.04819
G1 X123.802 Y85.448 E0.04795
G1 X125.396 Y85.415 E0.04795
G1 X126.995 Y85.513 E0.04819
G1 X128.576 Y85.740 E0.04807
G1 X130.138 Y86.097 E0.04819
G1 X131.658 Y86.577 E0.04795
G1 X133.137 Y87.181 E0.04807
G1 X134.563 Y87.904 E0.04807
G1 X135.924 Y88.740 E0.04807
G1 X137.213 Y89.685 E0.04807
G1 X138.424 Y90.734 E0.04819
G1 X139.539 Y91.873 E0.04794
G1 X140.559 Y93.098 E0.04795
G1 X141.479 Y94.409 E0.04818
G1 X142.288 Y95.788 E0.04807
G1 X142.981 Y97.228 E0.04807
G1 X143.555 Y98.719 E0.04807
G1 X144.005 Y100.252 E0.04807
G1 X144.328 Y101.817 E0.04807
G1 X144.524 Y103.403 E0.04807
G1 X144.589 Y105.000 E0.04807
G1 X144.524 Y106.597 E0.04807
G1 X144.328 Y108.183 E0.04807
G1 X144.005 Y109.748 E0.04807
G1 X143.555 Y111.281 E0.04807
G1 X142.981 Y112.772 E0.04807
G1 X142.288 Y114.212 E0.04807
G1 X141.479 Y115.591 E0.04807
G1 X140.561 Y116.898 E0.04807
G1 X139.539 Y118.127 E0.04807
G1 X138.421 Y119.269 E0.04807
G1 X137.213 Y120.315 E0.04807
G1 X135.924 Y121.260 E0.04807
G1 X134.563 Y122.096 E0.04807
G1 X133.134 Y122.820 E0.04819
G1 X131.658 Y123.423 E0.04795
G1 X130.134 Y123.904 E0.04807
G1 X128.576 Y124.260 E0.04807
G1 X126.995 Y124.487 E0.04807
G1 X125.400 Y124.585 E0.04807
G1 X123.802 Y124.552 E0.04807
G1 X122.208 Y124.389 E0.04819
G1 X120.641 Y124.098 E0.04795
G1 X119.099 Y123.679 E0.04807
G1 X117.596 Y123.136 E0.04807
G1 X116.142 Y122.472 E0.04807
G1 X114.744 Y121.689 E0.04819
G1 X113.421 Y120.801 E0.04794
G1 X112.175 Y119.807 E0.04795
G1 X111.008 Y118.709 E0.04819
G1 X109.937 Y117.523 E0.04807
G1 X108.967 Y116.254 E0.04807
G1 X108.103 Y114.910 E0.04807
G1 X107.351 Y113.499 E0.04807
G1 X106.717 Y112.032 E0.04807
G1 X106.205 Y110.519 E0.04807
G1 X105.817 Y108.968 E0.04807
G1 X105.558 Y107.392 E0.04807
G1 X105.427 Y105.799 E0.04807
G1 X105.427 Y104.201 E0.04807
G1 X105.558 Y102.604 E0.04819
G1 X105.817 Y101.032 E0.04795
G1 X106.205 Y99.481 E0.04807
G1 X106.717 Y97.968 E0.04807
G1 X107.351 Y96.501 E0.04807
G1 X108.105 Y95.087 E0.04819
G1 X108.934 Y93.797 E0.04614
G1 X109.251 Y94.000 F7200.000
G1 F1260
G1 X110.227 Y92.718 E0.04848
G1 X111.278 Y91.555 E0.04714
G1 X112.422 Y90.479 E0.04726
G1 X113.645 Y89.504 E0.04702
G1 X114.945 Y88.630 E0.04714
G1 X116.313 Y87.865 E0.04714
G1 X117.739 Y87.214 E0.04714
G1 X119.213 Y86.681 E0.04714
G1 X120.725 Y86.270 E0.04714
G1 X122.270 Y85.984 E0.04726
G1 X123.825 Y85.825 E0.04702
G1 X125.388 Y85.793 E0.04702
G1 X126.956 Y85.888 E0.04726
G1 X128.507 Y86.111 E0.04714
G1 X130.039 Y86.461 E0.04726
G1 X131.530 Y86.932 E0.04702
G1 X132.981 Y87.525 E0.04714
G1 X134.379 Y88.233 E0.04714
G1 X135.714 Y89.054 E0.04714
G1 X136.978 Y89.980 E0.04714
G1 X138.165 Y91.009 E0.04726
G1 X139.259 Y92.126 E0.04702
G1 X140.259 Y93.328 E0.04702
G1 X141.162 Y94.613 E0.04726
G1 X141.954 Y95.965 E0.04714
G1 X142.634 Y97.377 E0.04714
G1 X143.197 Y98.840 E0.04714
G1 X143.639 Y100.344 E0.04714
G1 X143.956 Y101.879 E0.04714
G1 X144.148 Y103.434 E0.04714
G1 X144.211 Y105.000 E0.04714
G1 X144.148 Y106.566 E0.04714
G1 X143.956 Y108.121 E0.04714
G1 X143.639 Y109.656 E0.04714
G1 X143.197 Y111.160 E0.04714
G1 X142.634 Y112.623 E0.04714
G1 X141.954 Y114.035 E0.04714
G1 X141.162 Y115.386 E0.04714
G1 X140.261 Y116.669 E0.04714
G1 X139.259 Y117.874 E0.04714
G1 X138.163 Y118.994 E0.04714
G1 X136.978 Y120.020 E0.04714
G1 X135.714 Y120.946 E0.04714
G1 X134.379 Y121.767 E0.04714
G1 X132.977 Y122.477 E0.04726
G1 X131.530 Y123.068 E0.04702
G1 X130.035 Y123.540 E0.04714
G1 X128.507 Y123.889 E0.04714
G1 X126.956 Y124.112 E0.04714
G1 X125.392 Y124.207 E0.04714
G1 X123.825 Y124.175 E0.04714
G1 X122.262 Y124.015 E0.04726
G1 X120.725 Y123.730 E0.04702
G1 X119.213 Y123.319 E0.04714
G1 X117.739 Y122.786 E0.04714
G1 X116.313 Y122.135 E0.04714
G1 X114.942 Y121.368 E0.04726
G1 X113.645 Y120.496 E0.04702
G1 X112.422 Y119.521 E0.04702
G1 X111.278 Y118.445 E0.04726
G1 X110.227 Y117.282 E0.04714
G1 X109.275 Y116.037 E0.04714
G1 X108.428 Y114.719 E0.04714
G1 X107.691 Y113.336 E0.04714
G1 X107.069 Y111.897 E0.04714
G1 X106.567 Y110.412 E0.04714
G1 X106.187 Y108.892 E0.04714
G1 X105.932 Y107.346 E0.04714
G1 X105.805 Y105.784 E0.04714
G1 X105.805 Y104.216 E0.04714
G1 X105.933 Y102.650 E0.04726
G1 X106.187 Y101.108 E0.04702
G1 X106.567 Y99.588 E0.04714
G1 X107.069 Y98.103 E0.04714
G1 X107.691 Y96.664 E0.04714
G1 X108.430 Y95.278 E0.04726
G1 X109.219 Y94.051 E0.04388
G1 X109.082 Y93.638 F7200.000
G1 F5760
G1 X110.227 Y92.718 E-0.57893
G1 F5760
G1 X110.578 Y92.330 E-0.18107
G1 E-0.04000 F2100.00000
G1 X97.162 Y84.774 F7200.000
G1 E0.80000 F2100.00000
G1 F1680
G1 X101.975 Y79.429 E0.21638
G1 X107.795 Y75.200 E0.21638
G1 X114.367 Y72.274 E0.21638
G1 X121.403 Y70.779 E0.21638
G1 X128.597 Y70.779 E0.21638
G1 X135.633 Y72.274 E0.21638
G1 X142.205 Y75.200 E0.21638
G1 X148.025 Y79.429 E0.21638
G1 X152.838 Y84.774 E0.21638
G1 X156.435 Y91.004 E0.21638
G1 X158.658 Y97.846 E0.21638
G1 X159.410 Y105.000 E0.21638
G1 X158.658 Y112.154 E0.21638
G1 X156.435 Y118.996 E0.21638
G1 X152.838 Y125.226 E0.21638
G1 X148.025 Y130.571 E0.21638
G1 X142.205 Y134.800 E0.21638
G1 X135.633 Y137.726 E0.21638
G1 X128.597 Y139.221 E0.21638
G1 X121.403 Y139.221 E0.21638
G1 X114.367 Y137.726 E0.21638
G1 X107.795 Y134.800 E0.21638
G1 X101.975 Y130.571 E0.21638
G1 X97.162 Y125.226 E0.21638
G1 X93.565 Y118.996 E0.21638
G1 X91.342 Y112.154 E0.21638
G1 X90.590 Y105.000 E0.21638
G1 X91.342 Y97.846 E0.21638
G1 X93.565 Y91.004 E0.21638
G1 X97.132 Y84.826 E0.21458
G1 X96.805 Y84.638 F7200.000
G1 F1260
G1 X96.855 Y84.552 E0.00300
G1 X101.722 Y79.147 E0.21877
G1 X107.606 Y74.872 E0.21877
G1 X114.250 Y71.914 E0.21877
G1 X121.364 Y70.402 E0.21877
G1 X128.636 Y70.402 E0.21877
G1 X135.750 Y71.914 E0.21877
G1 X142.394 Y74.872 E0.21877
G1 X148.278 Y79.147 E0.21877
G1 X153.145 Y84.552 E0.21877
G1 X156.781 Y90.850 E0.21877
G1 X159.029 Y97.767 E0.21877
G1 X159.789 Y105.000 E0.21877
G1 X159.029 Y112.233 E0.21877
G1 X156.781 Y119.150 E0.21877
G1 X153.145 Y125.448 E0.21877
G1 X148.278 Y130.853 E0.21877
G1 X142.394 Y135.128 E0.21877
G1 X135.750 Y138.086 E0.21877
G1 X128.636 Y139.598 E0.21877
G1 X121.364 Y139.598 E0.21877
G1 X114.250 Y138.086 E0.21877
G1 X107.606 Y135.128 E0.21877
G1 X101.722 Y130.853 E0.21877
G1 X96.855 Y125.448 E0.21877
G1 X93.219 Y119.150 E0.21877
G1 X90.971 Y112.233 E0.21877
G1 X90.211 Y105.000 E0.21877
G1 X90.971 Y97.767 E0.21877
G1 X93.219 Y90.850 E0.21877
G1 X96.775 Y84.690 E0.21396
G1 X96.905 Y84.634 F7200.000
G1 F5760
G1 X96.855 Y84.552 E-0.05529
G1 F5760
G1 X98.217 Y83.040 E-0.70471
G1 E-0.04000 F2100.00000
G1 X107.791 Y114.566 F7200.000
G1 E0.80000 F2100.00000
G1 F2520
G1 X91.574 Y98.348 E0.69289
G1 X91.631 Y97.871 E0.01454
G1 X106.878 Y113.117 E0.65138
G1 X106.470 Y112.174 E0.03104
G1 X91.763 Y97.467 E0.62835
G1 X91.894 Y97.062 E0.01284
G1 X106.190 Y111.359 E0.61079
G1 X105.922 Y110.555 E0.02560
G1 X92.025 Y96.658 E0.59373
G1 X92.157 Y96.254 E0.01284
G1 X105.744 Y109.841 E0.58050
G1 X105.566 Y109.127 E0.02223
G1 X92.288 Y95.850 E0.56727
G1 X92.419 Y95.446 E0.01284
G1 X105.450 Y108.476 E0.55671
G1 X105.344 Y107.835 E0.01963
G1 X92.551 Y95.042 E0.54658
G1 X92.682 Y94.637 E0.01284
G1 X105.259 Y107.215 E0.53736
G1 X105.212 Y106.632 E0.01768
G1 X92.813 Y94.233 E0.52971
G1 X92.945 Y93.829 E0.01284
G1 X105.164 Y106.048 E0.52206
G1 X105.145 Y105.493 E0.01678
G1 X93.076 Y93.425 E0.51562
G1 X93.207 Y93.021 E0.01284
G1 X105.145 Y104.958 E0.51001
G1 X105.145 Y104.422 E0.01618
G1 X93.339 Y92.616 E0.50440
G1 X93.470 Y92.212 E0.01284
G1 X105.168 Y103.910 E0.49977
G1 X105.208 Y103.415 E0.01500
G1 X93.601 Y91.808 E0.49589
G1 X93.733 Y91.404 E0.01284
G1 X105.249 Y102.920 E0.49201
G1 X105.300 Y102.435 E0.01472
G1 X93.883 Y91.019 E0.48775
G1 X94.079 Y90.680 E0.01184
G1 X105.375 Y101.976 E0.48262
G1 X105.451 Y101.516 E0.01408
G1 X94.275 Y90.340 E0.47748
G1 X94.471 Y90.001 E0.01184
G1 X105.527 Y101.056 E0.47234
G1 X105.628 Y100.622 E0.01347
G1 X94.667 Y89.661 E0.46830
G1 X94.863 Y89.322 E0.01184
G1 X105.735 Y100.194 E0.46450
G1 X105.842 Y99.765 E0.01334
G1 X95.059 Y88.982 E0.46069
G1 X95.255 Y88.643 E0.01184
G1 X105.954 Y99.341 E0.45708
G1 X106.089 Y98.941 E0.01276
G1 X95.451 Y88.303 E0.45449
G1 X95.647 Y87.964 E0.01184
G1 X106.224 Y98.541 E0.45190
G1 X106.360 Y98.141 E0.01276
G1 X95.843 Y87.624 E0.44931
G1 X96.039 Y87.285 E0.01184
G1 X106.503 Y97.749 E0.44707
G1 X106.665 Y97.375 E0.01231
G1 X96.235 Y86.945 E0.44561
G1 X96.431 Y86.606 E0.01184
G1 X106.827 Y97.001 E0.44414
G1 X106.988 Y96.627 E0.01231
G1 X96.627 Y86.266 E0.44267
G1 X96.823 Y85.927 E0.01184
G1 X107.158 Y96.262 E0.44155
G1 X107.344 Y95.912 E0.01196
G1 X97.019 Y85.587 E0.44113
G1 X97.215 Y85.248 E0.01184
G1 X107.531 Y95.563 E0.44071
G1 X107.717 Y95.214 E0.01196
G1 X97.417 Y84.914 E0.44005
G1 X97.671 Y84.632 E0.01145
G1 X107.908 Y94.870 E0.43739
G1 X108.118 Y94.544 E0.01171
G1 X97.924 Y84.350 E0.43550
G1 X98.178 Y84.069 E0.01145
G1 X108.327 Y94.218 E0.43362
G1 X108.537 Y93.892 E0.01171
G1 X98.432 Y83.787 E0.43173
G1 X98.686 Y83.505 E0.01145
G1 X108.748 Y93.567 E0.42989
G1 X108.980 Y93.264 E0.01154
G1 X98.939 Y83.223 E0.42896
G1 X99.193 Y82.941 E0.01145
G1 X109.212 Y92.960 E0.42804
G1 X109.444 Y92.657 E0.01154
G1 X99.447 Y82.660 E0.42711
G1 X99.700 Y82.378 E0.01145
G1 X109.676 Y92.353 E0.42618
G1 X109.926 Y92.068 E0.01146
G1 X99.954 Y82.096 E0.42602
G1 X100.208 Y81.814 E0.01145
G1 X110.180 Y91.786 E0.42604
G1 X110.434 Y91.505 E0.01145
G1 X100.462 Y81.533 E0.42605
G1 X100.715 Y81.251 E0.01145
G1 X110.688 Y91.223 E0.42607
G1 X110.954 Y90.954 E0.01144
G1 X100.969 Y80.969 E0.42659
G1 X101.223 Y80.687 E0.01145
G1 X111.230 Y90.694 E0.42754
G1 X111.506 Y90.435 E0.01144
G1 X101.476 Y80.405 E0.42849
G1 X101.730 Y80.124 E0.01145
G1 X111.782 Y90.175 E0.42944
G1 X112.063 Y89.921 E0.01145
G1 X101.984 Y79.842 E0.43062
G1 X102.166 Y79.640 E0.00821
G1 X102.254 Y79.576 E0.00328
G1 X112.361 Y89.683 E0.43183
G1 X112.659 Y89.446 E0.01151
G1 X102.564 Y79.351 E0.43131
G1 X102.874 Y79.125 E0.01158
G1 X112.957 Y89.208 E0.43078
G1 X113.255 Y88.971 E0.01151
G1 X103.184 Y78.900 E0.43026
G1 X103.494 Y78.675 E0.01158
G1 X113.575 Y88.756 E0.43070
G1 X113.895 Y88.540 E0.01166
G1 X103.804 Y78.449 E0.43113
G1 X104.114 Y78.224 E0.01158
G1 X114.216 Y88.325 E0.43156
G1 X114.536 Y88.110 E0.01166
G1 X104.425 Y77.999 E0.43200
G1 X104.735 Y77.773 E0.01158
G1 X114.875 Y87.913 E0.43322
G1 X115.218 Y87.721 E0.01189
G1 X105.045 Y77.548 E0.43464
G1 X105.355 Y77.323 E0.01158
G1 X115.561 Y87.529 E0.43606
G1 X115.905 Y87.337 E0.01189
G1 X105.665 Y77.097 E0.43748
G1 X105.975 Y76.872 E0.01158
G1 X116.265 Y87.161 E0.43960
G1 X116.632 Y86.994 E0.01221
G1 X106.286 Y76.647 E0.44206
G1 X106.596 Y76.421 E0.01158
G1 X117.000 Y86.826 E0.44451
G1 X117.368 Y86.658 E0.01221
G1 X106.906 Y76.196 E0.44697
G1 X107.216 Y75.971 E0.01158
G1 X117.752 Y86.507 E0.45016
G1 X118.146 Y86.365 E0.01264
G1 X107.526 Y75.745 E0.45371
G1 X107.836 Y75.520 E0.01158
G1 X118.539 Y86.223 E0.45727
G1 X118.932 Y86.081 E0.01264
G1 X108.187 Y75.335 E0.45908
G1 X108.558 Y75.170 E0.01225
G1 X119.348 Y85.961 E0.46100
G1 X119.769 Y85.846 E0.01318
G1 X108.928 Y75.005 E0.46316
G1 X109.299 Y74.840 E0.01225
G1 X120.190 Y85.732 E0.46532
G1 X120.614 Y85.620 E0.01323
G1 X109.669 Y74.675 E0.46759
G1 X110.040 Y74.511 E0.01225
G1 X121.065 Y85.536 E0.47106
G1 X121.517 Y85.452 E0.01388
G1 X110.410 Y74.346 E0.47452
G1 X110.781 Y74.181 E0.01225
G1 X121.969 Y85.368 E0.47799
G1 X122.439 Y85.303 E0.01434
G1 X111.151 Y74.016 E0.48225
G1 X111.522 Y73.851 E0.01225
G1 X122.925 Y85.253 E0.48717
G1 X123.410 Y85.204 E0.01475
G1 X111.892 Y73.686 E0.49210
G1 X112.263 Y73.521 E0.01225
G1 X123.905 Y85.163 E0.49740
G1 X124.430 Y85.152 E0.01586
G1 X112.633 Y73.356 E0.50400
G1 X113.004 Y73.191 E0.01225
G1 X124.955 Y85.142 E0.51059
G1 X125.486 Y85.138 E0.01606
G1 X113.374 Y73.026 E0.51747
G1 X113.745 Y72.861 E0.01225
G1 X126.057 Y85.172 E0.52600
G1 X126.627 Y85.207 E0.01726
G1 X114.116 Y72.696 E0.53454
G1 X114.492 Y72.537 E0.01235
G1 X127.214 Y85.259 E0.54354
G1 X127.839 Y85.349 E0.01909
G1 X114.934 Y72.443 E0.55139
G1 X115.375 Y72.349 E0.01364
G1 X128.465 Y85.439 E0.55924
G1 X129.141 Y85.579 E0.02086
G1 X115.817 Y72.255 E0.56926
G1 X116.259 Y72.161 E0.01364
G1 X129.835 Y85.738 E0.58004
G1 X130.212 Y85.824 E0.01169
G1 X130.570 Y85.937 E0.01132
G1 X116.700 Y72.068 E0.59256
G1 X117.142 Y71.974 E0.01364
G1 X131.352 Y86.184 E0.60714
G1 X131.754 Y86.311 E0.01273
G1 X132.195 Y86.491 E0.01437
G1 X117.583 Y71.880 E0.62425
G1 X118.025 Y71.786 E0.01364
G1 X133.454 Y87.215 E0.65920
G1 F5760
G1 X131.903 Y85.664 E-0.76000
G1 E-0.04000 F2100.00000
G1 X134.540 Y87.766 F7200.000
G1 E0.80000 F2100.00000
G1 F2520
G1 X118.467 Y71.692 E0.68673
G1 X118.908 Y71.598 E0.01364
G1 X135.907 Y88.597 E0.72624
G1 F5760
G1 X134.355 Y87.045 E-0.76000
G1 E-0.04000 F2100.00000
G1 X138.470 Y90.625 F7200.000
G1 E0.80000 F2100.00000
G1 F2520
G1 X119.350 Y71.504 E0.81690
G1 X119.792 Y71.410 E0.01364
G1 X158.579 Y110.198 E1.65716
G1 X158.630 Y109.713 E0.01472
G1 X120.233 Y71.317 E1.64047
G1 X120.675 Y71.223 E0.01364
G1 X158.681 Y109.229 E1.62378
G1 X158.732 Y108.744 E0.01472
G1 X121.116 Y71.129 E1.60708
G1 X121.433 Y71.062 E0.00978
G1 X121.585 Y71.062 E0.00458
G1 X158.783 Y108.260 E1.58926
G1 X158.834 Y107.775 E0.01472
G1 X122.120 Y71.062 E1.56855
G1 X122.656 Y71.062 E0.01618
G1 X158.885 Y107.291 E1.54785
G1 X158.936 Y106.806 E0.01472
G1 X123.191 Y71.062 E1.52715
G1 X123.727 Y71.062 E0.01618
G1 X158.986 Y106.321 E1.50645
G1 X159.037 Y105.837 E0.01472
G1 X124.262 Y71.062 E1.48574
G1 X124.798 Y71.062 E0.01618
G1 X159.088 Y105.352 E1.46504
G1 X159.125 Y105.000 E0.01070
G1 X159.108 Y104.837 E0.00496
G1 X125.333 Y71.062 E1.44301
G1 X125.869 Y71.062 E0.01618
G1 X159.045 Y104.238 E1.41744
G1 X158.982 Y103.640 E0.01818
G1 X126.404 Y71.062 E1.39188
G1 X126.940 Y71.062 E0.01618
G1 X158.920 Y103.041 E1.36631
G1 X158.857 Y102.443 E0.01818
G1 X127.475 Y71.062 E1.34075
