; generated by Slic3r 1.33.8.devel on 2018-03-04 at 10:17:41

; 

; external perimeters extrusion width = 0.60mm
; perimeters extrusion width = 0.43mm
; infill extrusion width = 0.70mm
; solid infill extrusion width = 0.70mm
; top infill extrusion width = 0.43mm
; first layer extrusion width = 0.42mm

M107
M115 U3.0.12 ; tell printer latest fw version
M83  ; extruder relative mode
M104 S215 ; set extruder temp
M140 S55 ; set bed temp
M190 S55 ; wait for bed temp
M109 S215 ; wait for extruder temp
G28 W ; home all without mesh bed level
G80 ; mesh bed leveling
G1 Y-3.0 F1000.0 ; go outside pritn area
G1 X60.0 E9.0  F1000.0 ; intro line
G1 X100.0 E12.5  F1000.0 ; intro line
; Filament gcode

G21 ; set units to millimeters
G90 ; use absolute coordinates
M83 ; use relative distances for extrusion
G1 E-0.80000 F2100.00000
G1 Z0.200 F7200.000
G1 X83.195 Y63.244 F7200.000
G1 E0.80000 F2100.00000
M204 S1000
G1 F2100
G1 X83.965 Y62.715 E0.02812
G1 X84.880 Y62.523 E0.02812
G1 X165.104 Y62.523 E2.41312
G1 X165.999 Y62.699 E0.02744
G1 X166.764 Y63.203 E0.02755
G1 X167.282 Y63.958 E0.02755
G1 X167.477 Y64.853 E0.02755
G1 X167.477 Y145.119 E2.41438
G1 X167.299 Y146.002 E0.02710
G1 X166.805 Y146.756 E0.02710
G1 X166.024 Y147.290 E0.02845
G1 X165.100 Y147.477 E0.02837
G1 X84.881 Y147.477 E2.41298
G1 X83.998 Y147.299 E0.02710
G1 X83.244 Y146.805 E0.02710
G1 X82.710 Y146.024 E0.02845
G1 X82.523 Y145.100 E0.02837
G1 X82.523 Y64.881 E2.41298
G1 X82.701 Y63.998 E0.02710
G1 X83.162 Y63.294 E0.02530
G1 F5760
G1 X83.965 Y62.715 E-0.34306
G1 F5760
G1 X84.880 Y62.523 E-0.32374
G1 F5760
G1 X85.149 Y62.523 E-0.09321
G1 E-0.04000 F2100.00000
G1 X91.963 Y106.963 F7200.000
G1 E0.80000 F2100.00000
G1 F1680
G1 X123.037 Y106.963 E0.93471
G1 X123.037 Y138.037 E0.93471
G1 X91.963 Y138.037 E0.93471
G1 X91.963 Y107.023 E0.93290
G1 X92.340 Y107.340 F7200.000
G1 F1260
G1 X122.660 Y107.340 E0.91202
G1 X122.660 Y137.660 E0.91202
G1 X92.340 Y137.660 E0.91202
G1 X92.340 Y107.400 E0.91022
G1 X92.236 Y106.954 F7200.000
G1 F5760
G1 X94.534 Y107.396 E-0.76000
G1 E-0.04000 F2100.00000
G1 X91.963 Y71.963 F7200.000
G1 E0.80000 F2100.00000
G1 F1680
G1 X123.037 Y71.963 E0.93471
G1 X123.037 Y103.037 E0.93471
G1 X91.963 Y103.037 E0.93471
G1 X91.963 Y72.023 E0.93290
G1 X92.340 Y72.340 F7200.000
G1 F1260
G1 X122.660 Y72.340 E0.91202
G1 X122.660 Y102.660 E0.91202
G1 X92.340 Y102.660 E0.91202
G1 X92.340 Y72.400 E0.91022
G1 X92.236 Y71.954 F7200.000
G1 F5760
G1 X94.534 Y72.396 E-0.76000
G1 E-0.04000 F2100.00000
G1 X126.963 Y71.963 F7200.000
G1 E0.80000 F2100.00000
G1 F1680
G1 X158.037 Y71.963 E0.93471
G1 X158.037 Y103.037 E0.93471
G1 X126.963 Y103.037 E0.93471
G1 X126.963 Y72.023 E0.93290
G1 X127.340 Y72.340 F7200.000
G1 F1260
G1 X157.660 Y72.340 E0.91202
G1 X157.660 Y102.660 E0.91202
G1 X127.340 Y102.660 E0.91202
G1 X127.340 Y72.400 E0.91022
G1 X127.236 Y71.954 F7200.000
G1 F5760
G1 X129.534 Y72.396 E-0.76000
G1 E-0.04000 F2100.00000
G1 X126.963 Y106.963 F7200.000
G1 E0.80000 F2100.00000
G1 F1680
G1 X158.037 Y106.963 E0.93471
G1 X158.037 Y138.037 E0.93471
G1 X126.963 Y138.037 E0.93471
G1 X126.963 Y107.023 E0.93290
G1 X127.340 Y107.340 F7200.000
G1 F1260
G1 X157.660 Y107.340 E0.91202
G1 X157.660 Y137.660 E0.91202
G1 X127.340 Y137.660 E0.91202
G1 X127.340 Y107.400 E0.91022
G1 X127.236 Y106.954 F7200.000
G1 F5760
G1 X129.534 Y107.396 E-0.76000
G1 E-0.04000 F2100.00000
G1 X164.513 Y144.513 F7200.000
G1 E0.80000 F2100.00000
G1 F1680
G1 X85.487 Y144.513 E2.37709
G1 X85.487 Y65.487 E2.37709
G1 X164.513 Y65.487 E2.37709
G1 X164.513 Y144.453 E2.37528
G1 X164.890 Y144.890 F7200.000
G1 F1260
G1 X85.110 Y144.890 E2.39977
G1 X85.110 Y65.110 E2.39977
G1 X164.890 Y65.110 E2.39977
G1 X164.890 Y144.830 E2.39797
G1 X164.504 Y144.786 F7200.000
G1 F5760
G1 X162.696 Y144.832 E-0.76000
G1 E-0.04000 F2100.00000
G1 X127.150 Y138.150 F7200.000
G1 E0.80000 F2100.00000
G1 F2520
G1 X133.230 Y144.230 E0.25925
G1 X133.764 Y144.230 E0.01612
G1 X127.854 Y138.320 E0.25202
G1 X128.389 Y138.320 E0.01612
G1 X134.299 Y144.230 E0.25202
G1 X134.833 Y144.230 E0.01612
G1 X128.923 Y138.320 E0.25202
G1 X129.458 Y138.320 E0.01612
G1 X135.368 Y144.230 E0.25202
G1 X135.902 Y144.230 E0.01612
G1 X129.992 Y138.320 E0.25202
G1 X130.527 Y138.320 E0.01612
G1 X136.437 Y144.230 E0.25202
G1 X136.971 Y144.230 E0.01612
G1 X131.061 Y138.320 E0.25202
G1 X131.596 Y138.320 E0.01612
G1 X137.506 Y144.230 E0.25202
G1 X138.040 Y144.230 E0.01612
G1 X132.130 Y138.320 E0.25202
G1 X132.664 Y138.320 E0.01612
G1 X138.575 Y144.230 E0.25202
G1 X139.109 Y144.230 E0.01612
G1 X133.199 Y138.320 E0.25202
G1 X133.733 Y138.320 E0.01612
G1 X139.644 Y144.230 E0.25202
G1 X140.178 Y144.230 E0.01612
G1 X134.268 Y138.320 E0.25202
G1 X134.802 Y138.320 E0.01612
G1 X140.713 Y144.230 E0.25202
G1 X141.247 Y144.230 E0.01612
G1 X135.337 Y138.320 E0.25202
G1 X135.871 Y138.320 E0.01612
G1 X141.782 Y144.230 E0.25202
G1 X142.316 Y144.230 E0.01612
G1 X136.406 Y138.320 E0.25202
G1 X136.940 Y138.320 E0.01612
G1 X142.851 Y144.230 E0.25202
G1 X143.385 Y144.230 E0.01612
G1 X137.475 Y138.320 E0.25202
G1 X138.009 Y138.320 E0.01612
G1 X143.920 Y144.230 E0.25202
G1 X144.454 Y144.230 E0.01612
G1 X138.544 Y138.320 E0.25202
G1 X139.078 Y138.320 E0.01612
G1 X144.989 Y144.230 E0.25202
G1 X145.523 Y144.230 E0.01612
G1 X139.613 Y138.320 E0.25202
G1 X140.147 Y138.320 E0.01612
G1 X146.058 Y144.230 E0.25202
G1 X146.592 Y144.230 E0.01612
G1 X140.682 Y138.320 E0.25202
G1 X141.216 Y138.320 E0.01612
G1 X147.127 Y144.230 E0.25202
G1 X147.661 Y144.230 E0.01612
G1 X141.751 Y138.320 E0.25202
G1 X142.285 Y138.320 E0.01612
G1 X148.196 Y144.230 E0.25202
G1 X148.730 Y144.230 E0.01612
G1 X142.820 Y138.320 E0.25202
G1 X143.354 Y138.320 E0.01612
G1 X149.265 Y144.230 E0.25202
G1 X149.799 Y144.230 E0.01612
G1 X143.889 Y138.320 E0.25202
G1 X144.423 Y138.320 E0.01612
G1 X150.334 Y144.230 E0.25202
G1 X150.868 Y144.230 E0.01612
G1 X144.958 Y138.320 E0.25202
G1 X145.492 Y138.320 E0.01612
G1 X151.402 Y144.230 E0.25202
G1 X151.937 Y144.230 E0.01612
G1 X146.027 Y138.320 E0.25202
G1 X146.561 Y138.320 E0.01612
G1 X152.471 Y144.230 E0.25202
G1 X153.006 Y144.230 E0.01612
G1 X147.096 Y138.320 E0.25202
G1 X147.630 Y138.320 E0.01612
G1 X153.540 Y144.230 E0.25202
G1 X154.075 Y144.230 E0.01612
G1 X148.165 Y138.320 E0.25202
G1 X148.699 Y138.320 E0.01612
G1 X154.609 Y144.230 E0.25202
G1 X155.144 Y144.230 E0.01612
G1 X149.234 Y138.320 E0.25202
G1 X149.768 Y138.320 E0.01612
G1 X155.678 Y144.230 E0.25202
G1 X156.213 Y144.230 E0.01612
G1 X150.303 Y138.320 E0.25202
G1 X150.837 Y138.320 E0.01612
G1 X156.747 Y144.230 E0.25202
G1 X157.282 Y144.230 E0.01612
G1 X151.372 Y138.320 E0.25202
G1 X151.906 Y138.320 E0.01612
G1 X157.816 Y144.230 E0.25202
G1 X158.351 Y144.230 E0.01612
G1 X152.441 Y138.320 E0.25202
G1 X152.975 Y138.320 E0.01612
G1 X158.885 Y144.230 E0.25202
G1 X159.420 Y144.230 E0.01612
G1 X153.510 Y138.320 E0.25202
G1 X154.044 Y138.320 E0.01612
G1 X159.954 Y144.230 E0.25202
G1 X160.489 Y144.230 E0.01612
G1 X154.579 Y138.320 E0.25202
G1 X155.113 Y138.320 E0.01612
G1 X161.023 Y144.230 E0.25202
G1 X161.558 Y144.230 E0.01612
G1 X155.648 Y138.320 E0.25202
G1 X156.182 Y138.320 E0.01612
G1 X162.092 Y144.230 E0.25202
G1 X162.627 Y144.230 E0.01612
G1 X156.717 Y138.320 E0.25202
G1 X157.251 Y138.320 E0.01612
G1 X163.161 Y144.230 E0.25202
G1 X163.696 Y144.230 E0.01612
G1 X157.785 Y138.320 E0.25202
G1 X158.320 Y138.320 E0.01611
G1 X164.230 Y144.230 E0.25202
G1 X164.230 Y143.696 E0.01612
G1 X158.320 Y137.785 E0.25202
G1 X158.320 Y137.251 E0.01612
G1 X164.230 Y143.161 E0.25202
G1 X164.230 Y142.627 E0.01612
G1 X158.320 Y136.716 E0.25202
G1 X158.320 Y136.182 E0.01612
G1 X164.230 Y142.092 E0.25202
G1 X164.230 Y141.558 E0.01612
G1 X158.320 Y135.647 E0.25202
G1 X158.320 Y135.113 E0.01612
G1 X164.230 Y141.023 E0.25202
G1 X164.230 Y140.489 E0.01612
G1 X158.320 Y134.578 E0.25202
G1 X158.320 Y134.044 E0.01612
G1 X164.230 Y139.954 E0.25202
G1 X164.230 Y139.420 E0.01612
G1 X158.320 Y133.509 E0.25202
G1 X158.320 Y132.975 E0.01612
G1 X164.230 Y138.885 E0.25202
G1 X164.230 Y138.351 E0.01612
G1 X158.320 Y132.440 E0.25202
G1 X158.320 Y131.906 E0.01612
G1 X164.230 Y137.816 E0.25202
G1 X164.230 Y137.282 E0.01612
G1 X158.320 Y131.371 E0.25202
G1 X158.320 Y130.837 E0.01612
G1 X164.230 Y136.747 E0.25202
G1 X164.230 Y136.213 E0.01612
G1 X158.320 Y130.302 E0.25202
G1 X158.320 Y129.768 E0.01612
G1 X164.230 Y135.678 E0.25202
G1 X164.230 Y135.144 E0.01612
G1 X158.320 Y129.233 E0.25202
G1 X158.320 Y128.699 E0.01612
G1 X164.230 Y134.609 E0.25202
G1 X164.230 Y134.075 E0.01612
G1 X158.320 Y128.164 E0.25202
G1 X158.320 Y127.630 E0.01612
G1 X164.230 Y133.540 E0.25202
G1 X164.230 Y133.006 E0.01612
G1 X158.320 Y127.095 E0.25202
G1 X158.320 Y126.561 E0.01612
G1 X164.230 Y132.471 E0.25202
G1 X164.230 Y131.937 E0.01612
G1 X158.320 Y126.027 E0.25202
G1 X158.320 Y125.492 E0.01612
G1 X164.230 Y131.402 E0.25202
G1 X164.230 Y130.868 E0.01612
G1 X158.320 Y124.958 E0.25202
G1 X158.320 Y124.423 E0.01612
G1 X164.230 Y130.333 E0.25202
G1 X164.230 Y129.799 E0.01612
G1 X158.320 Y123.889 E0.25202
G1 X158.320 Y123.354 E0.01612
G1 X164.230 Y129.264 E0.25202
G1 X164.230 Y128.730 E0.01612
G1 X158.320 Y122.820 E0.25202
G1 X158.320 Y122.285 E0.01612
G1 X164.230 Y128.195 E0.25202
G1 X164.230 Y127.661 E0.01612
G1 X158.320 Y121.751 E0.25202
G1 X158.320 Y121.216 E0.01612
G1 X164.230 Y127.126 E0.25202
G1 X164.230 Y126.592 E0.01612
G1 X158.320 Y120.682 E0.25202
G1 X158.320 Y120.147 E0.01612
G1 X164.230 Y126.057 E0.25202
G1 X164.230 Y125.523 E0.01612
G1 X158.320 Y119.613 E0.25202
G1 X158.320 Y119.078 E0.01612
G1 X164.230 Y124.988 E0.25202
G1 X164.230 Y124.454 E0.01612
G1 X158.320 Y118.544 E0.25202
G1 X158.320 Y118.009 E0.01612
G1 X164.230 Y123.919 E0.25202
G1 X164.230 Y123.385 E0.01612
G1 X158.320 Y117.475 E0.25202
G1 X158.320 Y116.940 E0.01612
G1 X164.230 Y122.850 E0.25202
G1 X164.230 Y122.316 E0.01612
G1 X158.320 Y116.406 E0.25202
G1 X158.320 Y115.871 E0.01612
G1 X164.230 Y121.781 E0.25202
G1 X164.230 Y121.247 E0.01612
G1 X158.320 Y115.337 E0.25202
G1 X158.320 Y114.802 E0.01612
G1 X164.230 Y120.713 E0.25202
G1 X164.230 Y120.178 E0.01612
G1 X158.320 Y114.268 E0.25202
G1 X158.320 Y113.733 E0.01612
G1 X164.230 Y119.644 E0.25202
G1 X164.230 Y119.109 E0.01612
G1 X158.320 Y113.199 E0.25202
G1 X158.320 Y112.664 E0.01612
G1 X164.230 Y118.575 E0.25202
G1 X164.230 Y118.040 E0.01612
G1 X158.320 Y112.130 E0.25202
G1 X158.320 Y111.595 E0.01612
G1 X164.230 Y117.506 E0.25202
G1 X164.230 Y116.971 E0.01612
G1 X158.320 Y111.061 E0.25202
G1 X158.320 Y110.526 E0.01612
G1 X164.230 Y116.437 E0.25202
G1 X164.230 Y115.902 E0.01612
G1 X158.320 Y109.992 E0.25202
G1 X158.320 Y109.457 E0.01612
G1 X164.230 Y115.368 E0.25202
G1 X164.230 Y114.833 E0.01612
G1 X158.320 Y108.923 E0.25202
G1 X158.320 Y108.388 E0.01612
G1 X164.230 Y114.299 E0.25202
G1 X164.230 Y113.764 E0.01612
G1 X158.320 Y107.854 E0.25202
G1 X158.320 Y107.319 E0.01612
G1 X164.230 Y113.230 E0.25202
G1 X164.230 Y112.695 E0.01612
G1 X154.855 Y103.320 E0.39977
G1 X155.389 Y103.320 E0.01612
G1 X164.230 Y112.161 E0.37698
G1 X164.230 Y111.626 E0.01612
G1 X155.924 Y103.320 E0.35419
G1 X156.458 Y103.320 E0.01612
G1 X164.230 Y111.092 E0.33140
G1 X164.230 Y110.557 E0.01612
G1 X156.993 Y103.320 E0.30860
G1 X157.527 Y103.320 E0.01612
G1 X164.230 Y110.023 E0.28581
G1 X164.230 Y109.488 E0.01612
G1 X158.062 Y103.320 E0.26302
G1 X158.320 Y103.320 E0.00778
G1 X158.320 Y103.043 E0.00833
G1 X164.230 Y108.954 E0.25202
G1 X164.230 Y108.419 E0.01612
G1 X158.320 Y102.509 E0.25202
G1 X158.320 Y101.974 E0.01612
G1 X164.230 Y107.885 E0.25202
G1 X164.230 Y107.350 E0.01612
G1 X158.320 Y101.440 E0.25202
G1 X158.320 Y100.906 E0.01612
G1 X164.230 Y106.816 E0.25202
G1 X164.230 Y106.281 E0.01612
G1 X158.320 Y100.371 E0.25202
G1 X158.320 Y99.837 E0.01612
G1 X164.230 Y105.747 E0.25202
G1 X164.230 Y105.212 E0.01612
G1 X158.320 Y99.302 E0.25202
G1 X158.320 Y98.768 E0.01612
G1 X164.230 Y104.678 E0.25202
G1 X164.230 Y104.143 E0.01612
G1 X158.320 Y98.233 E0.25202
G1 X158.320 Y97.699 E0.01612
G1 X164.230 Y103.609 E0.25202
G1 X164.230 Y103.074 E0.01612
G1 X158.320 Y97.164 E0.25202
G1 X158.320 Y96.630 E0.01612
G1 X164.230 Y102.540 E0.25202
G1 X164.230 Y102.005 E0.01612
G1 X158.320 Y96.095 E0.25202
G1 X158.320 Y95.561 E0.01612
G1 X164.230 Y101.471 E0.25202
G1 X164.230 Y100.936 E0.01612
G1 X158.320 Y95.026 E0.25202
G1 X158.320 Y94.492 E0.01612
G1 X164.230 Y100.402 E0.25202
G1 X164.230 Y99.867 E0.01612
G1 X158.320 Y93.957 E0.25202
G1 X158.320 Y93.423 E0.01612
G1 X164.230 Y99.333 E0.25202
G1 X164.230 Y98.798 E0.01612
G1 X158.320 Y92.888 E0.25202
G1 X158.320 Y92.354 E0.01612
G1 X164.230 Y98.264 E0.25202
G1 X164.230 Y97.729 E0.01612
G1 X158.320 Y91.819 E0.25202
G1 X158.320 Y91.285 E0.01612
G1 X164.230 Y97.195 E0.25202
G1 X164.230 Y96.660 E0.01612
G1 X158.320 Y90.750 E0.25202
G1 X158.320 Y90.216 E0.01612
G1 X164.230 Y96.126 E0.25202
G1 X164.230 Y95.592 E0.01612
G1 X158.320 Y89.681 E0.25202
G1 X158.320 Y89.147 E0.01612
G1 X164.230 Y95.057 E0.25202
G1 X164.230 Y94.523 E0.01612
G1 X158.320 Y88.612 E0.25202
G1 X158.320 Y88.078 E0.01612
G1 X164.230 Y93.988 E0.25202
G1 X164.230 Y93.454 E0.01612
G1 X158.320 Y87.543 E0.25202
G1 X158.320 Y87.009 E0.01612
G1 X164.230 Y92.919 E0.25202
G1 X164.230 Y92.385 E0.01612
G1 X158.320 Y86.474 E0.25202
G1 X158.320 Y85.940 E0.01612
G1 X164.230 Y91.850 E0.25202
G1 X164.230 Y91.316 E0.01612
G1 X158.320 Y85.405 E0.25202
G1 X158.320 Y84.871 E0.01612
G1 X164.230 Y90.781 E0.25202
G1 X164.230 Y90.247 E0.01612
G1 X158.320 Y84.336 E0.25202
G1 X158.320 Y83.802 E0.01612
G1 X164.230 Y89.712 E0.25202
G1 X164.230 Y89.178 E0.01612
G1 X158.320 Y83.267 E0.25202
G1 X158.320 Y82.733 E0.01612
G1 X164.230 Y88.643 E0.25202
G1 X164.230 Y88.109 E0.01612
G1 X158.320 Y82.198 E0.25202
G1 X158.320 Y81.664 E0.01612
G1 X164.230 Y87.574 E0.25202
G1 X164.230 Y87.040 E0.01612
G1 X158.320 Y81.129 E0.25202
G1 X158.320 Y80.595 E0.01612
G1 X164.230 Y86.505 E0.25202
G1 X164.230 Y85.971 E0.01612
G1 X158.320 Y80.060 E0.25202
G1 X158.320 Y79.526 E0.01612
G1 X164.230 Y85.436 E0.25202
G1 X164.230 Y84.902 E0.01612
G1 X158.320 Y78.991 E0.25202
G1 X158.320 Y78.457 E0.01612
G1 X164.230 Y84.367 E0.25202
G1 X164.230 Y83.833 E0.01612
G1 X158.320 Y77.922 E0.25202
G1 X158.320 Y77.388 E0.01612
G1 X164.230 Y83.298 E0.25202
G1 X164.230 Y82.764 E0.01612
G1 X158.320 Y76.853 E0.25202
G1 X158.320 Y76.319 E0.01612
G1 X164.230 Y82.229 E0.25202
G1 X164.230 Y81.695 E0.01612
G1 X158.320 Y75.785 E0.25202
G1 X158.320 Y75.250 E0.01612
G1 X164.230 Y81.160 E0.25202
G1 X164.230 Y80.626 E0.01612
G1 X158.320 Y74.716 E0.25202
G1 X158.320 Y74.181 E0.01612
G1 X164.230 Y80.091 E0.25202
G1 X164.230 Y79.557 E0.01612
G1 X158.320 Y73.647 E0.25202
G1 X158.320 Y73.112 E0.01612
G1 X164.230 Y79.022 E0.25202
G1 X164.230 Y78.488 E0.01612
G1 X158.320 Y72.578 E0.25202
G1 X158.320 Y72.043 E0.01612
G1 X164.230 Y77.953 E0.25202
G1 X164.230 Y77.419 E0.01612
G1 X152.581 Y65.770 E0.49672
G1 X153.116 Y65.770 E0.01612
G1 X164.230 Y76.884 E0.47393
G1 X164.230 Y76.350 E0.01612
G1 X153.650 Y65.770 E0.45114
G1 X154.185 Y65.770 E0.01612
G1 X164.230 Y75.815 E0.42835
G1 X164.230 Y75.281 E0.01612
G1 X154.719 Y65.770 E0.40556
G1 X155.254 Y65.770 E0.01612
G1 X164.230 Y74.746 E0.38277
G1 X164.230 Y74.212 E0.01612
G1 X155.788 Y65.770 E0.35998
G1 X156.323 Y65.770 E0.01612
G1 X164.230 Y73.677 E0.33718
G1 X164.230 Y73.143 E0.01612
G1 X156.857 Y65.770 E0.31439
G1 X157.392 Y65.770 E0.01612
G1 X164.230 Y72.608 E0.29160
G1 X164.230 Y72.074 E0.01612
G1 X157.926 Y65.770 E0.26881
G1 X158.461 Y65.770 E0.01612
G1 X164.230 Y71.539 E0.24602
G1 X164.230 Y71.005 E0.01612
G1 X158.995 Y65.770 E0.22323
G1 X159.529 Y65.770 E0.01612
G1 X164.230 Y70.471 E0.20044
G1 X164.230 Y69.936 E0.01612
G1 X160.064 Y65.770 E0.17765
G1 X160.598 Y65.770 E0.01612
G1 X164.230 Y69.402 E0.15486
G1 X164.230 Y68.867 E0.01612
G1 X161.133 Y65.770 E0.13207
G1 X161.667 Y65.770 E0.01612
G1 X164.230 Y68.333 E0.10927
G1 X164.230 Y67.798 E0.01612
G1 X162.202 Y65.770 E0.08648
G1 X162.736 Y65.770 E0.01612
G1 X164.230 Y67.264 E0.06369
G1 X164.230 Y66.729 E0.01612
G1 X163.271 Y65.770 E0.04090
G1 X163.805 Y65.770 E0.01612
