; generated by Slic3r 1.33.8.devel on 2018-02-25 at 09:07:33

; 

; external perimeters extrusion width = 0.60mm
; perimeters extrusion width = 0.43mm
; infill extrusion width = 0.70mm
; solid infill extrusion width = 0.70mm
; top infill extrusion width = 0.43mm
; first layer extrusion width = 0.42mm

M107
M115 U3.0.12 ; tell printer latest fw version
M83  ; extruder relative mode
M104 S215 ; set extruder temp
M140 S55 ; set bed temp
M190 S55 ; wait for bed temp
M109 S215 ; wait for extruder temp
G28 W ; home all without mesh bed level
G80 ; mesh bed leveling
G1 Y-3.0 F1000.0 ; go outside pritn area
G1 X60.0 E9.0  F1000.0 ; intro line
G1 X100.0 E12.5  F1000.0 ; intro line
; Filament gcode

G21 ; set units to millimeters
G90 ; use absolute coordinates
M83 ; use relative distances for extrusion
G1 E-0.80000 F2100.00000
G1 Z0.200 F7200.000
G1 X101.544 Y80.324 F7200.000
G1 E0.80000 F2100.00000
M204 S1000
G1 F2100
G1 X102.461 Y80.123 E0.02823
G1 X147.504 Y80.123 E1.35489
G1 X148.392 Y80.297 E0.02722
G1 X149.151 Y80.789 E0.02722
G1 X149.670 Y81.530 E0.02722
G1 X149.876 Y82.415 E0.02733
G1 X149.877 Y127.534 E1.35718
G1 X149.702 Y128.395 E0.02643
G1 X149.224 Y129.137 E0.02654
G1 X148.442 Y129.682 E0.02868
G1 X147.505 Y129.877 E0.02879
G1 X102.466 Y129.877 E1.35477
G1 X101.605 Y129.702 E0.02643
G1 X100.863 Y129.224 E0.02654
G1 X100.318 Y128.442 E0.02868
G1 X100.123 Y127.505 E0.02879
G1 X100.123 Y82.466 E1.35477
G1 X100.298 Y81.605 E0.02643
G1 X100.776 Y80.863 E0.02654
G1 X101.495 Y80.358 E0.02642
G1 F5760
G1 X102.461 Y80.123 E-0.34429
G1 F5760
G1 X103.661 Y80.123 E-0.41571
G1 E-0.04000 F2100.00000
G1 X109.463 Y89.463 F7200.000
G1 E0.80000 F2100.00000
G1 F1680
G1 X140.537 Y89.463 E0.93471
G1 X140.537 Y120.537 E0.93471
G1 X109.463 Y120.537 E0.93471
G1 X109.463 Y89.523 E0.93290
G1 X109.840 Y89.840 F7200.000
G1 F1260
G1 X140.160 Y89.840 E0.91202
G1 X140.160 Y120.160 E0.91202
G1 X109.840 Y120.160 E0.91202
G1 X109.840 Y89.900 E0.91022
G1 X109.736 Y89.454 F7200.000
G1 F5760
G1 X112.034 Y89.896 E-0.76000
G1 E-0.04000 F2100.00000
G1 X103.087 Y83.087 F7200.000
G1 E0.80000 F2100.00000
G1 F1680
G1 X146.913 Y83.087 E1.31827
G1 X146.913 Y126.913 E1.31827
G1 X103.087 Y126.913 E1.31827
G1 X103.087 Y83.147 E1.31647
G1 X102.710 Y82.710 F7200.000
G1 F1260
G1 X147.290 Y82.710 E1.34096
G1 X147.290 Y127.290 E1.34096
G1 X102.710 Y127.290 E1.34096
G1 X102.710 Y82.770 E1.33915
G1 X103.096 Y82.814 F7200.000
G1 F5760
G1 X104.904 Y82.767 E-0.76000
G1 E-0.04000 F2100.00000
G1 X140.405 Y89.350 F7200.000
G1 E0.80000 F2100.00000
G1 F2520
G1 X134.425 Y83.370 E0.25546
G1 X133.889 Y83.370 E0.01617
G1 X139.699 Y89.180 E0.24821
G1 X139.164 Y89.180 E0.01617
G1 X133.354 Y83.370 E0.24821
G1 X132.818 Y83.370 E0.01617
G1 X138.629 Y89.180 E0.24821
G1 X138.093 Y89.180 E0.01617
G1 X132.283 Y83.370 E0.24821
G1 X131.747 Y83.370 E0.01617
G1 X137.558 Y89.180 E0.24821
G1 X137.022 Y89.180 E0.01617
G1 X131.212 Y83.370 E0.24821
G1 X130.677 Y83.370 E0.01617
G1 X136.487 Y89.180 E0.24821
G1 X135.951 Y89.180 E0.01617
G1 X130.141 Y83.370 E0.24821
G1 X129.606 Y83.370 E0.01617
G1 X135.416 Y89.180 E0.24821
G1 X134.881 Y89.180 E0.01617
G1 X129.070 Y83.370 E0.24821
G1 X128.535 Y83.370 E0.01617
G1 X134.345 Y89.180 E0.24821
G1 X133.810 Y89.180 E0.01617
G1 X127.999 Y83.370 E0.24821
G1 X127.464 Y83.370 E0.01617
G1 X133.274 Y89.180 E0.24821
G1 X132.739 Y89.180 E0.01617
G1 X126.929 Y83.370 E0.24821
G1 X126.393 Y83.370 E0.01617
G1 X132.203 Y89.180 E0.24821
G1 X131.668 Y89.180 E0.01617
G1 X125.858 Y83.370 E0.24821
G1 X125.322 Y83.370 E0.01617
G1 X131.133 Y89.180 E0.24821
G1 X130.597 Y89.180 E0.01617
G1 X124.787 Y83.370 E0.24821
G1 X124.251 Y83.370 E0.01617
G1 X130.062 Y89.180 E0.24821
G1 X129.526 Y89.180 E0.01617
G1 X123.716 Y83.370 E0.24821
G1 X123.181 Y83.370 E0.01617
G1 X128.991 Y89.180 E0.24821
G1 X128.455 Y89.180 E0.01617
G1 X122.645 Y83.370 E0.24821
G1 X122.110 Y83.370 E0.01617
G1 X127.920 Y89.180 E0.24821
G1 X127.385 Y89.180 E0.01617
G1 X121.574 Y83.370 E0.24821
G1 X121.039 Y83.370 E0.01617
G1 X126.849 Y89.180 E0.24821
G1 X126.314 Y89.180 E0.01617
G1 X120.504 Y83.370 E0.24821
G1 X119.968 Y83.370 E0.01617
G1 X125.778 Y89.180 E0.24821
G1 X125.243 Y89.180 E0.01617
G1 X119.433 Y83.370 E0.24821
G1 X118.897 Y83.370 E0.01617
G1 X124.707 Y89.180 E0.24821
G1 X124.172 Y89.180 E0.01617
G1 X118.362 Y83.370 E0.24821
G1 X117.826 Y83.370 E0.01617
G1 X123.637 Y89.180 E0.24821
G1 X123.101 Y89.180 E0.01617
G1 X117.291 Y83.370 E0.24821
G1 X116.756 Y83.370 E0.01617
G1 X122.566 Y89.180 E0.24821
G1 X122.030 Y89.180 E0.01617
G1 X116.220 Y83.370 E0.24821
G1 X115.685 Y83.370 E0.01617
G1 X121.495 Y89.180 E0.24821
G1 X120.960 Y89.180 E0.01617
G1 X115.149 Y83.370 E0.24821
G1 X114.614 Y83.370 E0.01617
G1 X120.424 Y89.180 E0.24821
G1 X119.889 Y89.180 E0.01617
G1 X114.078 Y83.370 E0.24821
G1 X113.543 Y83.370 E0.01617
G1 X119.353 Y89.180 E0.24821
G1 X118.818 Y89.180 E0.01617
G1 X113.008 Y83.370 E0.24821
G1 X112.472 Y83.370 E0.01617
G1 X118.282 Y89.180 E0.24821
G1 X117.747 Y89.180 E0.01617
G1 X111.937 Y83.370 E0.24821
G1 X111.401 Y83.370 E0.01617
G1 X117.212 Y89.180 E0.24821
G1 X116.676 Y89.180 E0.01617
G1 X110.866 Y83.370 E0.24821
G1 X110.330 Y83.370 E0.01617
G1 X116.141 Y89.180 E0.24821
G1 X115.605 Y89.180 E0.01617
G1 X109.795 Y83.370 E0.24821
G1 X109.260 Y83.370 E0.01617
G1 X115.070 Y89.180 E0.24821
G1 X114.534 Y89.180 E0.01617
G1 X108.724 Y83.370 E0.24821
G1 X108.189 Y83.370 E0.01617
G1 X113.999 Y89.180 E0.24821
G1 X113.464 Y89.180 E0.01617
G1 X107.653 Y83.370 E0.24821
G1 X107.118 Y83.370 E0.01617
G1 X112.928 Y89.180 E0.24821
G1 X112.393 Y89.180 E0.01617
G1 X106.582 Y83.370 E0.24821
G1 X106.047 Y83.370 E0.01617
G1 X111.857 Y89.180 E0.24821
G1 X111.322 Y89.180 E0.01617
G1 X105.512 Y83.370 E0.24821
G1 X104.976 Y83.370 E0.01617
G1 X110.786 Y89.180 E0.24821
G1 X110.251 Y89.180 E0.01617
G1 X104.441 Y83.370 E0.24821
G1 X103.905 Y83.370 E0.01617
G1 X109.716 Y89.180 E0.24821
G1 X109.180 Y89.180 E0.01617
G1 X103.370 Y83.370 E0.24821
G1 X103.370 Y83.905 E0.01617
G1 X109.180 Y89.716 E0.24821
G1 X109.180 Y90.251 E0.01617
G1 X103.370 Y84.441 E0.24821
G1 X103.370 Y84.976 E0.01617
G1 X109.180 Y90.786 E0.24821
G1 X109.180 Y91.322 E0.01617
G1 X103.370 Y85.512 E0.24821
G1 X103.370 Y86.047 E0.01617
G1 X109.180 Y91.857 E0.24821
G1 X109.180 Y92.393 E0.01617
G1 X103.370 Y86.582 E0.24821
G1 X103.370 Y87.118 E0.01617
G1 X109.180 Y92.928 E0.24821
G1 X109.180 Y93.464 E0.01617
G1 X103.370 Y87.653 E0.24821
G1 X103.370 Y88.189 E0.01617
G1 X109.180 Y93.999 E0.24821
G1 X109.180 Y94.534 E0.01617
G1 X103.370 Y88.724 E0.24821
G1 X103.370 Y89.260 E0.01617
G1 X109.180 Y95.070 E0.24821
G1 X109.180 Y95.605 E0.01617
G1 X103.370 Y89.795 E0.24821
G1 X103.370 Y90.330 E0.01617
G1 X109.180 Y96.141 E0.24821
G1 X109.180 Y96.676 E0.01617
G1 X103.370 Y90.866 E0.24821
G1 X103.370 Y91.401 E0.01617
G1 X109.180 Y97.212 E0.24821
G1 X109.180 Y97.747 E0.01617
G1 X103.370 Y91.937 E0.24821
G1 X103.370 Y92.472 E0.01617
G1 X109.180 Y98.282 E0.24821
G1 X109.180 Y98.818 E0.01617
G1 X103.370 Y93.008 E0.24821
G1 X103.370 Y93.543 E0.01617
G1 X109.180 Y99.353 E0.24821
G1 X109.180 Y99.889 E0.01617
G1 X103.370 Y94.078 E0.24821
G1 X103.370 Y94.614 E0.01617
G1 X109.180 Y100.424 E0.24821
G1 X109.180 Y100.960 E0.01617
G1 X103.370 Y95.149 E0.24821
G1 X103.370 Y95.685 E0.01617
G1 X109.180 Y101.495 E0.24821
G1 X109.180 Y102.030 E0.01617
G1 X103.370 Y96.220 E0.24821
G1 X103.370 Y96.756 E0.01617
G1 X109.180 Y102.566 E0.24821
G1 X109.180 Y103.101 E0.01617
G1 X103.370 Y97.291 E0.24821
G1 X103.370 Y97.826 E0.01617
G1 X109.180 Y103.637 E0.24821
G1 X109.180 Y104.172 E0.01617
G1 X103.370 Y98.362 E0.24821
G1 X103.370 Y98.897 E0.01617
G1 X109.180 Y104.708 E0.24821
G1 X109.180 Y105.243 E0.01617
G1 X103.370 Y99.433 E0.24821
G1 X103.370 Y99.968 E0.01617
G1 X109.180 Y105.778 E0.24821
G1 X109.180 Y106.314 E0.01617
G1 X103.370 Y100.504 E0.24821
G1 X103.370 Y101.039 E0.01617
G1 X109.180 Y106.849 E0.24821
G1 X109.180 Y107.385 E0.01617
G1 X103.370 Y101.574 E0.24821
G1 X103.370 Y102.110 E0.01617
G1 X109.180 Y107.920 E0.24821
G1 X109.180 Y108.456 E0.01617
G1 X103.370 Y102.645 E0.24821
G1 X103.370 Y103.181 E0.01617
G1 X109.180 Y108.991 E0.24821
G1 X109.180 Y109.526 E0.01617
G1 X103.370 Y103.716 E0.24821
G1 X103.370 Y104.252 E0.01617
G1 X109.180 Y110.062 E0.24821
G1 X109.180 Y110.597 E0.01617
G1 X103.370 Y104.787 E0.24821
G1 X103.370 Y105.322 E0.01617
G1 X109.180 Y111.133 E0.24821
G1 X109.180 Y111.668 E0.01617
G1 X103.370 Y105.858 E0.24821
G1 X103.370 Y106.393 E0.01617
G1 X109.180 Y112.204 E0.24821
G1 X109.180 Y112.739 E0.01617
G1 X103.370 Y106.929 E0.24821
G1 X103.370 Y107.464 E0.01617
G1 X109.180 Y113.274 E0.24821
G1 X109.180 Y113.810 E0.01617
G1 X103.370 Y108.000 E0.24821
G1 X103.370 Y108.535 E0.01617
G1 X109.180 Y114.345 E0.24821
G1 X109.180 Y114.881 E0.01617
G1 X103.370 Y109.070 E0.24821
G1 X103.370 Y109.606 E0.01617
G1 X109.180 Y115.416 E0.24821
G1 X109.180 Y115.951 E0.01617
G1 X103.370 Y110.141 E0.24821
G1 X103.370 Y110.677 E0.01617
G1 X109.180 Y116.487 E0.24821
G1 X109.180 Y117.022 E0.01617
G1 X103.370 Y111.212 E0.24821
G1 X103.370 Y111.748 E0.01617
G1 X109.180 Y117.558 E0.24821
G1 X109.180 Y118.093 E0.01617
G1 X103.370 Y112.283 E0.24821
G1 X103.370 Y112.818 E0.01617
G1 X109.180 Y118.629 E0.24821
G1 X109.180 Y119.164 E0.01617
G1 X103.370 Y113.354 E0.24821
G1 X103.370 Y113.889 E0.01617
G1 X109.180 Y119.699 E0.24821
G1 X109.180 Y120.235 E0.01617
G1 X103.370 Y114.425 E0.24821
G1 X103.370 Y114.960 E0.01617
G1 X115.040 Y126.630 E0.49853
G1 X114.505 Y126.630 E0.01617
G1 X103.370 Y115.495 E0.47566
G1 X103.370 Y116.031 E0.01617
G1 X113.969 Y126.630 E0.45278
G1 X113.434 Y126.630 E0.01617
G1 X103.370 Y116.566 E0.42991
G1 X103.370 Y117.102 E0.01617
G1 X112.898 Y126.630 E0.40704
G1 X112.363 Y126.630 E0.01617
G1 X103.370 Y117.637 E0.38417
G1 X103.370 Y118.173 E0.01617
G1 X111.827 Y126.630 E0.36129
G1 X111.292 Y126.630 E0.01617
G1 X103.370 Y118.708 E0.33842
G1 X103.370 Y119.243 E0.01617
G1 X110.757 Y126.630 E0.31555
G1 X110.221 Y126.630 E0.01617
G1 X103.370 Y119.779 E0.29267
G1 X103.370 Y120.314 E0.01617
G1 X109.686 Y126.630 E0.26980
G1 X109.150 Y126.630 E0.01617
G1 X103.370 Y120.850 E0.24693
G1 X103.370 Y121.385 E0.01617
G1 X108.615 Y126.630 E0.22406
G1 X108.079 Y126.630 E0.01617
G1 X103.370 Y121.921 E0.20118
G1 X103.370 Y122.456 E0.01617
G1 X107.544 Y126.630 E0.17831
G1 X107.009 Y126.630 E0.01617
G1 X103.370 Y122.991 E0.15544
G1 X103.370 Y123.527 E0.01617
G1 X106.473 Y126.630 E0.13257
G1 X105.938 Y126.630 E0.01617
G1 X103.370 Y124.062 E0.10969
G1 X103.370 Y124.598 E0.01617
G1 X105.402 Y126.630 E0.08682
G1 X104.867 Y126.630 E0.01617
G1 X103.370 Y125.133 E0.06395
G1 X103.370 Y125.669 E0.01617
G1 X104.331 Y126.630 E0.04107
G1 X103.796 Y126.630 E0.01617
G1 X103.200 Y126.034 E0.02545
G1 F5760
G1 X103.796 Y126.630 E-0.29183
G1 F5760
G1 X104.331 Y126.630 E-0.18545
G1 F5760
G1 X103.754 Y126.053 E-0.28273
G1 E-0.04000 F2100.00000
G1 X109.595 Y120.650 F7200.000
G1 E0.80000 F2100.00000
G1 F2520
G1 X115.575 Y126.630 E0.25546
G1 X116.111 Y126.630 E0.01617
G1 X110.301 Y120.820 E0.24821
G1 X110.836 Y120.820 E0.01617
G1 X116.646 Y126.630 E0.24821
G1 X117.182 Y126.630 E0.01617
G1 X111.371 Y120.820 E0.24821
G1 X111.907 Y120.820 E0.01617
G1 X117.717 Y126.630 E0.24821
G1 X118.252 Y126.630 E0.01617
G1 X112.442 Y120.820 E0.24821
G1 X112.978 Y120.820 E0.01617
G1 X118.788 Y126.630 E0.24821
G1 X119.323 Y126.630 E0.01617
G1 X113.513 Y120.820 E0.24821
G1 X114.049 Y120.820 E0.01617
G1 X119.859 Y126.630 E0.24821
G1 X120.394 Y126.630 E0.01617
G1 X114.584 Y120.820 E0.24821
G1 X115.119 Y120.820 E0.01617
G1 X120.930 Y126.630 E0.24821
G1 X121.465 Y126.630 E0.01617
G1 X115.655 Y120.820 E0.24821
G1 X116.190 Y120.820 E0.01617
G1 X122.000 Y126.630 E0.24821
G1 X122.536 Y126.630 E0.01617
G1 X116.726 Y120.820 E0.24821
G1 X117.261 Y120.820 E0.01617
G1 X123.071 Y126.630 E0.24821
G1 X123.607 Y126.630 E0.01617
G1 X117.796 Y120.820 E0.24821
G1 X118.332 Y120.820 E0.01617
G1 X124.142 Y126.630 E0.24821
G1 X124.678 Y126.630 E0.01617
G1 X118.867 Y120.820 E0.24821
G1 X119.403 Y120.820 E0.01617
G1 X125.213 Y126.630 E0.24821
G1 X125.748 Y126.630 E0.01617
G1 X119.938 Y120.820 E0.24821
G1 X120.474 Y120.820 E0.01617
G1 X126.284 Y126.630 E0.24821
G1 X126.819 Y126.630 E0.01617
G1 X121.009 Y120.820 E0.24821
G1 X121.544 Y120.820 E0.01617
G1 X127.355 Y126.630 E0.24821
G1 X127.890 Y126.630 E0.01617
G1 X122.080 Y120.820 E0.24821
G1 X122.615 Y120.820 E0.01617
G1 X128.426 Y126.630 E0.24821
G1 X128.961 Y126.630 E0.01617
G1 X123.151 Y120.820 E0.24821
G1 X123.686 Y120.820 E0.01617
G1 X129.496 Y126.630 E0.24821
G1 X130.032 Y126.630 E0.01617
G1 X124.222 Y120.820 E0.24821
G1 X124.757 Y120.820 E0.01617
G1 X130.567 Y126.630 E0.24821
G1 X131.103 Y126.630 E0.01617
G1 X125.292 Y120.820 E0.24821
G1 X125.828 Y120.820 E0.01617
G1 X131.638 Y126.630 E0.24821
G1 X132.174 Y126.630 E0.01617
G1 X126.363 Y120.820 E0.24821
G1 X126.899 Y120.820 E0.01617
G1 X132.709 Y126.630 E0.24821
G1 X133.244 Y126.630 E0.01617
G1 X127.434 Y120.820 E0.24821
G1 X127.970 Y120.820 E0.01617
G1 X133.780 Y126.630 E0.24821
G1 X134.315 Y126.630 E0.01617
G1 X128.505 Y120.820 E0.24821
G1 X129.040 Y120.820 E0.01617
G1 X134.851 Y126.630 E0.24821
G1 X135.386 Y126.630 E0.01617
G1 X129.576 Y120.820 E0.24821
G1 X130.111 Y120.820 E0.01617
G1 X135.922 Y126.630 E0.24821
G1 X136.457 Y126.630 E0.01617
G1 X130.647 Y120.820 E0.24821
G1 X131.182 Y120.820 E0.01617
G1 X136.992 Y126.630 E0.24821
G1 X137.528 Y126.630 E0.01617
G1 X131.718 Y120.820 E0.24821
G1 X132.253 Y120.820 E0.01617
G1 X138.063 Y126.630 E0.24821
G1 X138.599 Y126.630 E0.01617
G1 X132.788 Y120.820 E0.24821
G1 X133.324 Y120.820 E0.01617
G1 X139.134 Y126.630 E0.24821
G1 X139.670 Y126.630 E0.01617
G1 X133.859 Y120.820 E0.24821
G1 X134.395 Y120.820 E0.01617
G1 X140.205 Y126.630 E0.24821
G1 X140.740 Y126.630 E0.01617
G1 X134.930 Y120.820 E0.24821
G1 X135.466 Y120.820 E0.01617
G1 X141.276 Y126.630 E0.24821
G1 X141.811 Y126.630 E0.01617
G1 X136.001 Y120.820 E0.24821
G1 X136.536 Y120.820 E0.01617
G1 X142.347 Y126.630 E0.24821
G1 X142.882 Y126.630 E0.01617
G1 X137.072 Y120.820 E0.24821
G1 X137.607 Y120.820 E0.01617
G1 X143.418 Y126.630 E0.24821
G1 X143.953 Y126.630 E0.01617
G1 X138.143 Y120.820 E0.24821
G1 X138.678 Y120.820 E0.01617
G1 X144.488 Y126.630 E0.24821
G1 X145.024 Y126.630 E0.01617
G1 X139.214 Y120.820 E0.24821
G1 X139.749 Y120.820 E0.01617
G1 X145.559 Y126.630 E0.24821
G1 X146.095 Y126.630 E0.01617
G1 X140.284 Y120.820 E0.24821
G1 X140.820 Y120.820 E0.01617
G1 X146.630 Y126.630 E0.24821
G1 X146.630 Y126.095 E0.01617
G1 X140.820 Y120.284 E0.24821
G1 X140.820 Y119.749 E0.01617
G1 X146.630 Y125.559 E0.24821
G1 X146.630 Y125.024 E0.01617
G1 X140.820 Y119.214 E0.24821
G1 X140.820 Y118.678 E0.01617
G1 X146.630 Y124.488 E0.24821
G1 X146.630 Y123.953 E0.01617
G1 X140.820 Y118.143 E0.24821
G1 X140.820 Y117.607 E0.01617
G1 X146.630 Y123.418 E0.24821
G1 X146.630 Y122.882 E0.01617
G1 X140.820 Y117.072 E0.24821
G1 X140.820 Y116.536 E0.01617
G1 X146.630 Y122.347 E0.24821
G1 X146.630 Y121.811 E0.01617
G1 X140.820 Y116.001 E0.24821
G1 X140.820 Y115.466 E0.01617
G1 X146.630 Y121.276 E0.24821
G1 X146.630 Y120.740 E0.01617
G1 X140.820 Y114.930 E0.24821
G1 X140.820 Y114.395 E0.01617
G1 X146.630 Y120.205 E0.24821
G1 X146.630 Y119.670 E0.01617
G1 X140.820 Y113.859 E0.24821
G1 X140.820 Y113.324 E0.01617
G1 X146.630 Y119.134 E0.24821
G1 X146.630 Y118.599 E0.01617
G1 X140.820 Y112.788 E0.24821
G1 X140.820 Y112.253 E0.01617
G1 X146.630 Y118.063 E0.24821
G1 X146.630 Y117.528 E0.01617
G1 X140.820 Y111.718 E0.24821
G1 X140.820 Y111.182 E0.01617
G1 X146.630 Y116.992 E0.24821
G1 X146.630 Y116.457 E0.01617
G1 X140.820 Y110.647 E0.24821
G1 X140.820 Y110.111 E0.01617
G1 X146.630 Y115.922 E0.24821
G1 X146.630 Y115.386 E0.01617
G1 X140.820 Y109.576 E0.24821
G1 X140.820 Y109.040 E0.01617
G1 X146.630 Y114.851 E0.24821
G1 X146.630 Y114.315 E0.01617
G1 X140.820 Y108.505 E0.24821
G1 X140.820 Y107.970 E0.01617
G1 X146.630 Y113.780 E0.24821
G1 X146.630 Y113.244 E0.01617
G1 X140.820 Y107.434 E0.24821
G1 X140.820 Y106.899 E0.01617
G1 X146.630 Y112.709 E0.24821
G1 X146.630 Y112.174 E0.01617
