; generated by Slic3r 1.33.8.devel on 2018-07-18 at 14:36:33

; 

; external perimeters extrusion width = 0.60mm
; perimeters extrusion width = 0.43mm
; infill extrusion width = 0.70mm
; solid infill extrusion width = 0.70mm
; top infill extrusion width = 0.43mm
; first layer extrusion width = 0.42mm

M107
M115 U3.0.12 ; tell printer latest fw version
M83  ; extruder relative mode
M104 S215 ; set extruder temp
M140 S55 ; set bed temp
M190 S55 ; wait for bed temp
M109 S215 ; wait for extruder temp
G28 W ; home all without mesh bed level
G80 ; mesh bed leveling
G1 Y-3.0 F1000.0 ; go outside pritn area
G1 X60.0 E9.0  F1000.0 ; intro line
G1 X100.0 E12.5  F1000.0 ; intro line
; Filament gcode

G21 ; set units to millimeters
G90 ; use absolute coordinates
M83 ; use relative distances for extrusion
G1 E-0.80000 F2100.00000
G1 Z0.200 F7200.000
G1 X11.261 Y21.741 F7200.000
G1 E0.80000 F2100.00000
M204 S1000
G1 F2100
G1 X11.995 Y21.623 E0.02236
G1 X238.004 Y21.623 E6.79831
G1 X238.909 Y21.804 E0.02778
G1 X239.675 Y22.313 E0.02767
G1 X240.191 Y23.079 E0.02778
G1 X240.377 Y23.980 E0.02767
G1 X240.377 Y186.015 E4.87400
G1 X240.309 Y186.566 E0.01669
G1 X240.115 Y187.086 E0.01669
G1 X239.805 Y187.546 E0.01669
G1 X239.398 Y187.923 E0.01669
G1 X238.739 Y188.259 E0.02225
G1 X238.005 Y188.377 E0.02236
G1 X11.996 Y188.377 E6.79831
G1 X11.445 Y188.311 E0.01669
G1 X10.921 Y188.118 E0.01680
G1 X10.457 Y187.808 E0.01680
G1 X10.077 Y187.398 E0.01680
G1 X9.741 Y186.739 E0.02225
G1 X9.623 Y186.005 E0.02236
G1 X9.623 Y23.992 E4.87331
G1 X9.689 Y23.442 E0.01669
G1 X9.884 Y22.918 E0.01680
G1 X10.195 Y22.454 E0.01680
G1 X10.602 Y22.077 E0.01669
G1 X11.208 Y21.768 E0.02045
G1 F5760
G1 X11.995 Y21.623 E-0.27736
G1 F5760
G1 X13.389 Y21.623 E-0.48264
G1 E-0.04000 F2100.00000
G1 X30.117 Y110.537 F7200.000
G1 E0.80000 F2100.00000
G1 F1680
G1 X31.217 Y110.413 E0.03329
G1 X60.533 Y110.413 E0.88182
G1 X61.633 Y110.537 E0.03329
G1 X62.709 Y110.913 E0.03429
G1 X63.674 Y111.520 E0.03429
G1 X64.480 Y112.326 E0.03429
G1 X65.088 Y113.293 E0.03435
G1 X65.467 Y114.398 E0.03514
G1 X65.591 Y115.500 E0.03337
G1 X65.463 Y116.633 E0.03429
G1 X65.087 Y117.709 E0.03429
G1 X64.480 Y118.674 E0.03429
G1 X63.674 Y119.480 E0.03429
G1 X62.709 Y120.087 E0.03429
G1 X61.633 Y120.463 E0.03429
G1 X60.533 Y120.587 E0.03329
G1 X31.217 Y120.587 E0.88182
G1 X30.117 Y120.463 E0.03329
G1 X29.041 Y120.087 E0.03429
G1 X28.076 Y119.480 E0.03429
G1 X27.270 Y118.674 E0.03429
G1 X26.663 Y117.709 E0.03429
G1 X26.287 Y116.633 E0.03429
G1 X26.159 Y115.500 E0.03429
G1 X26.287 Y114.367 E0.03429
G1 X26.663 Y113.291 E0.03429
G1 X27.270 Y112.326 E0.03429
G1 X28.076 Y111.520 E0.03429
G1 X29.041 Y110.913 E0.03429
G1 X30.061 Y110.557 E0.03249
G1 X30.185 Y110.913 F7200.000
G1 F1260
G1 X31.238 Y110.790 E0.03189
G1 X60.512 Y110.790 E0.88055
G1 X61.548 Y110.907 E0.03138
G1 X62.544 Y111.255 E0.03174
G1 X63.437 Y111.817 E0.03173
G1 X64.183 Y112.563 E0.03173
G1 X64.745 Y113.456 E0.03176
G1 X65.097 Y114.481 E0.03258
G1 X65.211 Y115.500 E0.03085
G1 X65.093 Y116.548 E0.03173
G1 X64.745 Y117.544 E0.03173
G1 X64.183 Y118.437 E0.03174
G1 X63.437 Y119.183 E0.03173
G1 X62.544 Y119.745 E0.03174
G1 X61.548 Y120.093 E0.03174
G1 X60.512 Y120.210 E0.03138
G1 X31.238 Y120.210 E0.88054
G1 X30.202 Y120.093 E0.03138
G1 X29.206 Y119.745 E0.03174
G1 X28.313 Y119.183 E0.03174
G1 X27.567 Y118.437 E0.03173
G1 X27.005 Y117.544 E0.03174
G1 X26.657 Y116.548 E0.03173
G1 X26.539 Y115.500 E0.03173
G1 X26.657 Y114.452 E0.03173
G1 X27.005 Y113.456 E0.03173
G1 X27.567 Y112.563 E0.03174
G1 X28.313 Y111.817 E0.03173
G1 X29.206 Y111.255 E0.03173
G1 X30.129 Y110.932 E0.02940
G1 X30.302 Y110.530 F7200.000
G1 F5760
G1 X31.238 Y110.790 E-0.38750
G1 F5760
G1 X32.314 Y110.790 E-0.37250
G1 E-0.04000 F2100.00000
G1 X68.409 Y115.500 F7200.000
G1 E0.80000 F2100.00000
G1 F1680
G1 X68.537 Y114.367 E0.03429
G1 X68.913 Y113.291 E0.03429
G1 X69.520 Y112.326 E0.03429
G1 X70.326 Y111.520 E0.03429
G1 X71.291 Y110.913 E0.03429
G1 X72.367 Y110.537 E0.03429
G1 X73.467 Y110.413 E0.03329
G1 X102.783 Y110.413 E0.88182
G1 X103.883 Y110.537 E0.03329
G1 X104.959 Y110.913 E0.03429
G1 X105.924 Y111.520 E0.03429
G1 X106.730 Y112.326 E0.03429
G1 X107.338 Y113.293 E0.03435
G1 X107.717 Y114.398 E0.03514
G1 X107.841 Y115.500 E0.03337
G1 X107.713 Y116.633 E0.03429
G1 X107.337 Y117.709 E0.03429
G1 X106.730 Y118.674 E0.03429
G1 X105.924 Y119.480 E0.03429
G1 X104.959 Y120.087 E0.03429
G1 X103.883 Y120.463 E0.03429
G1 X102.783 Y120.587 E0.03329
G1 X73.467 Y120.587 E0.88182
G1 X72.367 Y120.463 E0.03329
G1 X71.291 Y120.087 E0.03429
G1 X70.326 Y119.480 E0.03429
G1 X69.520 Y118.674 E0.03429
G1 X68.912 Y117.707 E0.03435
G1 X68.533 Y116.602 E0.03514
G1 X68.416 Y115.560 E0.03156
G1 X68.791 Y115.517 F7200.000
G1 F1260
G1 X68.907 Y114.452 E0.03225
G1 X69.255 Y113.456 E0.03173
G1 X69.817 Y112.563 E0.03174
G1 X70.563 Y111.817 E0.03173
G1 X71.456 Y111.255 E0.03173
G1 X72.452 Y110.907 E0.03174
G1 X73.488 Y110.790 E0.03138
G1 X102.762 Y110.790 E0.88055
G1 X103.798 Y110.907 E0.03138
G1 X104.794 Y111.255 E0.03174
G1 X105.687 Y111.817 E0.03173
G1 X106.433 Y112.563 E0.03173
G1 X106.995 Y113.456 E0.03176
G1 X107.347 Y114.481 E0.03258
G1 X107.461 Y115.500 E0.03085
G1 X107.343 Y116.548 E0.03173
G1 X106.995 Y117.544 E0.03173
G1 X106.433 Y118.437 E0.03174
G1 X105.687 Y119.183 E0.03173
G1 X104.794 Y119.745 E0.03174
G1 X103.798 Y120.093 E0.03174
G1 X102.762 Y120.210 E0.03138
G1 X73.488 Y120.210 E0.88054
G1 X72.452 Y120.093 E0.03138
G1 X71.456 Y119.745 E0.03174
G1 X70.563 Y119.183 E0.03174
G1 X69.817 Y118.437 E0.03173
G1 X69.255 Y117.544 E0.03176
G1 X68.903 Y116.519 E0.03258
G1 X68.797 Y115.577 E0.02852
G1 X68.444 Y115.318 F7200.000
G1 F5760
G1 X68.907 Y114.452 E-0.39162
G1 F5760
G1 X69.255 Y113.456 E-0.36541
G1 F5760
G1 X69.260 Y113.449 E-0.00297
G1 E-0.04000 F2100.00000
G1 X121.413 Y122.413 F7200.000
G1 E0.80000 F2100.00000
G1 F1680
G1 X12.587 Y122.413 E3.27347
G1 X12.587 Y108.587 E0.41588
G1 X16.479 Y108.587 E0.11706
G1 X17.161 Y112.933 E0.13232
G1 X17.230 Y113.129 E0.00626
G1 X16.974 Y113.385 E0.01086
G1 X16.666 Y113.876 E0.01745
G1 X16.474 Y114.423 E0.01745
G1 X16.409 Y115.000 E0.01745
G1 X16.474 Y115.577 E0.01745
G1 X16.666 Y116.124 E0.01745
G1 X16.974 Y116.615 E0.01745
G1 X17.385 Y117.026 E0.01745
G1 X17.876 Y117.334 E0.01745
G1 X18.423 Y117.526 E0.01745
G1 X19.000 Y117.591 E0.01745
G1 X19.577 Y117.526 E0.01745
G1 X20.124 Y117.334 E0.01745
G1 X20.615 Y117.026 E0.01745
G1 X21.026 Y116.615 E0.01745
G1 X21.326 Y116.136 E0.01701
G1 X21.526 Y115.578 E0.01783
G1 X21.591 Y115.000 E0.01751
G1 X21.527 Y114.438 E0.01701
G1 X21.335 Y113.877 E0.01783
G1 X21.026 Y113.385 E0.01751
G1 X20.770 Y113.129 E0.01086
G1 X20.839 Y112.933 E0.00626
G1 X21.522 Y108.587 E0.13233
G1 X112.478 Y108.587 E2.73595
G1 X113.161 Y112.933 E0.13233
G1 X113.230 Y113.129 E0.00625
G1 X112.974 Y113.385 E0.01088
G1 X112.666 Y113.876 E0.01745
G1 X112.474 Y114.424 E0.01745
G1 X112.409 Y115.000 E0.01745
G1 X112.474 Y115.576 E0.01745
G1 X112.666 Y116.124 E0.01745
G1 X112.974 Y116.615 E0.01745
G1 X113.385 Y117.026 E0.01746
G1 X113.876 Y117.334 E0.01744
G1 X114.424 Y117.526 E0.01746
G1 X115.000 Y117.591 E0.01745
G1 X115.576 Y117.526 E0.01745
G1 X116.124 Y117.334 E0.01746
G1 X116.615 Y117.026 E0.01744
G1 X117.026 Y116.615 E0.01746
G1 X117.334 Y116.124 E0.01745
G1 X117.526 Y115.576 E0.01745
G1 X117.591 Y115.000 E0.01745
G1 X117.526 Y114.424 E0.01745
G1 X117.334 Y113.876 E0.01745
G1 X117.026 Y113.385 E0.01745
G1 X116.770 Y113.129 E0.01088
G1 X116.839 Y112.933 E0.00625
G1 X117.522 Y108.587 E0.13233
G1 X121.413 Y108.587 E0.11704
G1 X121.413 Y122.353 E0.41407
G1 X121.790 Y122.790 F7200.000
G1 F1260
G1 X12.210 Y122.790 E3.29615
G1 X12.210 Y108.210 E0.43856
G1 X16.812 Y108.210 E0.13844
G1 X17.528 Y112.841 E0.14094
G1 X17.638 Y113.156 E0.01004
G1 X17.685 Y113.231 E0.00267
G1 X17.621 Y113.271 E0.00228
G1 X17.271 Y113.621 E0.01489
G1 X17.008 Y114.041 E0.01489
G1 X16.844 Y114.508 E0.01490
G1 X16.789 Y115.000 E0.01489
G1 X16.844 Y115.492 E0.01489
G1 X17.008 Y115.959 E0.01490
G1 X17.271 Y116.379 E0.01489
G1 X17.621 Y116.729 E0.01489
G1 X18.041 Y116.992 E0.01489
G1 X18.508 Y117.156 E0.01490
G1 X19.000 Y117.211 E0.01489
G1 X19.492 Y117.156 E0.01489
G1 X19.959 Y116.992 E0.01490
G1 X20.379 Y116.729 E0.01489
G1 X20.729 Y116.379 E0.01489
G1 X20.985 Y115.971 E0.01449
G1 X21.156 Y115.493 E0.01527
G1 X21.211 Y115.000 E0.01491
G1 X21.157 Y114.521 E0.01449
G1 X20.993 Y114.041 E0.01527
G1 X20.729 Y113.621 E0.01491
G1 X20.379 Y113.271 E0.01489
G1 X20.315 Y113.231 E0.00228
G1 X20.362 Y113.156 E0.00267
G1 X20.472 Y112.841 E0.01004
G1 X21.188 Y108.210 E0.14094
G1 X112.812 Y108.210 E2.75605
G1 X113.528 Y112.841 E0.14095
G1 X113.639 Y113.156 E0.01004
G1 X113.686 Y113.231 E0.00266
G1 X113.621 Y113.271 E0.00229
G1 X113.271 Y113.621 E0.01490
G1 X113.008 Y114.041 E0.01489
G1 X112.844 Y114.508 E0.01490
G1 X112.789 Y115.000 E0.01489
G1 X112.844 Y115.492 E0.01489
G1 X113.008 Y115.959 E0.01490
G1 X113.271 Y116.379 E0.01489
G1 X113.621 Y116.729 E0.01490
G1 X114.040 Y116.992 E0.01489
G1 X114.508 Y117.156 E0.01490
G1 X115.000 Y117.211 E0.01489
G1 X115.492 Y117.156 E0.01489
G1 X115.960 Y116.992 E0.01490
G1 X116.379 Y116.729 E0.01489
G1 X116.729 Y116.379 E0.01490
G1 X116.992 Y115.959 E0.01489
G1 X117.156 Y115.492 E0.01490
G1 X117.211 Y115.000 E0.01489
G1 X117.156 Y114.508 E0.01489
G1 X116.992 Y114.041 E0.01490
G1 X116.729 Y113.621 E0.01489
G1 X116.379 Y113.271 E0.01490
G1 X116.314 Y113.231 E0.00229
G1 X116.361 Y113.156 E0.00266
G1 X116.472 Y112.841 E0.01004
G1 X117.188 Y108.210 E0.14095
G1 X121.790 Y108.210 E0.13844
G1 X121.790 Y122.730 E0.43676
G1 X121.425 Y122.626 F7200.000
G1 F5760
G1 X119.596 Y122.731 E-0.76000
G1 E-0.04000 F2100.00000
G1 X118.118 Y122.300 F7200.000
G1 E0.80000 F2100.00000
G1 F2520
G1 X104.688 Y108.870 E0.57206
G1 X104.154 Y108.870 E0.01608
G1 X117.414 Y122.130 E0.56483
G1 X116.880 Y122.130 E0.01608
G1 X103.620 Y108.870 E0.56483
G1 X103.086 Y108.870 E0.01608
G1 X104.760 Y110.544 E0.07132
G1 X103.941 Y110.259 E0.02614
G1 X102.552 Y108.870 E0.05916
G1 X102.018 Y108.870 E0.01608
G1 X103.339 Y110.191 E0.05628
G1 X102.744 Y110.130 E0.01801
G1 X101.484 Y108.870 E0.05368
G1 X100.950 Y108.870 E0.01608
G1 X102.210 Y110.130 E0.05368
G1 X101.676 Y110.130 E0.01608
G1 X100.416 Y108.870 E0.05368
G1 X99.882 Y108.870 E0.01608
G1 X101.142 Y110.130 E0.05368
G1 X100.608 Y110.130 E0.01608
G1 X99.348 Y108.870 E0.05368
G1 X98.814 Y108.870 E0.01608
G1 X100.075 Y110.130 E0.05368
G1 X99.541 Y110.130 E0.01608
G1 X98.280 Y108.870 E0.05368
G1 X97.746 Y108.870 E0.01608
G1 X99.007 Y110.130 E0.05368
G1 X98.473 Y110.130 E0.01608
G1 X97.212 Y108.870 E0.05368
G1 X96.678 Y108.870 E0.01608
G1 X97.939 Y110.130 E0.05368
G1 X97.405 Y110.130 E0.01608
G1 X96.144 Y108.870 E0.05368
G1 X95.611 Y108.870 E0.01608
G1 X96.871 Y110.130 E0.05368
G1 X96.337 Y110.130 E0.01608
G1 X95.077 Y108.870 E0.05368
G1 X94.543 Y108.870 E0.01608
G1 X95.803 Y110.130 E0.05368
G1 X95.269 Y110.130 E0.01608
G1 X94.009 Y108.870 E0.05368
G1 X93.475 Y108.870 E0.01608
G1 X94.735 Y110.130 E0.05368
G1 X94.201 Y110.130 E0.01608
G1 X92.941 Y108.870 E0.05368
G1 X92.407 Y108.870 E0.01608
G1 X93.667 Y110.130 E0.05368
G1 X93.133 Y110.130 E0.01608
G1 X91.873 Y108.870 E0.05368
G1 X91.339 Y108.870 E0.01608
G1 X92.599 Y110.130 E0.05368
G1 X92.065 Y110.130 E0.01608
G1 X90.805 Y108.870 E0.05368
G1 X90.271 Y108.870 E0.01608
G1 X91.531 Y110.130 E0.05368
G1 X90.997 Y110.130 E0.01608
G1 X89.737 Y108.870 E0.05368
G1 X89.203 Y108.870 E0.01608
G1 X90.463 Y110.130 E0.05368
G1 X89.929 Y110.130 E0.01608
G1 X88.669 Y108.870 E0.05368
G1 X88.135 Y108.870 E0.01608
G1 X89.396 Y110.130 E0.05368
G1 X88.862 Y110.130 E0.01608
G1 X87.601 Y108.870 E0.05368
G1 X87.067 Y108.870 E0.01608
G1 X88.328 Y110.130 E0.05368
G1 X87.794 Y110.130 E0.01608
G1 X86.533 Y108.870 E0.05368
G1 X85.999 Y108.870 E0.01608
G1 X87.260 Y110.130 E0.05368
G1 X86.726 Y110.130 E0.01608
G1 X85.465 Y108.870 E0.05368
G1 X84.932 Y108.870 E0.01608
G1 X86.192 Y110.130 E0.05368
G1 X85.658 Y110.130 E0.01608
G1 X84.398 Y108.870 E0.05368
G1 X83.864 Y108.870 E0.01608
G1 X85.124 Y110.130 E0.05368
G1 X84.590 Y110.130 E0.01608
G1 X83.330 Y108.870 E0.05368
G1 X82.796 Y108.870 E0.01608
G1 X84.056 Y110.130 E0.05368
G1 X83.522 Y110.130 E0.01608
G1 X82.262 Y108.870 E0.05368
G1 X81.728 Y108.870 E0.01608
G1 X82.988 Y110.130 E0.05368
G1 X82.454 Y110.130 E0.01608
G1 X81.194 Y108.870 E0.05368
G1 X80.660 Y108.870 E0.01608
G1 X81.920 Y110.130 E0.05368
G1 X81.386 Y110.130 E0.01608
G1 X80.126 Y108.870 E0.05368
G1 X79.592 Y108.870 E0.01608
G1 X80.852 Y110.130 E0.05368
G1 X80.318 Y110.130 E0.01608
G1 X79.058 Y108.870 E0.05368
G1 X78.524 Y108.870 E0.01608
G1 X79.784 Y110.130 E0.05368
G1 X79.250 Y110.130 E0.01608
G1 X77.990 Y108.870 E0.05368
G1 X77.456 Y108.870 E0.01608
G1 X78.716 Y110.130 E0.05368
G1 X78.183 Y110.130 E0.01608
G1 X76.922 Y108.870 E0.05368
G1 X76.388 Y108.870 E0.01608
G1 X77.649 Y110.130 E0.05368
G1 X77.115 Y110.130 E0.01608
G1 X75.854 Y108.870 E0.05368
G1 X75.320 Y108.870 E0.01608
G1 X76.581 Y110.130 E0.05368
G1 X76.047 Y110.130 E0.01608
G1 X74.786 Y108.870 E0.05368
G1 X74.253 Y108.870 E0.01608
G1 X75.513 Y110.130 E0.05368
G1 X74.979 Y110.130 E0.01608
G1 X73.719 Y108.870 E0.05368
G1 X73.185 Y108.870 E0.01608
G1 X74.445 Y110.130 E0.05368
G1 X73.911 Y110.130 E0.01608
G1 X72.651 Y108.870 E0.05368
G1 X72.117 Y108.870 E0.01608
G1 X73.385 Y110.138 E0.05400
G1 X72.905 Y110.192 E0.01455
G1 X71.583 Y108.870 E0.05631
G1 X71.049 Y108.870 E0.01608
G1 X72.425 Y110.246 E0.05861
G1 X72.304 Y110.259 E0.00366
G1 X72.008 Y110.363 E0.00944
G1 X70.515 Y108.870 E0.06360
G1 X69.981 Y108.870 E0.01608
G1 X71.612 Y110.501 E0.06949
G1 X71.217 Y110.640 E0.01262
G1 X69.447 Y108.870 E0.07539
G1 X68.913 Y108.870 E0.01608
G1 X70.881 Y110.837 E0.08381
G1 X70.553 Y111.043 E0.01166
G1 X68.379 Y108.870 E0.09258
G1 X67.845 Y108.870 E0.01608
G1 X70.225 Y111.249 E0.10136
G1 X70.148 Y111.297 E0.00271
G1 X69.944 Y111.502 E0.00873
G1 X67.311 Y108.870 E0.11213
G1 X66.777 Y108.870 E0.01608
G1 X69.677 Y111.769 E0.12350
G1 X69.410 Y112.036 E0.01137
G1 X66.243 Y108.870 E0.13488
G1 X65.709 Y108.870 E0.01608
G1 X69.178 Y112.339 E0.14775
G1 X68.972 Y112.666 E0.01166
G1 X65.175 Y108.870 E0.16172
G1 X64.641 Y108.870 E0.01608
G1 X68.766 Y112.994 E0.17568
G1 X68.657 Y113.168 E0.00617
G1 X68.592 Y113.354 E0.00595
G1 X64.107 Y108.870 E0.19101
G1 X63.574 Y108.870 E0.01608
G1 X68.453 Y113.750 E0.20786
G1 X68.315 Y114.145 E0.01262
G1 X63.040 Y108.870 E0.22471
G1 X62.506 Y108.870 E0.01608
G1 X68.227 Y114.591 E0.24371
G1 X68.173 Y115.071 E0.01455
G1 X61.972 Y108.870 E0.26415
G1 X61.438 Y108.870 E0.01608
G1 X68.132 Y115.564 E0.28514
G1 X68.200 Y116.166 E0.01824
G1 X65.418 Y113.384 E0.11849
G1 X65.697 Y114.197 E0.02588
G1 X68.303 Y116.803 E0.11104
G1 X68.582 Y117.616 E0.02588
G1 X65.800 Y114.834 E0.11849
G1 X65.868 Y115.436 E0.01824
G1 X72.562 Y122.130 E0.28514
G1 X73.096 Y122.130 E0.01608
G1 X71.385 Y120.419 E0.07288
G1 X72.206 Y120.707 E0.02621
G1 X73.630 Y122.130 E0.06064
G1 X74.164 Y122.130 E0.01608
G1 X72.834 Y120.800 E0.05664
G1 X73.436 Y120.868 E0.01824
G1 X74.698 Y122.130 E0.05375
G1 X75.232 Y122.130 E0.01608
G1 X73.972 Y120.870 E0.05368
G1 X74.506 Y120.870 E0.01608
G1 X75.766 Y122.130 E0.05368
G1 X76.300 Y122.130 E0.01608
G1 X75.040 Y120.870 E0.05368
G1 X75.574 Y120.870 E0.01608
G1 X76.834 Y122.130 E0.05368
G1 X77.368 Y122.130 E0.01608
G1 X76.107 Y120.870 E0.05368
G1 X76.641 Y120.870 E0.01608
G1 X77.902 Y122.130 E0.05368
G1 X78.436 Y122.130 E0.01608
G1 X77.175 Y120.870 E0.05368
G1 X77.709 Y120.870 E0.01608
G1 X78.970 Y122.130 E0.05368
G1 X79.504 Y122.130 E0.01608
G1 X78.243 Y120.870 E0.05368
G1 X78.777 Y120.870 E0.01608
G1 X80.037 Y122.130 E0.05368
G1 X80.571 Y122.130 E0.01608
G1 X79.311 Y120.870 E0.05368
G1 X79.845 Y120.870 E0.01608
G1 X81.105 Y122.130 E0.05368
G1 X81.639 Y122.130 E0.01608
G1 X80.379 Y120.870 E0.05368
G1 X80.913 Y120.870 E0.01608
G1 X82.173 Y122.130 E0.05368
G1 X82.707 Y122.130 E0.01608
G1 X81.447 Y120.870 E0.05368
G1 X81.981 Y120.870 E0.01608
G1 X83.241 Y122.130 E0.05368
G1 X83.775 Y122.130 E0.01608
G1 X82.515 Y120.870 E0.05368
