; generated by Slic3r 1.33.8.devel on 2018-03-18 at 21:41:09

; 

; external perimeters extrusion width = 0.60mm
; perimeters extrusion width = 0.43mm
; infill extrusion width = 0.70mm
; solid infill extrusion width = 0.70mm
; top infill extrusion width = 0.43mm
; first layer extrusion width = 0.42mm

M107
M115 U3.0.12 ; tell printer latest fw version
M83  ; extruder relative mode
M104 S215 ; set extruder temp
M140 S55 ; set bed temp
M190 S55 ; wait for bed temp
M109 S215 ; wait for extruder temp
G28 W ; home all without mesh bed level
G80 ; mesh bed leveling
G1 Y-3.0 F1000.0 ; go outside pritn area
G1 X60.0 E9.0  F1000.0 ; intro line
G1 X100.0 E12.5  F1000.0 ; intro line
; Filament gcode

G21 ; set units to millimeters
G90 ; use absolute coordinates
M83 ; use relative distances for extrusion
G1 E-0.80000 F2100.00000
G1 Z0.200 F7200.000
G1 X100.773 Y88.554 F7200.000
G1 E0.80000 F2100.00000
M204 S1000
G1 F2100
G1 X150.424 Y97.273 E1.51634
G1 X150.976 Y97.441 E0.01737
G1 X151.516 Y97.774 E0.01908
G1 X151.947 Y98.234 E0.01896
G1 X152.241 Y98.792 E0.01896
G1 X152.379 Y99.407 E0.01896
G1 X152.388 Y110.424 E0.33140
G1 X152.185 Y111.348 E0.02845
G1 X151.891 Y111.841 E0.01726
G1 X151.488 Y112.249 E0.01726
G1 X150.998 Y112.549 E0.01726
G1 X150.451 Y112.722 E0.01726
G1 X101.164 Y121.413 E1.50541
G1 X100.474 Y121.427 E0.02078
G1 X99.808 Y121.242 E0.02078
G1 X99.386 Y121.001 E0.01464
G1 X99.019 Y120.675 E0.01475
G1 X98.726 Y120.282 E0.01475
G1 X98.521 Y119.836 E0.01475
G1 X97.621 Y114.838 E0.15276
G1 X97.613 Y95.294 E0.58787
G1 X98.434 Y90.492 E0.14654
G1 X98.619 Y89.921 E0.01805
G1 X98.985 Y89.362 E0.02010
G1 X99.495 Y88.925 E0.02021
G1 X100.108 Y88.649 E0.02021
G1 X100.713 Y88.563 E0.01841
G1 F5760
G1 X102.875 Y88.941 E-0.76000
G1 E-0.04000 F2100.00000
G1 X101.247 Y91.612 F7200.000
G1 E0.80000 F2100.00000
G1 F1680
G1 X149.331 Y100.090 E1.46867
G1 X148.753 Y103.365 E0.10004
G1 X147.940 Y103.222 E0.02484
G1 X148.287 Y101.252 E0.06016
G1 X137.972 Y99.434 E0.31506
G1 X137.625 Y101.403 E0.06016
G1 X134.770 Y100.900 E0.08719
G1 X134.439 Y100.942 E0.01004
G1 X133.927 Y101.077 E0.01593
G1 X133.436 Y101.276 E0.01593
G1 X132.974 Y101.536 E0.01593
G1 X132.550 Y101.852 E0.01593
G1 X132.169 Y102.221 E0.01593
G1 X131.839 Y102.635 E0.01593
G1 X131.565 Y103.088 E0.01593
G1 X131.350 Y103.572 E0.01593
G1 X131.199 Y104.080 E0.01593
G1 X131.115 Y104.603 E0.01594
G1 X131.098 Y105.133 E0.01593
G1 X131.149 Y105.660 E0.01593
G1 X131.267 Y106.176 E0.01593
G1 X131.450 Y106.673 E0.01593
G1 X131.695 Y107.143 E0.01593
G1 X131.998 Y107.577 E0.01593
G1 X132.354 Y107.969 E0.01593
G1 X132.757 Y108.313 E0.01593
G1 X133.201 Y108.602 E0.01593
G1 X133.678 Y108.832 E0.01593
G1 X134.181 Y108.999 E0.01593
G1 X134.735 Y109.106 E0.01698
G1 X137.625 Y108.597 E0.08827
G1 X137.972 Y110.566 E0.06016
G1 X148.287 Y108.748 E0.31506
G1 X147.940 Y106.778 E0.06016
G1 X148.753 Y106.635 E0.02484
G1 X149.331 Y109.910 E0.10004
G1 X101.247 Y118.388 E1.46867
G1 X100.669 Y115.113 E0.10004
G1 X133.329 Y109.354 E0.99754
G1 X132.059 Y108.274 E0.05015
G1 X131.667 Y107.841 E0.01757
G1 X131.332 Y107.362 E0.01756
G1 X131.062 Y106.845 E0.01757
G1 X130.861 Y106.297 E0.01756
G1 X130.731 Y105.727 E0.01757
G1 X130.675 Y105.146 E0.01757
G1 X130.693 Y104.562 E0.01756
G1 X130.787 Y103.986 E0.01757
G1 X130.953 Y103.426 E0.01757
G1 X131.189 Y102.892 E0.01756
G1 X131.492 Y102.393 E0.01756
G1 X131.856 Y101.936 E0.01756
G1 X132.275 Y101.530 E0.01757
G1 X133.435 Y100.664 E0.04353
G1 X100.669 Y94.887 E1.00080
G1 X101.236 Y91.671 E0.09824
G1 F5760
G1 X103.398 Y92.049 E-0.76000
G1 E-0.04000 F2100.00000
G1 X147.850 Y101.558 F7200.000
G1 E0.80000 F2100.00000
G1 F1260
G1 X138.278 Y99.870 E0.29238
G1 X137.931 Y101.840 E0.06016
G1 X134.762 Y101.281 E0.09680
G1 X134.512 Y101.313 E0.00758
G1 X134.046 Y101.435 E0.01448
G1 X133.600 Y101.616 E0.01448
G1 X133.180 Y101.852 E0.01448
G1 X132.795 Y102.140 E0.01448
G1 X132.449 Y102.475 E0.01448
G1 X132.149 Y102.851 E0.01448
G1 X131.900 Y103.263 E0.01448
G1 X131.705 Y103.703 E0.01448
G1 X131.568 Y104.164 E0.01448
G1 X131.491 Y104.639 E0.01448
G1 X131.476 Y105.120 E0.01448
G1 X131.522 Y105.599 E0.01448
G1 X131.629 Y106.069 E0.01448
G1 X131.795 Y106.520 E0.01448
G1 X132.018 Y106.947 E0.01448
G1 X132.293 Y107.342 E0.01448
G1 X132.617 Y107.698 E0.01448
G1 X132.983 Y108.010 E0.01448
G1 X133.386 Y108.273 E0.01448
G1 X133.820 Y108.481 E0.01448
G1 X134.277 Y108.633 E0.01448
G1 X134.738 Y108.723 E0.01414
G1 X137.931 Y108.160 E0.09751
G1 X138.278 Y110.130 E0.06016
G1 X147.850 Y108.442 E0.29238
G1 X147.503 Y106.472 E0.06016
G1 X149.059 Y106.198 E0.04753
G1 X149.768 Y110.216 E0.12273
G1 X100.941 Y118.825 E1.49136
G1 X100.232 Y114.807 E0.12273
G1 X132.474 Y109.122 E0.98479
G1 X131.796 Y108.545 E0.02678
G1 X131.371 Y108.077 E0.01902
G1 X131.009 Y107.558 E0.01902
G1 X130.717 Y106.998 E0.01902
G1 X130.498 Y106.404 E0.01902
G1 X130.358 Y105.788 E0.01902
G1 X130.297 Y105.158 E0.01902
G1 X130.317 Y104.526 E0.01902
G1 X130.418 Y103.902 E0.01902
G1 X130.598 Y103.296 E0.01902
G1 X130.854 Y102.717 E0.01902
G1 X131.182 Y102.177 E0.01902
G1 X131.576 Y101.682 E0.01902
G1 X132.030 Y101.242 E0.01902
G1 X132.510 Y100.884 E0.01801
G1 X100.232 Y95.193 E0.98589
G1 X100.941 Y91.175 E0.12273
G1 X149.768 Y99.784 E1.49136
G1 X149.059 Y103.802 E0.12273
G1 X147.503 Y103.528 E0.04753
G1 X147.840 Y101.617 E0.05836
G1 X147.831 Y101.159 F7200.000
G1 X148.312 Y101.142 F7200.000
G1 F2520
G1 X147.165 Y99.995 E0.04928
G1 X146.511 Y99.880 E0.02018
G1 X147.449 Y100.817 E0.04028
G1 X146.795 Y100.702 E0.02018
G1 X145.858 Y99.765 E0.04028
G1 X145.204 Y99.649 E0.02018
G1 X146.141 Y100.587 E0.04028
G1 X145.487 Y100.471 E0.02018
G1 X144.550 Y99.534 E0.04028
G1 X143.896 Y99.419 E0.02018
G1 X144.833 Y100.356 E0.04028
G1 X144.179 Y100.241 E0.02018
G1 X143.242 Y99.304 E0.04028
G1 X142.588 Y99.188 E0.02018
G1 X143.525 Y100.126 E0.04028
G1 X142.872 Y100.010 E0.02018
G1 X141.934 Y99.073 E0.04028
G1 X141.280 Y98.958 E0.02018
G1 X142.218 Y99.895 E0.04028
G1 X141.564 Y99.780 E0.02018
G1 X140.626 Y98.842 E0.04028
G1 X139.973 Y98.727 E0.02018
G1 X140.910 Y99.664 E0.04028
G1 X140.256 Y99.549 E0.02018
G1 X139.319 Y98.612 E0.04028
G1 X138.665 Y98.496 E0.02018
G1 X139.602 Y99.434 E0.04028
G1 X138.948 Y99.318 E0.02018
G1 X138.011 Y98.381 E0.04028
G1 X137.357 Y98.266 E0.02018
G1 X138.294 Y99.203 E0.04028
G1 X137.743 Y99.106 E0.01702
G1 X137.730 Y99.178 E0.00221
G1 X136.703 Y98.151 E0.04414
G1 X136.049 Y98.035 E0.02018
G1 X137.650 Y99.636 E0.06878
G1 X137.569 Y100.093 E0.01413
G1 X135.395 Y97.920 E0.09342
G1 X134.742 Y97.805 E0.02018
G1 X137.488 Y100.551 E0.11805
G1 X137.407 Y101.009 E0.01413
G1 X134.088 Y97.689 E0.14269
G1 X133.434 Y97.574 E0.02018
G1 X136.837 Y100.977 E0.14626
G1 X136.183 Y100.862 E0.02018
G1 X132.780 Y97.459 E0.14626
G1 X132.126 Y97.344 E0.02018
G1 X135.529 Y100.746 E0.14626
G1 X134.875 Y100.631 E0.02018
G1 X131.472 Y97.228 E0.14626
G1 X130.818 Y97.113 E0.02018
G1 X134.228 Y100.522 E0.14655
G1 X133.873 Y100.375 E0.01167
G1 X133.690 Y100.388 E0.00558
G1 X133.644 Y100.414 E0.00159
G1 X133.567 Y100.400 E0.00238
G1 X130.164 Y96.998 E0.14626
G1 X129.510 Y96.882 E0.02018
G1 X132.913 Y100.285 E0.14626
G1 X132.259 Y100.170 E0.02018
G1 X128.857 Y96.767 E0.14626
G1 X128.203 Y96.652 E0.02018
G1 X131.605 Y100.055 E0.14626
G1 X130.952 Y99.939 E0.02018
G1 X127.549 Y96.536 E0.14626
G1 X126.895 Y96.421 E0.02018
G1 X130.298 Y99.824 E0.14626
G1 X129.644 Y99.709 E0.02018
G1 X126.241 Y96.306 E0.14626
G1 X125.587 Y96.191 E0.02018
G1 X128.990 Y99.593 E0.14626
G1 X128.336 Y99.478 E0.02018
G1 X124.933 Y96.075 E0.14626
G1 X124.279 Y95.960 E0.02018
G1 X127.682 Y99.363 E0.14626
G1 X127.028 Y99.247 E0.02018
G1 X123.625 Y95.845 E0.14626
G1 X122.972 Y95.729 E0.02018
G1 X126.374 Y99.132 E0.14626
G1 X125.721 Y99.017 E0.02018
G1 X122.318 Y95.614 E0.14626
G1 X121.664 Y95.499 E0.02018
G1 X125.067 Y98.902 E0.14626
G1 X124.413 Y98.786 E0.02018
G1 X121.010 Y95.383 E0.14626
G1 X120.356 Y95.268 E0.02018
G1 X123.759 Y98.671 E0.14626
G1 X123.105 Y98.556 E0.02018
G1 X119.702 Y95.153 E0.14626
G1 X119.048 Y95.038 E0.02018
G1 X122.451 Y98.440 E0.14626
G1 X121.797 Y98.325 E0.02018
G1 X118.394 Y94.922 E0.14626
G1 X117.740 Y94.807 E0.02018
G1 X121.143 Y98.210 E0.14626
G1 X120.489 Y98.095 E0.02018
G1 X117.087 Y94.692 E0.14626
G1 X116.433 Y94.576 E0.02018
G1 X119.836 Y97.979 E0.14626
G1 X119.182 Y97.864 E0.02018
G1 X115.779 Y94.461 E0.14626
G1 X115.125 Y94.346 E0.02018
G1 X118.528 Y97.749 E0.14626
G1 X117.874 Y97.633 E0.02018
G1 X114.471 Y94.230 E0.14626
G1 X113.817 Y94.115 E0.02018
G1 X117.220 Y97.518 E0.14626
G1 X116.566 Y97.403 E0.02018
G1 X113.163 Y94.000 E0.14626
G1 X112.509 Y93.885 E0.02018
G1 X115.912 Y97.287 E0.14626
G1 X115.258 Y97.172 E0.02018
G1 X111.855 Y93.769 E0.14626
G1 X111.202 Y93.654 E0.02018
G1 X114.604 Y97.057 E0.14626
G1 X113.951 Y96.942 E0.02018
G1 X110.548 Y93.539 E0.14626
G1 X109.894 Y93.423 E0.02018
G1 X113.297 Y96.826 E0.14626
G1 X112.643 Y96.711 E0.02018
G1 X109.240 Y93.308 E0.14626
G1 X108.586 Y93.193 E0.02018
G1 X111.989 Y96.596 E0.14626
G1 X111.335 Y96.480 E0.02018
G1 X107.932 Y93.077 E0.14626
G1 X107.278 Y92.962 E0.02018
G1 X110.681 Y96.365 E0.14626
G1 X110.027 Y96.250 E0.02018
G1 X106.624 Y92.847 E0.14626
G1 X105.970 Y92.732 E0.02018
G1 X109.373 Y96.134 E0.14626
G1 X108.719 Y96.019 E0.02018
G1 X105.317 Y92.616 E0.14626
G1 X104.663 Y92.501 E0.02018
G1 X108.066 Y95.904 E0.14626
G1 X107.412 Y95.789 E0.02018
G1 X104.009 Y92.386 E0.14626
G1 X103.355 Y92.270 E0.02018
G1 X106.758 Y95.673 E0.14626
G1 X106.104 Y95.558 E0.02018
G1 X102.701 Y92.155 E0.14626
G1 X102.047 Y92.040 E0.02018
G1 X105.450 Y95.443 E0.14626
G1 X104.796 Y95.327 E0.02018
G1 X101.466 Y91.997 E0.14314
G1 X101.385 Y92.455 E0.01413
G1 X104.142 Y95.212 E0.11851
G1 X103.488 Y95.097 E0.02018
G1 X101.304 Y92.913 E0.09387
G1 X101.224 Y93.371 E0.01413
G1 X102.834 Y94.981 E0.06923
G1 X102.181 Y94.866 E0.02018
G1 X101.143 Y93.829 E0.04460
G1 X101.062 Y94.286 E0.01413
G1 X101.736 Y94.960 E0.02896
G1 F5760
G1 X101.062 Y94.286 E-0.32998
G1 F5760
G1 X101.143 Y93.829 E-0.16103
G1 F5760
G1 X101.692 Y94.378 E-0.26899
G1 E-0.04000 F2100.00000
G1 X101.990 Y118.143 F7200.000
G1 E0.80000 F2100.00000
G1 F2520
G1 X101.384 Y117.537 E0.02588
G1 X101.269 Y116.887 E0.01993
G1 X102.298 Y117.916 E0.04396
G1 X102.753 Y117.836 E0.01396
G1 X101.154 Y116.237 E0.06829
G1 X101.040 Y115.587 E0.01993
G1 X103.208 Y117.755 E0.09263
G1 X103.664 Y117.675 E0.01396
G1 X101.281 Y115.292 E0.10177
G1 X101.736 Y115.212 E0.01396
G1 X104.119 Y117.595 E0.10177
G1 X104.574 Y117.515 E0.01396
G1 X102.191 Y115.132 E0.10177
G1 X102.646 Y115.052 E0.01396
G1 X105.029 Y117.434 E0.10177
G1 X105.484 Y117.354 E0.01396
G1 X103.101 Y114.971 E0.10177
G1 X103.556 Y114.891 E0.01396
G1 X105.939 Y117.274 E0.10177
G1 X106.394 Y117.194 E0.01396
G1 X104.011 Y114.811 E0.10177
G1 X104.467 Y114.731 E0.01396
G1 X106.849 Y117.113 E0.10177
G1 X107.304 Y117.033 E0.01396
G1 X104.922 Y114.650 E0.10177
G1 X105.377 Y114.570 E0.01396
G1 X107.760 Y116.953 E0.10177
G1 X108.215 Y116.873 E0.01396
G1 X105.832 Y114.490 E0.10177
G1 X106.287 Y114.410 E0.01396
G1 X108.670 Y116.792 E0.10177
G1 X109.125 Y116.712 E0.01396
G1 X106.742 Y114.329 E0.10177
G1 X107.197 Y114.249 E0.01396
G1 X109.580 Y116.632 E0.10177
G1 X110.035 Y116.552 E0.01396
G1 X107.652 Y114.169 E0.10177
G1 X108.107 Y114.089 E0.01396
G1 X110.490 Y116.471 E0.10177
G1 X110.945 Y116.391 E0.01396
G1 X108.563 Y114.009 E0.10177
G1 X109.018 Y113.928 E0.01396
G1 X111.400 Y116.311 E0.10177
G1 X111.855 Y116.231 E0.01396
G1 X109.473 Y113.848 E0.10177
G1 X109.928 Y113.768 E0.01396
G1 X112.311 Y116.150 E0.10177
G1 X112.766 Y116.070 E0.01396
G1 X110.383 Y113.688 E0.10177
G1 X110.838 Y113.607 E0.01396
G1 X113.221 Y115.990 E0.10177
G1 X113.676 Y115.910 E0.01396
G1 X111.293 Y113.527 E0.10177
G1 X111.748 Y113.447 E0.01396
G1 X114.131 Y115.829 E0.10177
G1 X114.586 Y115.749 E0.01396
G1 X112.203 Y113.367 E0.10177
G1 X112.658 Y113.286 E0.01396
G1 X115.041 Y115.669 E0.10177
G1 X115.496 Y115.589 E0.01396
G1 X113.114 Y113.206 E0.10177
G1 X113.569 Y113.126 E0.01396
G1 X115.951 Y115.509 E0.10177
G1 X116.407 Y115.428 E0.01396
G1 X114.024 Y113.046 E0.10177
G1 X114.479 Y112.965 E0.01396
G1 X116.862 Y115.348 E0.10177
G1 X117.317 Y115.268 E0.01396
G1 X114.934 Y112.885 E0.10177
G1 X115.389 Y112.805 E0.01396
G1 X117.772 Y115.188 E0.10177
G1 X118.227 Y115.107 E0.01396
G1 X115.844 Y112.725 E0.10177
G1 X116.299 Y112.644 E0.01396
G1 X118.682 Y115.027 E0.10177
G1 X119.137 Y114.947 E0.01396
G1 X116.754 Y112.564 E0.10177
G1 X117.210 Y112.484 E0.01396
G1 X119.592 Y114.867 E0.10177
G1 X120.047 Y114.786 E0.01396
G1 X117.665 Y112.404 E0.10177
G1 X118.120 Y112.323 E0.01396
G1 X120.503 Y114.706 E0.10177
G1 X120.958 Y114.626 E0.01396
G1 X118.575 Y112.243 E0.10177
G1 X119.030 Y112.163 E0.01396
G1 X121.413 Y114.546 E0.10177
G1 X121.868 Y114.465 E0.01396
G1 X119.485 Y112.083 E0.10177
G1 X119.940 Y112.002 E0.01396
G1 X122.323 Y114.385 E0.10177
G1 X122.778 Y114.305 E0.01396
G1 X120.395 Y111.922 E0.10177
G1 X120.850 Y111.842 E0.01396
G1 X123.233 Y114.225 E0.10177
G1 X123.688 Y114.144 E0.01396
G1 X121.306 Y111.762 E0.10177
G1 X121.761 Y111.681 E0.01396
G1 X124.143 Y114.064 E0.10177
G1 X124.598 Y113.984 E0.01396
G1 X122.216 Y111.601 E0.10177
G1 X122.671 Y111.521 E0.01396
G1 X125.054 Y113.904 E0.10177
G1 X125.509 Y113.823 E0.01396
G1 X123.126 Y111.441 E0.10177
G1 X123.581 Y111.360 E0.01396
G1 X125.964 Y113.743 E0.10177
G1 X126.419 Y113.663 E0.01396
G1 X124.036 Y111.280 E0.10177
G1 X124.491 Y111.200 E0.01396
G1 X126.874 Y113.583 E0.10177
G1 X127.329 Y113.502 E0.01396
G1 X124.946 Y111.120 E0.10177
G1 X125.401 Y111.039 E0.01396
G1 X127.784 Y113.422 E0.10177
G1 X128.239 Y113.342 E0.01396
G1 X125.857 Y110.959 E0.10177
G1 X126.312 Y110.879 E0.01396
G1 X128.694 Y113.262 E0.10177
G1 X129.150 Y113.181 E0.01396
G1 X126.767 Y110.799 E0.10177
G1 X127.222 Y110.718 E0.01396
G1 X129.605 Y113.101 E0.10177
G1 X130.060 Y113.021 E0.01396
G1 X127.677 Y110.638 E0.10177
G1 X128.132 Y110.558 E0.01396
G1 X130.515 Y112.941 E0.10177
G1 X130.970 Y112.860 E0.01396
G1 X128.587 Y110.478 E0.10177
G1 X129.042 Y110.397 E0.01396
G1 X131.425 Y112.780 E0.10177
G1 X131.880 Y112.700 E0.01396
G1 X129.497 Y110.317 E0.10177
G1 X129.953 Y110.237 E0.01396
G1 X132.335 Y112.620 E0.10177
G1 X132.790 Y112.539 E0.01396
G1 X130.408 Y110.157 E0.10177
G1 X130.863 Y110.076 E0.01396
G1 X133.246 Y112.459 E0.10177
G1 X133.701 Y112.379 E0.01396
G1 X131.318 Y109.996 E0.10177
G1 X131.773 Y109.916 E0.01396
G1 X134.156 Y112.299 E0.10177
G1 X134.611 Y112.218 E0.01396
G1 X132.228 Y109.836 E0.10177
G1 X132.683 Y109.755 E0.01396
G1 X135.066 Y112.138 E0.10177
G1 X135.521 Y112.058 E0.01396
G1 X133.138 Y109.675 E0.10177
G1 X133.593 Y109.595 E0.01396
G1 X135.976 Y111.978 E0.10177
G1 X136.431 Y111.897 E0.01396
G1 X133.939 Y109.405 E0.10646
G1 X134.125 Y109.341 E0.00593
G1 X134.099 Y109.269 E0.00230
G1 X134.398 Y109.329 E0.00920
G1 X136.886 Y111.817 E0.10628
G1 X137.341 Y111.737 E0.01396
G1 X134.959 Y109.354 E0.10177
G1 X135.414 Y109.274 E0.01396
G1 X137.797 Y111.657 E0.10177
G1 X138.252 Y111.576 E0.01396
G1 X135.869 Y109.194 E0.10177
G1 X136.324 Y109.113 E0.01396
G1 X137.665 Y110.455 E0.05729
G1 X137.743 Y110.894 E0.01347
G1 X138.051 Y110.840 E0.00943
G1 X138.707 Y111.496 E0.02803
G1 X139.162 Y111.416 E0.01396
G1 X138.506 Y110.760 E0.02803
G1 X138.961 Y110.679 E0.01396
G1 X139.617 Y111.336 E0.02803
G1 X140.072 Y111.255 E0.01396
G1 X139.416 Y110.599 E0.02803
G1 X139.871 Y110.519 E0.01396
G1 X140.527 Y111.175 E0.02803
G1 X140.982 Y111.095 E0.01396
G1 X140.326 Y110.439 E0.02803
G1 X140.781 Y110.358 E0.01396
G1 X141.437 Y111.015 E0.02803
G1 X141.893 Y110.934 E0.01396
G1 X141.236 Y110.278 E0.02803
G1 X141.691 Y110.198 E0.01396
G1 X142.348 Y110.854 E0.02803
G1 X142.803 Y110.774 E0.01396
G1 X142.146 Y110.118 E0.02803
G1 X142.602 Y110.037 E0.01396
G1 X143.258 Y110.694 E0.02803
G1 X143.713 Y110.613 E0.01396
G1 X143.057 Y109.957 E0.02803
G1 X143.512 Y109.877 E0.01396
G1 X144.168 Y110.533 E0.02803
G1 X144.623 Y110.453 E0.01396
G1 X143.967 Y109.797 E0.02803
G1 X144.422 Y109.716 E0.01396
G1 X145.078 Y110.373 E0.02803
