; generated by Slic3r 1.33.8.devel on 2017-11-09 at 17:43:30

; 

; external perimeters extrusion width = 0.45mm
; perimeters extrusion width = 0.45mm
; infill extrusion width = 0.45mm
; solid infill extrusion width = 0.45mm
; top infill extrusion width = 0.40mm
; first layer extrusion width = 0.42mm

M107
M115 U3.0.12 ; tell printer latest fw version
M83  ; extruder relative mode
M104 S215 ; set extruder temp
M140 S55 ; set bed temp
M190 S55 ; wait for bed temp
M109 S215 ; wait for extruder temp
G28 W ; home all without mesh bed level
G80 ; mesh bed leveling
G1 Y-3.0 F1000.0 ; go outside pritn area
G1 X60.0 E9.0  F1000.0 ; intro line
G1 X100.0 E12.5  F1000.0 ; intro line
; Filament gcode

G21 ; set units to millimeters
G90 ; use absolute coordinates
M83 ; use relative distances for extrusion
G1 E-0.80000 F2100.00000
G1 Z0.200 F7200.000
G1 X113.464 Y101.948 F7200.000
G1 E0.80000 F2100.00000
M204 S1000
G1 F1158
G1 X113.734 Y101.414 E0.01799
G1 X114.936 Y99.617 E0.06503
G1 X115.717 Y98.866 E0.03258
G1 X117.428 Y97.725 E0.06187
G1 X117.979 Y97.452 E0.01851
G1 X120.406 Y96.926 E0.07470
G1 X121.006 Y96.869 E0.01812
G1 X121.584 Y96.924 E0.01746
G1 X132.507 Y99.057 E0.33477
G1 X133.530 Y99.419 E0.03264
G1 X134.788 Y100.179 E0.04421
G1 X135.748 Y101.125 E0.04056
G1 X136.319 Y101.951 E0.03019
G1 X136.867 Y103.229 E0.04182
G1 X137.082 Y104.228 E0.03073
G1 X137.098 Y105.610 E0.04160
G1 X136.915 Y106.612 E0.03063
G1 X136.395 Y107.908 E0.04200
G1 X135.821 Y108.788 E0.03160
G1 X135.285 Y109.385 E0.02414
G1 X134.572 Y109.979 E0.02790
G1 X133.513 Y110.590 E0.03678
G1 X132.675 Y110.897 E0.02686
G1 X121.336 Y113.113 E0.34754
G1 X120.486 Y113.089 E0.02556
G1 X118.009 Y112.559 E0.07619
G1 X117.414 Y112.266 E0.01995
G1 X115.503 Y110.976 E0.06936
G1 X114.950 Y110.401 E0.02400
G1 X113.751 Y108.613 E0.06477
G1 X113.326 Y107.602 E0.03297
G1 X112.913 Y105.525 E0.06372
G1 X112.870 Y104.924 E0.01812
G1 X113.452 Y102.007 E0.08949
G1 X113.813 Y102.089 F7200.000
G1 F1158
G1 X114.055 Y101.611 E0.01613
G1 X115.235 Y99.847 E0.06384
G1 X115.925 Y99.181 E0.02883
G1 X117.618 Y98.050 E0.06125
G1 X118.105 Y97.807 E0.01638
G1 X120.475 Y97.296 E0.07291
G1 X121.005 Y97.246 E0.01601
G1 X132.410 Y99.422 E0.34926
G1 X133.352 Y99.751 E0.03002
G1 X134.513 Y100.442 E0.04064
G1 X135.453 Y101.361 E0.03954
G1 X135.979 Y102.117 E0.02770
G1 X136.379 Y102.966 E0.02825
G1 X136.704 Y104.246 E0.03971
G1 X136.723 Y105.569 E0.03980
G1 X136.558 Y106.489 E0.02811
G1 X136.067 Y107.721 E0.03991
G1 X135.558 Y108.513 E0.02830
G1 X135.036 Y109.101 E0.02364
G1 X134.370 Y109.661 E0.02619
G1 X133.348 Y110.251 E0.03550
G1 X132.560 Y110.538 E0.02520
G1 X121.304 Y112.737 E0.34499
G1 X120.544 Y112.716 E0.02287
G1 X118.139 Y112.205 E0.07396
G1 X117.614 Y111.947 E0.01760
G1 X115.778 Y110.713 E0.06655
G1 X115.254 Y110.179 E0.02250
G1 X114.075 Y108.420 E0.06371
G1 X113.695 Y107.526 E0.02920
G1 X113.287 Y105.473 E0.06298
G1 X113.246 Y104.942 E0.01601
G1 X113.802 Y102.148 E0.08569
G1 X114.164 Y102.228 F7200.000
G1 F1158
G1 X115.536 Y100.075 E0.07680
G1 X116.137 Y99.492 E0.02519
G1 X118.235 Y98.161 E0.07473
G1 X121.006 Y97.623 E0.08489
G1 X132.315 Y99.787 E0.34635
G1 X133.177 Y100.085 E0.02744
G1 X134.243 Y100.711 E0.03721
G1 X134.899 Y101.301 E0.02653
G1 X135.645 Y102.292 E0.03732
G1 X136.019 Y103.076 E0.02612
G1 X136.327 Y104.273 E0.03716
G1 X136.372 Y105.139 E0.02609
G1 X136.198 Y106.377 E0.03762
G1 X135.908 Y107.191 E0.02597
G1 X135.289 Y108.243 E0.03674
G1 X134.785 Y108.819 E0.02300
G1 X134.165 Y109.344 E0.02445
G1 X133.186 Y109.910 E0.03403
G1 X132.446 Y110.179 E0.02365
G1 X121.270 Y112.362 E0.34252
G1 X120.602 Y112.344 E0.02010
G1 X118.268 Y111.851 E0.07178
G1 X117.814 Y111.627 E0.01521
G1 X116.047 Y110.444 E0.06396
G1 X115.556 Y109.953 E0.02089
G1 X114.398 Y108.225 E0.06258
G1 X114.064 Y107.444 E0.02553
G1 X113.623 Y104.956 E0.07601
G1 X114.152 Y102.287 E0.08185
G1 F5760
G1 X115.316 Y100.427 E-0.76000
G1 E-0.04000 F2100.00000
G1 X116.906 Y103.991 F7200.000
G1 E0.80000 F2100.00000
G1 F840
G1 X117.844 Y102.204 E0.06070
G1 X119.505 Y101.058 E0.06070
G1 X121.508 Y100.814 E0.06070
G1 X123.395 Y101.530 E0.06070
G1 X124.733 Y103.041 E0.06070
G1 X125.216 Y105.000 E0.06070
G1 X124.733 Y106.959 E0.06070
G1 X123.395 Y108.470 E0.06070
G1 X121.508 Y109.186 E0.06070
G1 X119.505 Y108.942 E0.06070
G1 X117.844 Y107.796 E0.06070
G1 X116.906 Y106.009 E0.06070
G1 X116.906 Y104.051 E0.05890
G1 X116.618 Y103.714 F7200.000
G1 F5760
G1 X117.844 Y102.204 E-0.71743
G1 F5760
G1 X117.945 Y102.134 E-0.04257
G1 E-0.04000 F2100.00000
G1 X123.062 Y101.000 F7200.000
G1 E0.80000 F2100.00000
G1 F840
G1 X130.537 Y102.459 E0.22911
G1 X130.330 Y102.500 E0.00636
G1 X130.009 Y102.609 E0.01018
G1 X129.706 Y102.758 E0.01018
G1 X129.424 Y102.947 E0.01018
G1 X129.170 Y103.170 E0.01018
G1 X128.947 Y103.424 E0.01018
G1 X128.758 Y103.706 E0.01018
G1 X128.609 Y104.009 E0.01018
G1 X128.500 Y104.330 E0.01018
G1 X128.435 Y104.656 E0.01000
G1 X128.412 Y104.999 E0.01034
G1 X128.434 Y105.338 E0.01021
G1 X128.500 Y105.670 E0.01018
G1 X128.609 Y105.991 E0.01018
G1 X128.758 Y106.294 E0.01018
G1 X128.943 Y106.571 E0.01000
G1 X129.170 Y106.830 E0.01036
G1 X129.429 Y107.057 E0.01036
G1 X129.706 Y107.242 E0.01000
G1 X130.009 Y107.391 E0.01018
G1 X130.330 Y107.500 E0.01018
G1 X130.537 Y107.541 E0.00636
G1 X123.062 Y109.000 E0.22911
G1 X123.616 Y108.790 E0.01782
G1 X125.077 Y107.140 E0.06629
G1 X125.605 Y105.000 E0.06629
G1 X125.077 Y102.860 E0.06629
G1 X123.616 Y101.210 E0.06629
G1 X123.118 Y101.022 E0.01602
G1 F5760
G1 X125.272 Y101.439 E-0.76000
G1 E-0.04000 F2100.00000
G1 X129.058 Y103.951 F7200.000
G1 E0.80000 F2100.00000
G1 F840
G1 X129.246 Y103.654 E0.01057
G1 X129.437 Y103.437 E0.00870
G1 X129.654 Y103.246 E0.00870
G1 X129.895 Y103.086 E0.00870
G1 X130.154 Y102.958 E0.00870
G1 X130.428 Y102.865 E0.00870
G1 X130.711 Y102.808 E0.00870
G1 X130.995 Y102.790 E0.00853
G1 X131.288 Y102.808 E0.00886
G1 X131.572 Y102.865 E0.00870
G1 X131.846 Y102.958 E0.00870
G1 X132.105 Y103.086 E0.00870
G1 X132.346 Y103.246 E0.00870
G1 X132.563 Y103.437 E0.00870
G1 X132.754 Y103.654 E0.00870
G1 X132.914 Y103.895 E0.00870
G1 X133.042 Y104.154 E0.00871
G1 X133.136 Y104.433 E0.00885
G1 X133.192 Y104.711 E0.00853
G1 X133.210 Y105.000 E0.00870
G1 X133.192 Y105.289 E0.00870
G1 X133.135 Y105.572 E0.00870
G1 X133.042 Y105.846 E0.00870
G1 X132.914 Y106.105 E0.00870
G1 X132.754 Y106.346 E0.00870
G1 X132.563 Y106.563 E0.00870
G1 X132.346 Y106.754 E0.00870
G1 X132.105 Y106.914 E0.00870
G1 X131.846 Y107.042 E0.00870
G1 X131.572 Y107.135 E0.00870
G1 X131.289 Y107.192 E0.00869
G1 X131.000 Y107.210 E0.00870
G1 X130.711 Y107.192 E0.00870
G1 X130.428 Y107.135 E0.00870
G1 X130.154 Y107.042 E0.00870
G1 X129.895 Y106.914 E0.00870
G1 X129.659 Y106.757 E0.00853
G1 X129.437 Y106.563 E0.00886
G1 X129.243 Y106.341 E0.00886
G1 X129.086 Y106.105 E0.00853
G1 X128.958 Y105.846 E0.00870
G1 X128.865 Y105.572 E0.00870
G1 X128.808 Y105.289 E0.00870
G1 X128.790 Y105.000 E0.00871
G1 X128.810 Y104.706 E0.00885
G1 X128.865 Y104.428 E0.00853
G1 X128.958 Y104.154 E0.00870
G1 X129.031 Y104.005 E0.00501
G1 X128.877 Y103.650 F7200.000
G1 F5760
G1 X129.246 Y103.654 E-0.14239
G1 F5760
G1 X129.437 Y103.437 E-0.10015
G1 F5760
G1 X129.654 Y103.246 E-0.10015
G1 F5760
G1 X129.895 Y103.086 E-0.10014
G1 F5760
G1 X130.154 Y102.958 E-0.10014
G1 F5760
G1 X130.428 Y102.865 E-0.10015
G1 F5760
G1 X130.711 Y102.808 E-0.10015
G1 F5760
G1 X130.760 Y102.805 E-0.01674
G1 E-0.04000 F2100.00000
G1 X119.169 Y100.578 F7200.000
G1 E0.80000 F2100.00000
G1 F1260
G1 X121.000 Y100.214 E0.05618
G1 X131.722 Y102.306 E0.32859
G1 X132.067 Y102.423 E0.01096
G1 X132.395 Y102.584 E0.01098
G1 X132.698 Y102.787 E0.01098
G1 X132.972 Y103.027 E0.01098
G1 X133.213 Y103.302 E0.01098
G1 X133.416 Y103.605 E0.01097
G1 X133.577 Y103.932 E0.01098
G1 X133.695 Y104.278 E0.01098
G1 X133.766 Y104.636 E0.01098
G1 X133.790 Y105.000 E0.01098
G1 X133.766 Y105.364 E0.01098
G1 X133.695 Y105.722 E0.01098
G1 X133.577 Y106.068 E0.01098
G1 X133.416 Y106.395 E0.01098
G1 X133.213 Y106.698 E0.01097
G1 X132.972 Y106.973 E0.01098
G1 X132.698 Y107.213 E0.01098
G1 X132.395 Y107.416 E0.01098
G1 X132.067 Y107.577 E0.01098
G1 X131.722 Y107.694 E0.01096
G1 X121.000 Y109.786 E0.32860
G1 X119.169 Y109.422 E0.05618
G1 X117.616 Y108.384 E0.05617
G1 X116.578 Y106.831 E0.05617
G1 X116.214 Y105.000 E0.05617
G1 X116.578 Y103.169 E0.05617
G1 X117.616 Y101.616 E0.05617
G1 X119.119 Y100.612 E0.05437
G1 X119.486 Y100.822 F7200.000
G1 X118.990 Y100.925 F7200.000
G1 F926
G1 X119.427 Y100.799 E0.00394
G1 F926
G1 X121.001 Y100.547 E0.02446
G1 X121.248 Y100.556 E0.00378
G1 F926
G1 X121.551 Y100.570 E0.00237
G1 X121.817 Y100.646 E0.00216
G1 F926
G1 X122.349 Y100.797 E0.00813
G1 F926
G1 X122.880 Y100.949 E0.01194
G1 F5760
G1 X122.349 Y100.797 E-0.19144
G1 E-0.60856 F2100.00000
G1 X119.505 Y100.704 F7200.000
G1 E0.80000 F2100.00000
G1 F926
G1 X117.837 Y101.837 E0.02977
G1 X117.659 Y102.017 E0.00374
G1 F926
G1 X117.452 Y102.357 E0.00272
G1 F926
G1 X117.079 Y102.985 E0.00940
G1 F926
G1 X116.893 Y103.299 E0.00704
G1 X116.783 Y103.610 E0.00637
G1 F926
G1 X116.673 Y103.921 E0.00378
G1 F926
G1 X116.647 Y104.156 E0.00085
G1 F926
G1 X116.605 Y104.578 E0.00442
G1 F926
G1 X116.564 Y105.000 E0.00735
G1 X116.626 Y105.633 E0.01103
G1 F926
G1 X116.667 Y106.055 E0.00442
G1 F926
G1 X116.728 Y106.235 E0.00068
G1 F926
G1 X116.838 Y106.546 E0.00378
G1 F926
G1 X116.893 Y106.701 E0.00318
G1 X117.266 Y107.329 E0.01408
G1 F926
G1 X117.639 Y107.956 E0.00940
G1 F926
G1 X117.748 Y108.073 E0.00109
G1 F926
G1 X117.837 Y108.163 E0.00187
G1 X119.505 Y109.296 E0.02977
G1 X119.427 Y109.201 F7200.000
G1 F926
G1 X118.990 Y109.075 E0.00394
G1 X119.427 Y109.201 F7200.000
G1 F926
G1 X121.001 Y109.453 E0.02348
G1 X121.263 Y109.444 E0.00386
G1 F926
G1 X121.551 Y109.430 E0.00225
G1 X121.817 Y109.354 E0.00216
G1 F926
G1 X122.349 Y109.203 E0.00813
G1 F926
G1 X122.880 Y109.051 E0.01194
G1 F5760
G1 X122.349 Y109.203 E-0.19146
G1 E-0.60854 F2100.00000
G1 X124.685 Y108.568 F7200.000
G1 E0.80000 F2100.00000
G1 F926
G1 X124.423 Y108.305 E0.01157
G1 X124.682 Y108.013 E0.01216
G1 X125.002 Y108.333 E0.01410
G1 X125.463 Y108.243 E0.01463
G1 X124.941 Y107.720 E0.02301
G1 X125.200 Y107.428 E0.01216
G1 X125.925 Y108.153 E0.03192
G1 X126.386 Y108.063 E0.01463
G1 X125.387 Y107.064 E0.04397
G1 X125.496 Y106.622 E0.01418
G1 X126.847 Y107.973 E0.05948
G1 X127.308 Y107.883 E0.01463
G1 X125.605 Y106.180 E0.07499
G1 X125.714 Y105.738 E0.01418
G1 X127.769 Y107.793 E0.09050
G1 X128.231 Y107.703 E0.01463
G1 X125.823 Y105.296 E0.10601
G1 X125.896 Y105.000 E0.00948
G1 X125.836 Y104.757 E0.00778
G1 X128.692 Y107.613 E0.12575
G1 X129.153 Y107.523 E0.01463
G1 X125.656 Y104.026 E0.15400
G1 X125.475 Y103.294 E0.02346
G1 X128.412 Y106.231 E0.12929
G1 X128.347 Y106.099 E0.00457
G1 X128.226 Y105.743 E0.01170
G1 X128.164 Y105.432 E0.00989
G1 X124.272 Y101.524 E0.17172
G1 X124.938 Y101.654 E0.02114
G1 X128.138 Y104.854 E0.14090
G1 X128.154 Y104.619 E0.00735
G1 X128.204 Y104.369 E0.00793
G1 X125.623 Y101.788 E0.11364
G1 X126.308 Y101.922 E0.02172
G1 X128.332 Y103.946 E0.08912
G1 X128.509 Y103.572 E0.01288
G1 X126.992 Y102.055 E0.06678
G1 X127.677 Y102.189 E0.02172
G1 X128.730 Y103.242 E0.04637
G1 X128.991 Y102.951 E0.01215
G1 X128.362 Y102.322 E0.02767
G1 X129.047 Y102.456 E0.02172
G1 X129.411 Y102.820 E0.01601
G1 F5760
G1 X129.047 Y102.456 E-0.17815
G1 F5760
G1 X128.362 Y102.322 E-0.24166
G1 F5760
G1 X128.991 Y102.951 E-0.30782
G1 F5760
G1 X128.928 Y103.021 E-0.03237
G1 E-0.04000 F2100.00000
G1 X130.726 Y102.462 F7200.000
G1 E0.80000 F2100.00000
G1 F926
G1 X131.319 Y102.521 E0.01081
G1 F926
G1 X131.648 Y102.586 E0.00396
G1 X131.963 Y102.693 E0.00393
G1 X132.250 Y102.835 E0.00379
G1 X132.516 Y103.013 E0.00378
G1 X132.772 Y103.237 E0.00402
G1 X132.983 Y103.478 E0.00379
G1 X133.161 Y103.744 E0.00378
G1 X133.310 Y104.043 E0.00394
G1 X133.414 Y104.353 E0.00386
G1 X133.477 Y104.667 E0.00379
G1 X133.500 Y105.007 E0.00402
G1 X133.478 Y105.326 E0.00379
G1 X133.416 Y105.641 E0.00378
G1 X133.310 Y105.957 E0.00394
G1 X133.165 Y106.250 E0.00386
G1 X132.987 Y106.516 E0.00378
G1 X132.768 Y106.768 E0.00394
G1 X132.522 Y106.983 E0.00386
G1 X132.255 Y107.161 E0.00378
G1 X131.957 Y107.310 E0.00394
G1 X131.648 Y107.414 E0.00385
G1 X130.992 Y107.521 E0.00785
G1 F926
G1 X130.726 Y107.538 E0.00484
M106 S255
G1 F5760
G1 X130.992 Y107.521 E-0.09237
G1 E-0.70763 F2100.00000
G1 Z0.400 F7200.000
M104 S210 ; set temperature
G1 X132.675 Y110.897 F7200.000
G1 E0.80000 F2100.00000
G1 F900
G1 X121.336 Y113.113 E0.34754
G1 X120.486 Y113.089 E0.02556
G1 X118.009 Y112.559 E0.07619
G1 X117.414 Y112.266 E0.01995
G1 X115.503 Y110.976 E0.06936
G1 X114.950 Y110.401 E0.02400
G1 X113.751 Y108.613 E0.06477
G1 X113.326 Y107.602 E0.03297
G1 X112.913 Y105.525 E0.06372
G1 X112.870 Y104.924 E0.01812
G1 X113.464 Y101.948 E0.09129
G1 X113.734 Y101.414 E0.01799
G1 X114.936 Y99.617 E0.06503
G1 X115.717 Y98.866 E0.03258
G1 X117.428 Y97.725 E0.06187
G1 X117.979 Y97.452 E0.01851
G1 X120.406 Y96.926 E0.07470
G1 X121.006 Y96.869 E0.01812
G1 X121.584 Y96.924 E0.01746
G1 X132.507 Y99.057 E0.33477
G1 X133.530 Y99.419 E0.03264
G1 X134.788 Y100.179 E0.04421
G1 X135.748 Y101.125 E0.04056
G1 X136.319 Y101.951 E0.03019
G1 X136.867 Y103.229 E0.04182
G1 X137.082 Y104.228 E0.03073
G1 X137.098 Y105.610 E0.04160
G1 X136.915 Y106.612 E0.03063
G1 X136.395 Y107.908 E0.04200
G1 X135.821 Y108.788 E0.03160
G1 X135.285 Y109.385 E0.02414
G1 X134.572 Y109.979 E0.02790
G1 X133.513 Y110.590 E0.03678
G1 X132.731 Y110.877 E0.02505
G1 F5760
G1 X130.578 Y111.299 E-0.76000
G1 E-0.04000 F2100.00000
G1 X124.747 Y106.967 F7200.000
G1 E0.80000 F2100.00000
M204 S800
G1 F900
G1 X123.404 Y108.483 E0.06598
G1 X121.510 Y109.201 E0.06598
G1 X119.499 Y108.957 E0.06598
G1 X117.833 Y107.806 E0.06598
G1 X116.891 Y106.013 E0.06598
G1 X116.891 Y103.987 E0.06598
G1 X117.833 Y102.194 E0.06598
G1 X119.499 Y101.043 E0.06598
G1 X121.510 Y100.799 E0.06598
G1 X123.404 Y101.517 E0.06598
G1 X124.747 Y103.033 E0.06598
G1 X125.232 Y105.000 E0.06598
G1 X124.761 Y106.908 E0.06402
M204 S1000
G1 X124.961 Y107.305 F7200.000
G1 X125.118 Y107.161 F7200.000
M204 S800
G1 F900
G1 X125.651 Y105.000 E0.07251
G1 X125.118 Y102.839 E0.07251
G1 X123.642 Y101.172 E0.07251
G1 X123.572 Y101.146 E0.00246
G1 X130.308 Y102.460 E0.22358
G1 X129.992 Y102.567 E0.01087
G1 X129.683 Y102.719 E0.01122
G1 X129.397 Y102.911 E0.01122
G1 X129.138 Y103.138 E0.01122
G1 X128.911 Y103.397 E0.01122
G1 X128.719 Y103.683 E0.01122
G1 X128.567 Y103.992 E0.01122
G1 X128.456 Y104.318 E0.01122
G1 X128.393 Y104.639 E0.01063
G1 X128.366 Y104.998 E0.01173
G1 X128.389 Y105.344 E0.01130
G1 X128.456 Y105.682 E0.01122
G1 X128.567 Y106.008 E0.01122
G1 X128.719 Y106.317 E0.01122
G1 X128.911 Y106.603 E0.01122
G1 X129.138 Y106.862 E0.01122
G1 X129.397 Y107.089 E0.01122
G1 X129.683 Y107.281 E0.01122
G1 X129.992 Y107.433 E0.01122
G1 X130.308 Y107.540 E0.01087
G1 X123.572 Y108.854 E0.22357
G1 X123.642 Y108.828 E0.00244
G1 X125.078 Y107.206 E0.07056
M204 S1000
G1 F5760
G1 X125.630 Y105.082 E-0.76000
G1 E-0.04000 F2100.00000
G1 X128.944 Y105.852 F7200.000
G1 E0.80000 F2100.00000
M204 S800
G1 F900
G1 X128.850 Y105.576 E0.00948
G1 X128.794 Y105.290 E0.00948
G1 X128.774 Y104.999 E0.00951
G1 X128.797 Y104.693 E0.00999
G1 X128.850 Y104.424 E0.00894
G1 X128.944 Y104.148 E0.00948
G1 X129.073 Y103.887 E0.00948
G1 X129.234 Y103.645 E0.00948
G1 X129.426 Y103.426 E0.00948
G1 X129.645 Y103.234 E0.00948
G1 X129.887 Y103.073 E0.00948
G1 X130.148 Y102.944 E0.00948
G1 X130.424 Y102.850 E0.00948
G1 X130.710 Y102.794 E0.00948
G1 X130.984 Y102.776 E0.00894
G1 X131.290 Y102.793 E0.00999
G1 X131.576 Y102.850 E0.00951
G1 X131.852 Y102.944 E0.00948
G1 X132.113 Y103.073 E0.00948
G1 X132.355 Y103.234 E0.00948
G1 X132.574 Y103.426 E0.00948
G1 X132.766 Y103.645 E0.00948
G1 X132.927 Y103.887 E0.00948
G1 X133.056 Y104.148 E0.00948
G1 X133.150 Y104.424 E0.00948
G1 X133.206 Y104.710 E0.00948
G1 X133.225 Y105.000 E0.00948
G1 X133.206 Y105.290 E0.00948
G1 X133.150 Y105.576 E0.00948
G1 X133.056 Y105.852 E0.00948
G1 X132.927 Y106.113 E0.00948
