; generated by Slic3r 1.33.8.devel on 2017-11-21 at 17:38:17

; 

; external perimeters extrusion width = 0.45mm
; perimeters extrusion width = 0.45mm
; infill extrusion width = 0.45mm
; solid infill extrusion width = 0.45mm
; top infill extrusion width = 0.40mm
; first layer extrusion width = 0.42mm

M107
M115 U3.0.12 ; tell printer latest fw version
M83  ; extruder relative mode
M104 S215 ; set extruder temp
M140 S55 ; set bed temp
M190 S55 ; wait for bed temp
M109 S215 ; wait for extruder temp
G28 W ; home all without mesh bed level
G80 ; mesh bed leveling
G1 Y-3.0 F1000.0 ; go outside pritn area
G1 X60.0 E9.0  F1000.0 ; intro line
G1 X100.0 E12.5  F1000.0 ; intro line
; Filament gcode

G21 ; set units to millimeters
G90 ; use absolute coordinates
M83 ; use relative distances for extrusion
G1 E-0.80000 F2100.00000
G1 Z0.200 F7200.000
G1 X106.678 Y97.488 F7200.000
G1 E0.80000 F2100.00000
M204 S1000
G1 F2100
G1 X107.170 Y96.958 E0.02177
G1 X107.787 Y96.572 E0.02189
G1 X108.330 Y96.391 E0.01723
G1 X108.904 Y96.326 E0.01736
G1 X141.079 Y96.326 E0.96783
G1 X142.088 Y96.519 E0.03090
G1 X142.956 Y97.068 E0.03090
G1 X143.562 Y97.897 E0.03090
G1 X143.823 Y98.895 E0.03102
G1 X143.812 Y111.223 E0.37082
G1 X143.644 Y111.914 E0.02140
G1 X143.303 Y112.539 E0.02140
G1 X142.818 Y113.053 E0.02128
G1 X142.213 Y113.428 E0.02140
G1 X141.670 Y113.609 E0.01723
G1 X141.096 Y113.674 E0.01736
G1 X108.818 Y113.672 E0.97091
G1 X108.074 Y113.539 E0.02274
G1 X107.390 Y113.207 E0.02287
G1 X106.824 Y112.700 E0.02287
G1 X106.417 Y112.058 E0.02287
G1 X106.238 Y111.527 E0.01687
G1 X106.171 Y110.970 E0.01687
G1 X106.181 Y98.838 E0.36491
G1 X106.339 Y98.132 E0.02177
G1 X106.650 Y97.541 E0.02008
G1 F5760
G1 X107.170 Y96.958 E-0.27074
G1 F5760
G1 X107.787 Y96.572 E-0.25203
G1 F5760
G1 X108.330 Y96.391 E-0.19845
G1 F5760
G1 X108.442 Y96.378 E-0.03878
G1 E-0.04000 F2100.00000
G1 X107.962 Y96.907 F7200.000
G1 E0.80000 F2100.00000
G1 F2100
G1 X108.909 Y96.703 E0.02913
G1 X141.079 Y96.703 E0.96767
G1 X141.956 Y96.872 E0.02688
G1 X142.706 Y97.351 E0.02677
G1 X143.229 Y98.075 E0.02688
G1 X143.448 Y98.942 E0.02688
G1 X143.440 Y111.156 E0.36739
G1 X143.297 Y111.766 E0.01885
G1 X143.001 Y112.314 E0.01874
G1 X142.572 Y112.766 E0.01874
G1 X142.038 Y113.093 E0.01885
G1 X141.091 Y113.297 E0.02913
G1 X108.845 Y113.296 E0.96996
G1 X108.194 Y113.182 E0.01987
G1 X107.597 Y112.891 E0.01998
G1 X107.103 Y112.447 E0.01998
G1 X106.752 Y111.883 E0.01998
G1 X106.548 Y110.955 E0.02856
G1 X106.556 Y98.890 E0.36293
G1 X106.690 Y98.270 E0.01908
G1 X106.986 Y97.705 E0.01919
G1 X107.419 Y97.241 E0.01908
G1 X107.911 Y96.938 E0.01739
G1 F5760
G1 X108.909 Y96.703 E-0.35503
G1 F5760
G1 X110.078 Y96.703 E-0.40497
G1 E-0.04000 F2100.00000
G1 X109.512 Y99.667 F7200.000
G1 E0.80000 F2100.00000
G1 F1680
G1 X140.488 Y99.667 E0.93175
G1 X140.488 Y110.333 E0.32083
G1 X109.512 Y110.333 E0.93175
G1 X109.512 Y99.727 E0.31902
G1 X109.135 Y99.290 F7200.000
G1 F1260
G1 X140.865 Y99.290 E0.95443
G1 X140.865 Y110.710 E0.34351
G1 X109.135 Y110.710 E0.95443
G1 X109.135 Y99.350 E0.34171
G1 X109.532 Y99.336 F7200.000
G1 F5760
G1 X111.329 Y99.346 E-0.76000
G1 E-0.04000 F2100.00000
G1 X109.625 Y109.454 F7200.000
G1 E0.80000 F2100.00000
G1 F1680
G1 X110.222 Y110.050 E0.02550
G1 X110.757 Y110.050 E0.01620
G1 X109.795 Y109.088 E0.04116
G1 X109.795 Y108.552 E0.01620
G1 X111.293 Y110.050 E0.06407
G1 X111.829 Y110.050 E0.01620
G1 X109.795 Y108.016 E0.08699
G1 X109.795 Y107.480 E0.01620
G1 X112.365 Y110.050 E0.10990
G1 X112.901 Y110.050 E0.01620
G1 X109.795 Y106.944 E0.13282
G1 X109.795 Y106.408 E0.01620
G1 X113.437 Y110.050 E0.15573
G1 X113.973 Y110.050 E0.01620
G1 X109.795 Y105.872 E0.17865
G1 X109.795 Y105.336 E0.01620
G1 X114.509 Y110.050 E0.20156
G1 X115.045 Y110.050 E0.01620
G1 X109.795 Y104.800 E0.22448
G1 X109.795 Y104.264 E0.01620
G1 X115.581 Y110.050 E0.24739
G1 X116.117 Y110.050 E0.01620
G1 X109.795 Y103.728 E0.27030
G1 X109.795 Y103.193 E0.01620
G1 X116.652 Y110.050 E0.29322
G1 X117.188 Y110.050 E0.01620
G1 X109.795 Y102.657 E0.31613
G1 X109.795 Y102.121 E0.01620
G1 X117.724 Y110.050 E0.33905
G1 X118.260 Y110.050 E0.01620
G1 X109.795 Y101.585 E0.36196
G1 X109.795 Y101.049 E0.01620
G1 X118.796 Y110.050 E0.38488
G1 X119.332 Y110.050 E0.01620
G1 X109.795 Y100.513 E0.40779
G1 X109.795 Y99.977 E0.01620
G1 X119.868 Y110.050 E0.43071
G1 X120.404 Y110.050 E0.01620
G1 X110.304 Y99.950 E0.43187
G1 X110.839 Y99.950 E0.01620
G1 X120.940 Y110.050 E0.43187
G1 X121.476 Y110.050 E0.01620
G1 X111.375 Y99.950 E0.43187
G1 X111.911 Y99.950 E0.01620
G1 X122.011 Y110.050 E0.43187
G1 X122.547 Y110.050 E0.01620
G1 X112.447 Y99.950 E0.43187
G1 X112.983 Y99.950 E0.01620
G1 X123.083 Y110.050 E0.43187
G1 X123.619 Y110.050 E0.01620
G1 X113.519 Y99.950 E0.43187
G1 X114.055 Y99.950 E0.01620
G1 X124.155 Y110.050 E0.43187
G1 X124.691 Y110.050 E0.01620
G1 X114.591 Y99.950 E0.43187
G1 X115.127 Y99.950 E0.01620
G1 X125.227 Y110.050 E0.43187
G1 X125.763 Y110.050 E0.01620
G1 X115.663 Y99.950 E0.43187
G1 X116.198 Y99.950 E0.01620
G1 X126.299 Y110.050 E0.43187
G1 X126.835 Y110.050 E0.01620
G1 X116.734 Y99.950 E0.43187
G1 X117.270 Y99.950 E0.01620
G1 X127.371 Y110.050 E0.43187
G1 X127.906 Y110.050 E0.01620
G1 X117.806 Y99.950 E0.43187
G1 X118.342 Y99.950 E0.01620
G1 X128.442 Y110.050 E0.43187
G1 X128.978 Y110.050 E0.01620
G1 X118.878 Y99.950 E0.43187
G1 X119.414 Y99.950 E0.01620
G1 X129.514 Y110.050 E0.43187
G1 X130.050 Y110.050 E0.01620
G1 X119.950 Y99.950 E0.43187
G1 X120.486 Y99.950 E0.01620
G1 X130.586 Y110.050 E0.43187
G1 X131.122 Y110.050 E0.01620
G1 X121.022 Y99.950 E0.43187
G1 X121.558 Y99.950 E0.01620
G1 X131.658 Y110.050 E0.43187
G1 X132.194 Y110.050 E0.01620
G1 X122.093 Y99.950 E0.43187
G1 X122.629 Y99.950 E0.01620
G1 X132.730 Y110.050 E0.43187
G1 X133.266 Y110.050 E0.01620
G1 X123.165 Y99.950 E0.43187
G1 X123.701 Y99.950 E0.01620
G1 X133.801 Y110.050 E0.43187
G1 X134.337 Y110.050 E0.01620
G1 X124.237 Y99.950 E0.43187
G1 X124.773 Y99.950 E0.01620
G1 X134.873 Y110.050 E0.43187
G1 X135.409 Y110.050 E0.01620
G1 X125.309 Y99.950 E0.43187
G1 X125.845 Y99.950 E0.01620
G1 X135.945 Y110.050 E0.43187
G1 X136.481 Y110.050 E0.01620
G1 X126.381 Y99.950 E0.43187
G1 X126.917 Y99.950 E0.01620
G1 X137.017 Y110.050 E0.43187
G1 X137.553 Y110.050 E0.01620
G1 X127.452 Y99.950 E0.43187
G1 X127.988 Y99.950 E0.01620
G1 X138.089 Y110.050 E0.43187
G1 X138.625 Y110.050 E0.01620
G1 X128.524 Y99.950 E0.43187
G1 X129.060 Y99.950 E0.01620
G1 X139.160 Y110.050 E0.43187
G1 X139.696 Y110.050 E0.01620
G1 X129.596 Y99.950 E0.43187
G1 X130.132 Y99.950 E0.01620
G1 X140.205 Y110.023 E0.43071
G1 X140.205 Y109.487 E0.01620
G1 X130.668 Y99.950 E0.40780
G1 X131.204 Y99.950 E0.01620
G1 X140.205 Y108.951 E0.38488
G1 X140.205 Y108.415 E0.01620
G1 X131.740 Y99.950 E0.36197
G1 X132.276 Y99.950 E0.01620
G1 X140.205 Y107.879 E0.33905
G1 X140.205 Y107.343 E0.01620
G1 X132.812 Y99.950 E0.31614
G1 X133.347 Y99.950 E0.01620
G1 X140.205 Y106.808 E0.29322
G1 X140.205 Y106.272 E0.01620
G1 X133.883 Y99.950 E0.27031
G1 X134.419 Y99.950 E0.01620
G1 X140.205 Y105.736 E0.24740
G1 X140.205 Y105.200 E0.01620
G1 X134.955 Y99.950 E0.22448
G1 X135.491 Y99.950 E0.01620
G1 X140.205 Y104.664 E0.20157
G1 X140.205 Y104.128 E0.01620
G1 X136.027 Y99.950 E0.17865
G1 X136.563 Y99.950 E0.01620
G1 X140.205 Y103.592 E0.15574
G1 X140.205 Y103.056 E0.01620
G1 X137.099 Y99.950 E0.13282
G1 X137.635 Y99.950 E0.01620
G1 X140.205 Y102.520 E0.10991
G1 X140.205 Y101.984 E0.01620
G1 X138.171 Y99.950 E0.08699
G1 X138.706 Y99.950 E0.01620
G1 X140.205 Y101.449 E0.06408
G1 X140.205 Y100.913 E0.01620
G1 X139.242 Y99.950 E0.04117
G1 X139.778 Y99.950 E0.01620
G1 X140.375 Y100.546 E0.02551
M106 S252.45
G1 F5760
G1 X139.778 Y99.950 E-0.29219
G1 F5760
G1 X139.242 Y99.950 E-0.18561
G1 F5760
G1 X139.818 Y100.526 E-0.28219
G1 E-0.04000 F2100.00000
G1 Z0.400 F7200.000
M104 S210 ; set temperature
G1 X143.562 Y97.897 F7200.000
G1 E0.80000 F2100.00000
G1 F3000
G1 X143.823 Y98.895 E0.03102
G1 X143.812 Y111.223 E0.37082
G1 X143.644 Y111.914 E0.02140
G1 X143.303 Y112.539 E0.02140
G1 X142.818 Y113.053 E0.02128
G1 X142.213 Y113.428 E0.02140
G1 X141.670 Y113.609 E0.01723
G1 X141.096 Y113.674 E0.01736
G1 X108.818 Y113.672 E0.97091
G1 X108.074 Y113.539 E0.02274
G1 X107.390 Y113.207 E0.02287
G1 X106.824 Y112.700 E0.02287
G1 X106.417 Y112.058 E0.02287
G1 X106.238 Y111.527 E0.01687
G1 X106.171 Y110.970 E0.01687
G1 X106.181 Y98.838 E0.36491
G1 X106.339 Y98.132 E0.02177
G1 X106.678 Y97.488 E0.02189
G1 X107.170 Y96.958 E0.02177
G1 X107.787 Y96.572 E0.02189
G1 X108.330 Y96.391 E0.01723
G1 X108.904 Y96.326 E0.01736
G1 X141.079 Y96.326 E0.96783
G1 X142.088 Y96.519 E0.03090
G1 X142.956 Y97.068 E0.03090
G1 X143.527 Y97.849 E0.02909
G1 F5760
G1 X143.823 Y98.895 E-0.37656
G1 F5760
G1 X143.822 Y100.002 E-0.38344
G1 E-0.04000 F2100.00000
G1 X140.443 Y99.712 F7200.000
G1 E0.80000 F2100.00000
M204 S800
G1 F2400
G1 X140.443 Y110.288 E0.34450
G1 X109.557 Y110.288 E1.00609
G1 X109.557 Y99.712 E0.34450
G1 X140.383 Y99.712 E1.00413
M204 S1000
G1 X140.850 Y99.305 F7200.000
M204 S800
G1 F1800
G1 X140.850 Y110.695 E0.37102
G1 X109.150 Y110.695 E1.03261
G1 X109.150 Y99.305 E0.37102
G1 X140.790 Y99.305 E1.03065
M204 S1000
G1 X140.691 Y99.672 F7200.000
G1 F5760
G1 X140.802 Y101.499 E-0.76000
G1 E-0.04000 F2100.00000
G1 X139.494 Y110.166 F7200.000
G1 E0.80000 F2100.00000
M204 S2000
G1 F2400
G1 X140.138 Y109.522 E0.02978
G1 X140.138 Y108.944 E0.01892
G1 X139.099 Y109.983 E0.04806
G1 X138.521 Y109.983 E0.01892
G1 X140.138 Y108.366 E0.07482
G1 X140.138 Y107.788 E0.01892
G1 X137.943 Y109.983 E0.10158
G1 X137.364 Y109.983 E0.01892
G1 X140.138 Y107.209 E0.12834
G1 X140.138 Y106.631 E0.01892
G1 X136.786 Y109.983 E0.15510
G1 X136.208 Y109.983 E0.01892
G1 X140.138 Y106.053 E0.18186
G1 X140.138 Y105.475 E0.01892
G1 X135.630 Y109.983 E0.20862
G1 X135.051 Y109.983 E0.01892
G1 X140.138 Y104.896 E0.23538
G1 X140.138 Y104.318 E0.01892
G1 X134.473 Y109.983 E0.26214
G1 X133.895 Y109.983 E0.01892
G1 X140.138 Y103.740 E0.28890
G1 X140.138 Y103.162 E0.01892
G1 X133.317 Y109.983 E0.31566
G1 X132.738 Y109.983 E0.01892
G1 X140.138 Y102.583 E0.34242
G1 X140.138 Y102.005 E0.01892
G1 X132.160 Y109.983 E0.36918
G1 X131.582 Y109.983 E0.01892
G1 X140.138 Y101.427 E0.39594
G1 X140.138 Y100.849 E0.01892
G1 X131.004 Y109.983 E0.42270
G1 X130.426 Y109.983 E0.01892
G1 X140.138 Y100.271 E0.44946
G1 X140.138 Y100.017 E0.00828
G1 X139.813 Y100.017 E0.01064
G1 X129.847 Y109.983 E0.46117
G1 X129.269 Y109.983 E0.01892
G1 X139.234 Y100.017 E0.46117
G1 X138.656 Y100.017 E0.01892
G1 X128.691 Y109.983 E0.46117
G1 X128.113 Y109.983 E0.01892
G1 X138.078 Y100.017 E0.46117
G1 X137.500 Y100.017 E0.01892
G1 X127.534 Y109.983 E0.46117
G1 X126.956 Y109.983 E0.01892
G1 X136.921 Y100.017 E0.46117
G1 X136.343 Y100.017 E0.01892
G1 X126.378 Y109.983 E0.46117
G1 X125.800 Y109.983 E0.01892
G1 X135.765 Y100.017 E0.46117
G1 X135.187 Y100.017 E0.01892
G1 X125.221 Y109.983 E0.46117
G1 X124.643 Y109.983 E0.01892
G1 X134.608 Y100.017 E0.46117
G1 X134.030 Y100.017 E0.01892
G1 X124.065 Y109.983 E0.46117
G1 X123.487 Y109.983 E0.01892
G1 X133.452 Y100.017 E0.46117
G1 X132.874 Y100.017 E0.01892
G1 X122.908 Y109.983 E0.46117
G1 X122.330 Y109.983 E0.01892
G1 X132.296 Y100.017 E0.46117
G1 X131.717 Y100.017 E0.01892
G1 X121.752 Y109.983 E0.46117
G1 X121.174 Y109.983 E0.01892
G1 X131.139 Y100.017 E0.46117
G1 X130.561 Y100.017 E0.01892
G1 X120.596 Y109.983 E0.46117
G1 X120.017 Y109.983 E0.01892
G1 X129.983 Y100.017 E0.46117
G1 X129.404 Y100.017 E0.01892
G1 X119.439 Y109.983 E0.46117
G1 X118.861 Y109.983 E0.01892
G1 X128.826 Y100.017 E0.46117
G1 X128.248 Y100.017 E0.01892
G1 X118.283 Y109.983 E0.46117
G1 X117.704 Y109.983 E0.01892
G1 X127.670 Y100.017 E0.46117
G1 X127.091 Y100.017 E0.01892
G1 X117.126 Y109.983 E0.46117
G1 X116.548 Y109.983 E0.01892
G1 X126.513 Y100.017 E0.46117
G1 X125.935 Y100.017 E0.01892
G1 X115.970 Y109.983 E0.46117
G1 X115.391 Y109.983 E0.01892
G1 X125.357 Y100.017 E0.46117
G1 X124.778 Y100.017 E0.01892
G1 X114.813 Y109.983 E0.46117
G1 X114.235 Y109.983 E0.01892
G1 X124.200 Y100.017 E0.46117
G1 X123.622 Y100.017 E0.01892
G1 X113.657 Y109.983 E0.46117
G1 X113.079 Y109.983 E0.01892
G1 X123.044 Y100.017 E0.46117
G1 X122.466 Y100.017 E0.01892
G1 X112.500 Y109.983 E0.46117
G1 X111.922 Y109.983 E0.01892
G1 X121.887 Y100.017 E0.46117
G1 X121.309 Y100.017 E0.01892
G1 X111.344 Y109.983 E0.46117
G1 X110.766 Y109.983 E0.01892
G1 X120.731 Y100.017 E0.46117
G1 X120.153 Y100.017 E0.01892
G1 X110.187 Y109.983 E0.46117
G1 X109.862 Y109.983 E0.01063
G1 X109.862 Y109.729 E0.00829
G1 X119.574 Y100.017 E0.44945
G1 X118.996 Y100.017 E0.01892
G1 X109.862 Y109.151 E0.42269
G1 X109.862 Y108.573 E0.01892
G1 X118.418 Y100.017 E0.39593
G1 X117.840 Y100.017 E0.01892
G1 X109.862 Y107.995 E0.36917
G1 X109.862 Y107.416 E0.01892
G1 X117.261 Y100.017 E0.34241
G1 X116.683 Y100.017 E0.01892
G1 X109.862 Y106.838 E0.31565
G1 X109.862 Y106.260 E0.01892
G1 X116.105 Y100.017 E0.28889
G1 X115.527 Y100.017 E0.01892
G1 X109.862 Y105.682 E0.26214
G1 X109.862 Y105.104 E0.01892
G1 X114.949 Y100.017 E0.23538
G1 X114.370 Y100.017 E0.01892
G1 X109.862 Y104.525 E0.20862
G1 X109.862 Y103.947 E0.01892
G1 X113.792 Y100.017 E0.18186
G1 X113.214 Y100.017 E0.01892
G1 X109.862 Y103.369 E0.15510
G1 X109.862 Y102.791 E0.01892
G1 X112.636 Y100.017 E0.12834
G1 X112.057 Y100.017 E0.01892
G1 X109.862 Y102.212 E0.10158
G1 X109.862 Y101.634 E0.01892
G1 X111.479 Y100.017 E0.07482
G1 X110.901 Y100.017 E0.01892
G1 X109.862 Y101.056 E0.04806
G1 X109.862 Y100.478 E0.01892
G1 X110.506 Y99.834 E0.02978
M204 S1000
G1 F5760
G1 X109.862 Y100.478 E-0.31517
G1 F5760
G1 X109.862 Y101.056 E-0.20027
G1 F5760
G1 X110.362 Y100.557 E-0.24456
G1 E-0.04000 F2100.00000
G1 Z0.600 F7200.000
G1 X143.562 Y97.897 F7200.000
G1 E0.80000 F2100.00000
G1 F3000
G1 X143.823 Y98.895 E0.03102
G1 X143.812 Y111.223 E0.37082
G1 X143.644 Y111.914 E0.02140
G1 X143.303 Y112.539 E0.02140
G1 X142.818 Y113.053 E0.02128
G1 X142.213 Y113.428 E0.02140
G1 X141.670 Y113.609 E0.01723
G1 X141.096 Y113.674 E0.01736
G1 X108.818 Y113.672 E0.97091
G1 X108.074 Y113.539 E0.02274
G1 X107.390 Y113.207 E0.02287
G1 X106.824 Y112.700 E0.02287
G1 X106.417 Y112.058 E0.02287
G1 X106.238 Y111.527 E0.01687
G1 X106.171 Y110.970 E0.01687
G1 X106.181 Y98.838 E0.36491
G1 X106.339 Y98.132 E0.02177
G1 X106.678 Y97.488 E0.02189
G1 X107.170 Y96.958 E0.02177
G1 X107.787 Y96.572 E0.02189
G1 X108.330 Y96.391 E0.01723
G1 X108.904 Y96.326 E0.01736
G1 X141.079 Y96.326 E0.96783
G1 X142.088 Y96.519 E0.03090
G1 X142.956 Y97.068 E0.03090
G1 X143.527 Y97.849 E0.02909
G1 F5760
G1 X143.823 Y98.895 E-0.37656
G1 F5760
G1 X143.822 Y100.002 E-0.38344
G1 E-0.04000 F2100.00000
G1 X140.443 Y99.712 F7200.000
G1 E0.80000 F2100.00000
M204 S800
G1 F2400
G1 X140.443 Y110.288 E0.34450
G1 X109.557 Y110.288 E1.00609
G1 X109.557 Y99.712 E0.34450
G1 X140.383 Y99.712 E1.00413
M204 S1000
G1 X140.850 Y99.305 F7200.000
M204 S800
G1 F1800
G1 X140.850 Y110.695 E0.37102
G1 X109.150 Y110.695 E1.03261
G1 X109.150 Y99.305 E0.37102
G1 X140.790 Y99.305 E1.03065
M204 S1000
G1 X140.691 Y99.672 F7200.000
G1 F5760
G1 X140.802 Y101.499 E-0.76000
G1 E-0.04000 F2100.00000
G1 X140.321 Y100.661 F7200.000
G1 E0.80000 F2100.00000
M204 S2000
G1 F2400
G1 X139.677 Y100.017 E0.02978
G1 X139.099 Y100.017 E0.01892
G1 X140.138 Y101.056 E0.04806
G1 X140.138 Y101.634 E0.01892
G1 X138.521 Y100.017 E0.07482
G1 X137.943 Y100.017 E0.01892
G1 X140.138 Y102.212 E0.10158
G1 X140.138 Y102.791 E0.01892
G1 X137.364 Y100.017 E0.12834
G1 X136.786 Y100.017 E0.01892
G1 X140.138 Y103.369 E0.15510
G1 X140.138 Y103.947 E0.01892
G1 X136.208 Y100.017 E0.18186
G1 X135.630 Y100.017 E0.01892
G1 X140.138 Y104.525 E0.20862
G1 X140.138 Y105.104 E0.01892
G1 X135.051 Y100.017 E0.23538
G1 X134.473 Y100.017 E0.01892
G1 X140.138 Y105.682 E0.26214
G1 X140.138 Y106.260 E0.01892
G1 X133.895 Y100.017 E0.28890
G1 X133.317 Y100.017 E0.01892
G1 X140.138 Y106.838 E0.31566
G1 X140.138 Y107.417 E0.01892
G1 X132.738 Y100.017 E0.34242
G1 X132.160 Y100.017 E0.01892
G1 X140.138 Y107.995 E0.36918
G1 X140.138 Y108.573 E0.01892
