; generated by Slic3r 1.33.8.devel on 2018-01-05 at 08:14:37

; 

; external perimeters extrusion width = 0.45mm
; perimeters extrusion width = 0.45mm
; infill extrusion width = 0.45mm
; solid infill extrusion width = 0.45mm
; top infill extrusion width = 0.40mm
; first layer extrusion width = 0.42mm

M107
M115 U3.0.12 ; tell printer latest fw version
M83  ; extruder relative mode
M104 S215 ; set extruder temp
M140 S55 ; set bed temp
M190 S55 ; wait for bed temp
M109 S215 ; wait for extruder temp
G28 W ; home all without mesh bed level
G80 ; mesh bed leveling
G1 Y-3.0 F1000.0 ; go outside pritn area
G1 X60.0 E9.0  F1000.0 ; intro line
G1 X100.0 E12.5  F1000.0 ; intro line
; Filament gcode

G21 ; set units to millimeters
G90 ; use absolute coordinates
M83 ; use relative distances for extrusion
G1 E-0.80000 F2100.00000
G1 Z0.200 F7200.000
G1 X120.045 Y87.075 F7200.000
G1 E0.80000 F2100.00000
M204 S1000
G1 F1409
G1 X120.782 Y86.613 E0.02616
G1 X121.540 Y86.412 E0.02360
G1 X122.664 Y86.393 E0.03381
G1 X123.365 Y86.485 E0.02128
G1 X124.020 Y86.752 E0.02128
G1 X124.585 Y87.178 E0.02128
G1 X125.025 Y87.737 E0.02140
G1 X131.963 Y101.996 E0.47698
G1 X138.354 Y119.346 E0.55619
G1 X138.494 Y119.910 E0.01748
G1 X138.512 Y120.491 E0.01748
G1 X138.409 Y121.059 E0.01736
G1 X138.188 Y121.597 E0.01748
G1 X137.833 Y122.107 E0.01871
G1 X137.043 Y122.899 E0.03365
G1 X136.619 Y123.213 E0.01588
G1 X136.142 Y123.441 E0.01588
G1 X135.280 Y123.606 E0.02640
G1 X134.410 Y123.491 E0.02640
G1 X119.249 Y118.542 E0.47971
G1 X117.765 Y117.937 E0.04822
G1 X116.866 Y117.444 E0.03084
G1 X115.894 Y116.783 E0.03535
G1 X115.112 Y116.131 E0.03064
G1 X114.303 Y115.315 E0.03456
G1 X113.660 Y114.527 E0.03058
G1 X113.024 Y113.573 E0.03451
G1 X112.554 Y112.692 E0.03002
G1 X112.122 Y111.657 E0.03374
G1 X111.629 Y109.767 E0.05876
G1 X111.484 Y107.707 E0.06211
G1 X111.701 Y105.817 E0.05724
G1 X112.300 Y103.875 E0.06113
G1 X119.490 Y87.744 E0.53123
G1 X120.007 Y87.121 E0.02435
G1 X120.293 Y87.360 F7200.000
G1 F1409
G1 X120.949 Y86.951 E0.02327
G1 X121.608 Y86.783 E0.02044
G1 X122.663 Y86.770 E0.03175
G1 X123.281 Y86.853 E0.01874
G1 X123.852 Y87.091 E0.01862
G1 X124.343 Y87.469 E0.01862
G1 X124.721 Y87.963 E0.01874
G1 X131.991 Y103.023 E0.50302
G1 X138.096 Y119.820 E0.53757
G1 X138.102 Y120.721 E0.02710
G1 X137.771 Y121.563 E0.02722
G1 X136.758 Y122.648 E0.04466
G1 X136.021 Y123.084 E0.02575
G1 X135.269 Y123.229 E0.02304
G1 X134.509 Y123.128 E0.02304
G1 X119.368 Y118.184 E0.47913
G1 X117.940 Y117.603 E0.04636
G1 X116.257 Y116.583 E0.05918
G1 X115.393 Y115.878 E0.03356
G1 X114.692 Y115.183 E0.02969
G1 X113.444 Y113.538 E0.06212
G1 X112.912 Y112.567 E0.03331
G1 X112.529 Y111.673 E0.02924
G1 X112.031 Y109.875 E0.05611
G1 X111.858 Y107.888 E0.06000
G1 X112.063 Y105.930 E0.05924
G1 X112.588 Y104.167 E0.05533
G1 X119.802 Y87.958 E0.53367
G1 X120.254 Y87.406 E0.02146
G1 F5760
G1 X120.949 Y86.951 E-0.28769
G1 F5760
G1 X121.608 Y86.783 E-0.23534
G1 F5760
G1 X122.292 Y86.775 E-0.23697
G1 E-0.04000 F2100.00000
G1 X121.945 Y105.970 F7200.000
G1 E0.80000 F2100.00000
G1 F840
G1 X122.365 Y105.939 E0.01266
G1 X122.776 Y106.032 E0.01266
G1 X123.140 Y106.243 E0.01266
G1 X123.427 Y106.552 E0.01266
G1 X123.609 Y106.931 E0.01266
G1 X123.672 Y107.347 E0.01266
G1 X123.609 Y107.763 E0.01266
G1 X123.427 Y108.143 E0.01266
G1 X123.140 Y108.451 E0.01266
G1 X122.776 Y108.662 E0.01266
G1 X122.365 Y108.756 E0.01266
G1 X121.945 Y108.724 E0.01266
G1 X121.553 Y108.570 E0.01266
G1 X121.224 Y108.308 E0.01266
G1 X120.987 Y107.960 E0.01266
G1 X120.863 Y107.558 E0.01266
G1 X120.863 Y107.137 E0.01266
G1 X120.987 Y106.734 E0.01266
G1 X121.224 Y106.386 E0.01266
G1 X121.553 Y106.124 E0.01266
G1 X121.889 Y105.992 E0.01086
G1 X122.063 Y105.588 F7200.000
G1 F5760
G1 X122.365 Y105.939 E-0.16579
G1 F5760
G1 X122.776 Y106.032 E-0.14582
G1 F5760
G1 X123.140 Y106.243 E-0.14582
G1 F5760
G1 X123.427 Y106.552 E-0.14582
G1 F5760
G1 X123.609 Y106.931 E-0.14582
G1 F5760
G1 X123.614 Y106.962 E-0.01094
G1 E-0.04000 F2100.00000
G1 X123.144 Y105.810 F7200.000
G1 E0.80000 F2100.00000
G1 F840
G1 X123.246 Y105.531 E0.00894
G1 X123.410 Y105.714 E0.00739
G1 X123.517 Y105.873 E0.00577
G1 X123.655 Y106.157 E0.00948
G1 X123.699 Y106.291 E0.00424
G1 X123.378 Y105.945 E0.01419
G1 X123.196 Y105.840 E0.00632
G1 F5760
G1 X123.246 Y105.531 E-0.10840
G1 F5760
G1 X123.410 Y105.714 E-0.08512
G1 F5760
G1 X123.517 Y105.873 E-0.06645
G1 F5760
G1 X123.655 Y106.157 E-0.10921
G1 F5760
G1 X123.699 Y106.291 E-0.04882
G1 F5760
G1 X123.378 Y105.945 E-0.16342
G1 F5760
G1 X123.196 Y105.840 E-0.07283
G1 E-0.14575 F2100.00000
G1 X120.813 Y108.374 F7200.000
G1 E0.80000 F2100.00000
G1 F840
G1 X120.945 Y108.567 E0.00705
G1 X121.376 Y108.906 E0.01648
G1 X121.295 Y109.189 E0.00885
G1 X121.109 Y108.980 E0.00840
G1 X120.997 Y108.815 E0.00602
G1 X120.904 Y108.636 E0.00605
G1 X120.828 Y108.432 E0.00656
G1 F5760
G1 X120.945 Y108.567 E-0.06197
G1 F5760
G1 X121.376 Y108.906 E-0.18980
G1 F5760
G1 X121.295 Y109.189 E-0.10187
G1 F5760
G1 X121.109 Y108.980 E-0.09674
G1 F5760
G1 X120.997 Y108.815 E-0.06926
G1 F5760
G1 X120.904 Y108.636 E-0.06970
G1 F5760
G1 X120.828 Y108.432 E-0.07559
G1 E-0.13506 F2100.00000
G1 X122.450 Y98.566 F7200.000
G1 E0.80000 F2100.00000
G1 F1260
G1 X123.157 Y98.670 E0.02151
G1 X123.604 Y98.761 E0.01373
G1 X124.044 Y98.876 E0.01366
G1 X124.617 Y99.063 E0.01815
G1 X125.449 Y99.419 E0.02722
G1 X125.843 Y99.625 E0.01335
G1 X126.350 Y99.932 E0.01784
G1 X127.068 Y100.458 E0.02676
G1 X127.399 Y100.743 E0.01313
G1 X127.818 Y101.152 E0.01762
G1 X128.110 Y101.473 E0.01306
G1 X128.473 Y101.926 E0.01746
G1 X128.721 Y102.278 E0.01294
G1 X129.023 Y102.767 E0.01730
G1 X129.224 Y103.143 E0.01282
G1 X129.461 Y103.661 E0.01714
G1 X129.613 Y104.054 E0.01269
G1 X129.784 Y104.592 E0.01697
G1 X129.885 Y104.998 E0.01257
G1 X129.988 Y105.547 E0.01681
G1 X130.038 Y105.958 E0.01245
G1 X130.072 Y106.510 E0.01665
G1 X130.072 Y106.920 E0.01233
G1 X130.038 Y107.467 E0.01648
G1 X129.988 Y107.870 E0.01221
G1 X129.888 Y108.403 E0.01632
G1 X129.791 Y108.793 E0.01208
G1 X129.628 Y109.305 E0.01616
G1 X129.484 Y109.676 E0.01196
G1 X129.263 Y110.156 E0.01591
G1 X128.870 Y110.846 E0.02387
G1 X128.652 Y111.167 E0.01168
G1 X128.334 Y111.577 E0.01561
G1 X127.805 Y112.148 E0.02342
G1 X127.525 Y112.406 E0.01145
G1 X127.130 Y112.727 E0.01531
G1 X126.498 Y113.155 E0.02296
G1 X126.174 Y113.340 E0.01123
G1 X125.723 Y113.560 E0.01509
G1 X125.380 Y113.702 E0.01116
G1 X124.911 Y113.863 E0.01493
G1 X124.558 Y113.961 E0.01104
G1 X124.077 Y114.063 E0.01476
G1 X123.717 Y114.116 E0.01095
G1 X123.235 Y114.157 E0.01456
G1 X122.876 Y114.166 E0.01079
G1 X122.396 Y114.148 E0.01444
G1 X122.043 Y114.112 E0.01067
G1 X121.575 Y114.036 E0.01428
G1 X120.783 Y113.827 E0.02465
G1 X120.034 Y113.527 E0.02425
G1 X119.331 Y113.139 E0.02416
G1 X118.690 Y112.675 E0.02380
G1 X118.119 Y112.142 E0.02351
G1 X117.623 Y111.549 E0.02325
G1 X117.263 Y111.003 E0.01966
G1 X116.966 Y110.427 E0.01948
G1 X116.734 Y109.830 E0.01927
G1 X116.569 Y109.219 E0.01906
G1 X116.469 Y108.600 E0.01885
G1 X116.436 Y107.979 E0.01870
G1 X116.451 Y107.572 E0.01226
G1 X116.493 Y107.170 E0.01217
G1 X116.610 Y106.574 E0.01827
G1 X116.721 Y106.193 E0.01193
G1 X116.857 Y105.824 E0.01184
G1 X117.109 Y105.289 E0.01778
G1 X117.304 Y104.956 E0.01161
G1 X117.520 Y104.640 E0.01152
G1 X117.885 Y104.196 E0.01729
G1 X118.148 Y103.929 E0.01128
G1 X118.427 Y103.682 E0.01119
G1 X118.877 Y103.351 E0.01680
G1 X119.188 Y103.162 E0.01096
G1 X119.509 Y102.996 E0.01087
G1 X120.010 Y102.792 E0.01626
G1 X120.521 Y102.645 E0.01600
G1 X121.038 Y102.553 E0.01579
G1 X121.555 Y102.518 E0.01558
G1 X122.065 Y102.537 E0.01537
G1 X122.564 Y102.610 E0.01516
G1 X123.044 Y102.733 E0.01490
G1 X123.654 Y102.973 E0.01972
G1 X124.074 Y103.202 E0.01441
G1 X124.464 Y103.472 E0.01426
G1 X124.816 Y103.776 E0.01399
G1 X125.229 Y104.233 E0.01852
G1 X125.485 Y104.600 E0.01345
G1 X125.761 Y105.125 E0.01787
G1 X125.913 Y105.529 E0.01297
G1 X126.047 Y106.085 E0.01722
G1 X126.093 Y106.500 E0.01254
G1 X126.094 Y106.911 E0.01239
G1 X126.052 Y107.314 E0.01218
G1 X125.968 Y107.703 E0.01197
G1 X125.846 Y108.075 E0.01176
G1 X125.687 Y108.424 E0.01155
G1 X125.495 Y108.749 E0.01135
G1 X125.274 Y109.046 E0.01114
G1 X125.026 Y109.312 E0.01093
G1 X124.756 Y109.545 E0.01072
G1 X124.471 Y109.743 E0.01046
G1 X124.063 Y109.955 E0.01381
G1 X123.752 Y110.070 E0.00998
G1 X123.435 Y110.149 E0.00983
G1 X123.120 Y110.192 E0.00956
G1 X122.700 Y110.196 E0.01264
G1 X122.452 Y110.169 E0.00751
G1 X122.162 Y110.107 E0.00891
G1 X121.751 Y109.959 E0.01314
G1 X121.386 Y109.755 E0.01259
G1 X121.071 Y109.503 E0.01212
G1 X120.810 Y109.213 E0.01175
G1 X120.673 Y109.007 E0.00743
G1 X120.560 Y108.792 E0.00732
G1 X120.475 Y108.571 E0.00711
G1 X120.416 Y108.349 E0.00691
G1 X120.377 Y107.916 E0.01309
G1 X120.423 Y107.557 E0.01088
G1 X120.492 Y107.557 E0.00209
G1 X120.492 Y107.081 E0.01433
G1 X120.649 Y106.572 E0.01603
G1 X120.949 Y106.131 E0.01603
G1 X121.366 Y105.799 E0.01603
G1 X121.862 Y105.604 E0.01603
G1 X122.393 Y105.565 E0.01603
G1 X122.798 Y105.657 E0.01250
G1 X122.960 Y105.218 E0.01408
G1 X122.443 Y104.985 E0.01705
G1 X122.058 Y104.885 E0.01196
G1 X121.650 Y104.851 E0.01231
G1 X121.361 Y104.867 E0.00870
G1 X120.935 Y104.951 E0.01307
G1 X120.512 Y105.110 E0.01361
G1 X120.110 Y105.344 E0.01398
G1 X119.854 Y105.545 E0.00981
G1 X119.515 Y105.895 E0.01464
G1 X119.314 Y106.169 E0.01023
G1 X119.142 Y106.468 E0.01038
G1 X118.980 Y106.844 E0.01232
G1 X118.854 Y107.304 E0.01434
G1 X118.801 Y107.670 E0.01113
G1 X118.789 Y108.045 E0.01127
G1 X118.817 Y108.425 E0.01147
G1 X118.888 Y108.807 E0.01168
G1 X119.002 Y109.185 E0.01188
G1 X119.158 Y109.555 E0.01209
G1 X119.357 Y109.913 E0.01230
G1 X119.597 Y110.252 E0.01250
G1 X119.876 Y110.569 E0.01271
G1 X120.193 Y110.858 E0.01291
G1 X120.546 Y111.118 E0.01318
G1 X121.060 Y111.403 E0.01770
G1 X121.483 Y111.574 E0.01372
G1 X122.073 Y111.729 E0.01834
G1 X122.541 Y111.791 E0.01420
G1 X123.172 Y111.796 E0.01898
G1 X123.657 Y111.739 E0.01468
G1 X124.290 Y111.582 E0.01963
G1 X124.761 Y111.402 E0.01517
G1 X125.356 Y111.084 E0.02027
G1 X125.779 Y110.785 E0.01559
G1 X126.172 Y110.439 E0.01575
G1 X126.530 Y110.048 E0.01595
G1 X126.849 Y109.616 E0.01616
G1 X127.124 Y109.146 E0.01637
G1 X127.350 Y108.644 E0.01658
G1 X127.523 Y108.115 E0.01673
G1 X127.609 Y107.747 E0.01136
G1 X127.668 Y107.373 E0.01140
G1 X127.701 Y106.992 E0.01149
G1 X127.707 Y106.607 E0.01159
G1 X127.686 Y106.219 E0.01168
G1 X127.636 Y105.829 E0.01183
G1 X127.511 Y105.254 E0.01771
G1 X127.391 Y104.871 E0.01206
G1 X127.244 Y104.495 E0.01215
G1 X126.974 Y103.954 E0.01820
G1 X126.759 Y103.603 E0.01238
G1 X126.517 Y103.266 E0.01247
G1 X126.112 Y102.794 E0.01869
G1 X125.810 Y102.499 E0.01271
G1 X125.485 Y102.224 E0.01280
G1 X124.963 Y101.856 E0.01923
G1 X124.397 Y101.541 E0.01949
G1 X123.796 Y101.285 E0.01964
G1 X123.375 Y101.149 E0.01331
G1 X122.942 Y101.041 E0.01340
G1 X122.281 Y100.938 E0.02013
G1 X121.604 Y100.905 E0.02040
G1 X120.922 Y100.943 E0.02055
G1 X120.464 Y101.010 E0.01391
G1 X120.008 Y101.109 E0.01403
G1 X119.232 Y101.360 E0.02454
G1 X118.481 Y101.709 E0.02491
G1 X117.773 Y102.151 E0.02511
G1 X117.388 Y102.448 E0.01461
G1 X117.025 Y102.770 E0.01462
G1 X116.684 Y103.118 E0.01465
G1 X116.441 Y103.400 E0.01119
G1 X116.142 Y103.792 E0.01482
G1 X115.934 Y104.103 E0.01128
G1 X115.683 Y104.534 E0.01498
G1 X115.513 Y104.871 E0.01137
G1 X115.360 Y105.219 E0.01142
G1 X115.186 Y105.694 E0.01522
G1 X115.075 Y106.062 E0.01157
G1 X114.959 Y106.561 E0.01541
G1 X114.878 Y107.069 E0.01546
G1 X114.840 Y107.461 E0.01186
G1 X114.826 Y108.240 E0.02343
G1 X114.863 Y108.764 E0.01582
G1 X114.915 Y109.161 E0.01203
G1 X115.017 Y109.679 E0.01590
G1 X115.118 Y110.070 E0.01215
G1 X115.284 Y110.578 E0.01606
G1 X115.436 Y110.959 E0.01233
G1 X115.793 Y111.686 E0.02437
G1 X116.076 Y112.153 E0.01644
G1 X116.313 Y112.495 E0.01250
G1 X116.654 Y112.927 E0.01656
G1 X116.933 Y113.239 E0.01258
G1 X117.328 Y113.630 E0.01673
G1 X117.647 Y113.909 E0.01276
G1 X118.322 Y114.411 E0.02531
G1 X118.807 Y114.709 E0.01711
G1 X119.188 Y114.913 E0.01299
G1 X119.972 Y115.254 E0.02573
G1 X120.385 Y115.397 E0.01314
G1 X120.945 Y115.552 E0.01748
G1 X121.803 Y115.711 E0.02624
G1 X122.389 Y115.767 E0.01772
G1 X122.836 Y115.782 E0.01344
G1 X123.722 Y115.741 E0.02667
G1 X124.315 Y115.662 E0.01802
G1 X124.761 Y115.574 E0.01367
G1 X125.629 Y115.330 E0.02712
G1 X126.199 Y115.115 E0.01832
G1 X126.620 Y114.925 E0.01389
G1 X127.425 Y114.483 E0.02763
G1 X128.185 Y113.955 E0.02784
G1 X128.553 Y113.655 E0.01427
G1 X128.694 Y113.513 E0.00603
G1 X135.468 Y120.287 E0.28817
G1 X135.200 Y120.556 E0.01143
G1 X128.691 Y114.047 E0.27688
G1 X127.806 Y114.689 E0.03286
G1 X127.398 Y114.940 E0.01442
G1 X126.977 Y115.170 E0.01444
G1 X126.545 Y115.377 E0.01439
G1 X126.105 Y115.560 E0.01434
G1 X125.204 Y115.854 E0.02851
G1 X124.284 Y116.050 E0.02830
G1 X123.358 Y116.147 E0.02801
G1 X122.425 Y116.147 E0.02805
G1 X121.969 Y116.111 E0.01376
G1 X121.364 Y116.025 E0.01838
G1 X120.474 Y115.818 E0.02748
G1 X119.619 Y115.522 E0.02722
G1 X118.804 Y115.139 E0.02709
G1 X118.419 Y114.920 E0.01332
G1 X117.924 Y114.596 E0.01780
G1 X117.229 Y114.048 E0.02661
G1 X116.602 Y113.437 E0.02635
G1 X116.045 Y112.767 E0.02622
G1 X115.798 Y112.417 E0.01288
G1 X115.498 Y111.930 E0.01722
G1 X115.113 Y111.162 E0.02582
G1 X114.954 Y110.772 E0.01266
G1 X114.774 Y110.237 E0.01700
G1 X114.665 Y109.833 E0.01259
G1 X114.553 Y109.284 E0.01683
G1 X114.495 Y108.874 E0.01247
G1 X114.452 Y108.324 E0.01659
G1 X114.460 Y107.497 E0.02488
G1 X114.495 Y107.094 E0.01218
G1 X114.576 Y106.556 E0.01637
G1 X114.661 Y106.162 E0.01212
G1 X114.806 Y105.643 E0.01621
G1 X114.937 Y105.266 E0.01200
G1 X115.142 Y104.774 E0.01604
G1 X115.316 Y104.420 E0.01187
G1 X115.578 Y103.961 E0.01588
G1 X115.792 Y103.634 E0.01175
G1 X116.105 Y103.216 E0.01572
G1 X116.355 Y102.921 E0.01163
G1 X116.713 Y102.548 E0.01555
G1 X116.994 Y102.288 E0.01151
G1 X117.391 Y101.965 E0.01539
G1 X117.699 Y101.745 E0.01139
G1 X118.128 Y101.476 E0.01523
G1 X118.458 Y101.296 E0.01130
G1 X118.910 Y101.085 E0.01503
G1 X119.255 Y100.949 E0.01114
G1 X119.725 Y100.796 E0.01487
G1 X120.201 Y100.678 E0.01475
G1 X120.680 Y100.594 E0.01461
G1 X121.407 Y100.532 E0.02195
G1 X121.763 Y100.530 E0.01072
G1 X122.239 Y100.556 E0.01433
G1 X122.946 Y100.658 E0.02150
G1 X123.734 Y100.866 E0.02451
G1 X124.386 Y101.121 E0.02104
G1 X125.090 Y101.493 E0.02395
G1 X125.741 Y101.949 E0.02392
G1 X126.324 Y102.473 E0.02358
G1 X126.764 Y102.972 E0.01999
G1 X127.023 Y103.323 E0.01314
G1 X127.255 Y103.690 E0.01305
G1 X127.554 Y104.269 E0.01959
G1 X127.715 Y104.663 E0.01282
G1 X127.847 Y105.065 E0.01272
G1 X127.991 Y105.683 E0.01910
G1 X128.050 Y106.094 E0.01249
G1 X128.079 Y106.505 E0.01240
G1 X128.068 Y107.124 E0.01861
G1 X128.026 Y107.526 E0.01217
G1 X127.955 Y107.921 E0.01207
G1 X127.798 Y108.501 E0.01807
G1 X127.584 Y109.053 E0.01781
G1 X127.316 Y109.573 E0.01760
G1 X126.998 Y110.056 E0.01739
G1 X126.635 Y110.497 E0.01718
G1 X126.232 Y110.892 E0.01697
G1 X125.794 Y111.239 E0.01682
G1 X125.489 Y111.440 E0.01101
G1 X125.172 Y111.618 E0.01091
G1 X124.675 Y111.841 E0.01639
G1 X124.340 Y111.958 E0.01068
G1 X124.000 Y112.049 E0.01059
G1 X123.479 Y112.141 E0.01590
G1 X122.795 Y112.176 E0.02061
G1 X122.288 Y112.139 E0.01530
G1 X121.630 Y112.007 E0.02018
G1 X121.166 Y111.853 E0.01470
G1 X120.580 Y111.573 E0.01953
G1 X120.181 Y111.316 E0.01427
G1 X119.815 Y111.022 E0.01412
G1 X119.487 Y110.696 E0.01391
G1 X119.201 Y110.342 E0.01370
G1 X118.957 Y109.965 E0.01350
G1 X118.758 Y109.571 E0.01329
G1 X118.605 Y109.164 E0.01308
G1 X118.498 Y108.750 E0.01287
G1 X118.437 Y108.333 E0.01266
G1 X118.421 Y107.919 E0.01245
G1 X118.448 Y107.515 E0.01219
G1 X118.551 Y106.989 E0.01611
G1 X118.673 Y106.622 E0.01165
G1 X118.894 Y106.157 E0.01547
G1 X119.094 Y105.845 E0.01116
G1 X119.411 Y105.465 E0.01488
G1 X119.579 Y105.302 E0.00705
G1 X119.857 Y105.079 E0.01071
G1 X120.149 Y104.892 E0.01045
G1 X120.456 Y104.739 E0.01030
G1 X120.978 Y104.568 E0.01654
G1 X121.295 Y104.513 E0.00969
G1 X121.610 Y104.493 E0.00948
