; generated by Slic3r 1.33.8.devel on 2018-01-05 at 19:57:36

; 

; external perimeters extrusion width = 0.45mm
; perimeters extrusion width = 0.45mm
; infill extrusion width = 0.45mm
; solid infill extrusion width = 0.45mm
; top infill extrusion width = 0.40mm
; first layer extrusion width = 0.42mm

M107
M115 U3.0.12 ; tell printer latest fw version
M83  ; extruder relative mode
M104 S215 ; set extruder temp
M140 S55 ; set bed temp
M190 S55 ; wait for bed temp
M109 S215 ; wait for extruder temp
G28 W ; home all without mesh bed level
G80 ; mesh bed leveling
G1 Y-3.0 F1000.0 ; go outside pritn area
G1 X60.0 E9.0  F1000.0 ; intro line
G1 X100.0 E12.5  F1000.0 ; intro line
; Filament gcode

G21 ; set units to millimeters
G90 ; use absolute coordinates
M83 ; use relative distances for extrusion
G1 E-0.80000 F2100.00000
G1 Z0.200 F7200.000
G1 X106.954 Y98.233 F7200.000
G1 E0.80000 F2100.00000
M204 S1000
G1 F2100
G1 X107.522 Y96.645 E0.05072
G1 X108.021 Y95.758 E0.03062
G1 X108.522 Y95.070 E0.02558
G1 X109.511 Y94.055 E0.04265
G1 X110.639 Y93.246 E0.04175
G1 X111.891 Y92.647 E0.04175
G1 X113.253 Y92.271 E0.04250
G1 X133.930 Y90.723 E0.62371
G1 X135.683 Y90.879 E0.05294
G1 X137.290 Y91.328 E0.05018
G1 X138.777 Y92.047 E0.04970
G1 X140.269 Y93.156 E0.05591
G1 X141.382 Y94.369 E0.04950
G1 X142.257 Y95.754 E0.04930
G1 X142.931 Y97.469 E0.05543
G1 X143.231 Y99.067 E0.04891
G1 X143.272 Y100.023 E0.02879
G1 X143.213 Y100.979 E0.02880
G1 X143.056 Y101.916 E0.02857
G1 X142.798 Y102.840 E0.02886
G1 X137.120 Y117.536 E0.47390
G1 X136.707 Y118.246 E0.02470
G1 X136.138 Y118.779 E0.02348
G1 X135.438 Y119.133 E0.02360
G1 X134.776 Y119.268 E0.02030
G1 X133.644 Y119.274 E0.03406
G1 X114.120 Y117.842 E0.58885
G1 X113.346 Y117.652 E0.02396
G1 X112.659 Y117.249 E0.02396
G1 X112.150 Y116.713 E0.02225
G1 X111.801 Y116.060 E0.02225
G1 X107.155 Y102.719 E0.42494
G1 X106.866 Y101.617 E0.03425
G1 X106.730 Y99.935 E0.05078
G1 X106.946 Y98.292 E0.04984
G1 F5760
G1 X107.522 Y96.645 E-0.60433
G1 F5760
G1 X107.742 Y96.253 E-0.15567
G1 E-0.04000 F2100.00000
G1 X107.107 Y99.945 F7200.000
G1 E0.80000 F2100.00000
G1 F2100
G1 X107.320 Y98.323 E0.04920
G1 X107.551 Y97.550 E0.02427
G1 X107.943 Y96.645 E0.02966
G1 X108.826 Y95.294 E0.04856
G1 X109.762 Y94.336 E0.04027
G1 X110.860 Y93.554 E0.04056
G1 X112.055 Y92.988 E0.03976
G1 X113.502 Y92.612 E0.04498
G1 X133.930 Y91.100 E0.61614
G1 X135.613 Y91.250 E0.05083
G1 X137.154 Y91.680 E0.04812
G1 X138.577 Y92.367 E0.04755
G1 X140.021 Y93.440 E0.05411
G1 X141.084 Y94.601 E0.04735
G1 X141.922 Y95.926 E0.04716
G1 X142.571 Y97.579 E0.05343
G1 X142.858 Y99.126 E0.04732
G1 X142.838 Y100.939 E0.05454
G1 X142.439 Y102.725 E0.05506
G1 X136.770 Y117.395 E0.47305
G1 X136.402 Y118.023 E0.02191
G1 X135.896 Y118.488 E0.02067
G1 X135.278 Y118.788 E0.02067
G1 X134.718 Y118.894 E0.01714
G1 X133.648 Y118.897 E0.03218
G1 X114.160 Y117.467 E0.58779
G1 X113.482 Y117.300 E0.02101
G1 X112.881 Y116.943 E0.02101
G1 X112.448 Y116.481 E0.01908
G1 X112.152 Y115.920 E0.01908
G1 X107.512 Y102.600 E0.42428
G1 X107.238 Y101.552 E0.03257
G1 X107.112 Y100.005 E0.04670
G1 F5760
G1 X107.320 Y98.323 E-0.58688
G1 F5760
G1 X107.463 Y97.844 E-0.17312
G1 E-0.04000 F2100.00000
G1 X114.593 Y105.311 F7200.000
G1 E0.80000 F2100.00000
G1 F840
G1 X114.973 Y105.311 E0.01143
G1 X114.973 Y114.891 E0.28816
G1 X114.593 Y114.891 E0.01143
G1 X114.593 Y105.371 E0.28636
G1 X114.925 Y105.496 F7200.000
G1 F5760
G1 X114.973 Y105.311 E-0.13325
G1 F5760
G1 X114.973 Y107.120 E-0.62675
G1 E-0.04000 F2100.00000
G1 X116.313 Y99.605 F7200.000
G1 E0.80000 F2100.00000
G1 F840
G1 X116.626 Y99.358 E0.01200
G1 X116.691 Y99.710 E0.01076
G1 X116.698 Y99.904 E0.00583
G1 X116.652 Y100.292 E0.01175
G1 X116.558 Y100.588 E0.00934
G1 X116.483 Y100.751 E0.00541
G1 X116.318 Y101.009 E0.00919
G1 X116.205 Y101.144 E0.00530
G1 X115.984 Y101.346 E0.00903
G1 X115.836 Y101.450 E0.00543
G1 X115.508 Y101.609 E0.01098
G1 X115.228 Y101.686 E0.00871
G1 X115.063 Y101.709 E0.00501
G1 X114.778 Y101.711 E0.00859
G1 X114.616 Y101.690 E0.00490
G1 X114.360 Y101.623 E0.00797
G1 X114.025 Y101.465 E0.01116
G1 X113.902 Y101.381 E0.00448
G1 X113.700 Y101.201 E0.00815
G1 X113.472 Y100.893 E0.01152
G1 X113.377 Y100.695 E0.00662
G1 X113.311 Y100.487 E0.00655
G1 X113.275 Y100.275 E0.00647
G1 X113.269 Y100.063 E0.00640
G1 X113.292 Y99.864 E0.00601
G1 X113.386 Y99.547 E0.00995
G1 X113.468 Y99.383 E0.00551
G1 X113.659 Y99.125 E0.00967
G1 X113.802 Y98.990 E0.00590
G1 X114.073 Y98.786 E0.01021
G1 X114.470 Y98.630 E0.01285
G1 X114.888 Y98.598 E0.01261
G1 X115.297 Y98.692 E0.01261
G1 X115.660 Y98.901 E0.01261
G1 X116.272 Y99.561 E0.02707
G1 X116.353 Y99.094 F7200.000
G1 F1260
G1 X116.743 Y98.787 E0.01491
G1 X116.373 Y98.318 E0.01797
G1 X116.131 Y98.097 E0.00984
G1 X115.861 Y97.912 E0.00985
G1 X115.566 Y97.766 E0.00989
G1 X115.291 Y97.672 E0.00877
G1 X115.002 Y97.612 E0.00886
G1 X114.629 Y97.587 E0.01125
G1 X114.370 Y97.604 E0.00782
G1 X113.999 Y97.677 E0.01138
G1 X113.749 Y97.762 E0.00792
G1 X113.405 Y97.932 E0.01154
G1 X113.183 Y98.081 E0.00803
G1 X112.891 Y98.337 E0.01170
G1 X112.714 Y98.541 E0.00813
G1 X112.495 Y98.869 E0.01186
G1 X112.375 Y99.115 E0.00824
G1 X112.248 Y99.494 E0.01201
G1 X112.195 Y99.763 E0.00826
G1 X112.171 Y100.035 E0.00822
G1 X112.176 Y100.312 E0.00834
G1 X112.236 Y100.717 E0.01229
G1 X112.314 Y100.989 E0.00853
G1 X112.480 Y101.369 E0.01245
G1 X112.628 Y101.615 E0.00863
G1 X112.889 Y101.942 E0.01261
G1 X113.097 Y102.142 E0.00866
G1 X113.323 Y102.318 E0.00862
G1 X113.569 Y102.471 E0.00874
G1 X113.960 Y102.648 E0.01289
G1 X114.244 Y102.734 E0.00893
G1 X114.672 Y102.804 E0.01305
G1 X114.972 Y102.814 E0.00903
G1 X115.409 Y102.770 E0.01321
G1 X115.702 Y102.701 E0.00905
G1 X115.985 Y102.602 E0.00901
G1 X116.260 Y102.472 E0.00914
G1 X116.637 Y102.230 E0.01349
G1 X116.873 Y102.029 E0.00933
G1 X117.178 Y101.693 E0.01364
G1 X117.356 Y101.435 E0.00943
G1 X117.565 Y101.027 E0.01380
G1 X117.671 Y100.731 E0.00945
G1 X117.745 Y100.427 E0.00941
G1 X117.787 Y100.113 E0.00954
G1 X117.788 Y99.644 E0.01408
G1 X117.746 Y99.324 E0.00972
G1 X117.624 Y98.866 E0.01424
G1 X117.499 Y98.564 E0.00983
G1 X117.260 Y98.150 E0.01440
G1 X117.061 Y97.890 E0.00985
G1 X116.836 Y97.652 E0.00984
G1 X116.585 Y97.438 E0.00991
G1 X116.176 Y97.173 E0.01468
G1 X115.872 Y97.028 E0.01012
G1 X115.402 Y96.876 E0.01484
G1 X115.068 Y96.814 E0.01023
G1 X114.570 Y96.789 E0.01500
G1 X114.230 Y96.816 E0.01025
G1 X113.897 Y96.878 E0.01021
G1 X113.568 Y96.977 E0.01033
G1 X113.104 Y97.184 E0.01528
G1 X112.806 Y97.368 E0.01052
G1 X112.408 Y97.692 E0.01544
G1 X112.166 Y97.948 E0.01063
G1 X111.862 Y98.369 E0.01559
G1 X111.694 Y98.680 E0.01065
G1 X111.561 Y99.007 E0.01061
G1 X111.460 Y99.349 E0.01073
G1 X111.380 Y99.871 E0.01588
G1 X111.372 Y100.234 E0.01092
G1 X111.430 Y100.764 E0.01603
G1 X111.517 Y101.120 E0.01102
G1 X111.712 Y101.622 E0.01622
G1 X111.922 Y101.995 E0.01288
G1 X112.212 Y102.383 E0.01457
G1 X112.469 Y102.653 E0.01121
G1 X112.850 Y102.963 E0.01476
G1 X113.273 Y103.219 E0.01489
G1 X113.729 Y103.414 E0.01491
G1 X114.093 Y103.520 E0.01139
G1 X114.585 Y103.599 E0.01499
G1 X114.966 Y103.613 E0.01149
G1 X115.467 Y103.570 E0.01512
G1 X115.844 Y103.491 E0.01158
G1 X116.325 Y103.326 E0.01530
G1 X116.783 Y103.094 E0.01543
G1 X117.204 Y102.800 E0.01545
G1 X117.496 Y102.538 E0.01179
G1 X117.834 Y102.150 E0.01549
G1 X118.056 Y101.822 E0.01193
G1 X118.293 Y101.359 E0.01562
G1 X118.430 Y100.984 E0.01203
G1 X118.549 Y100.471 E0.01584
G1 X118.595 Y99.942 E0.01597
G1 X118.568 Y99.412 E0.01595
G1 X118.497 Y99.011 E0.01224
G1 X118.341 Y98.502 E0.01603
G1 X118.175 Y98.127 E0.01234
G1 X117.898 Y97.667 E0.01616
G1 X117.643 Y97.341 E0.01243
G1 X117.258 Y96.956 E0.01638
G1 X116.819 Y96.626 E0.01651
G1 X116.338 Y96.360 E0.01653
G1 X115.950 Y96.203 E0.01260
G1 X115.416 Y96.061 E0.01661
G1 X114.998 Y96.003 E0.01270
G1 X114.441 Y95.994 E0.01674
G1 X114.018 Y96.039 E0.01280
G1 X113.470 Y96.167 E0.01692
G1 X112.941 Y96.371 E0.01705
G1 X112.445 Y96.647 E0.01707
G1 X112.096 Y96.902 E0.01301
G1 X111.681 Y97.291 E0.01711
G1 X111.401 Y97.626 E0.01315
G1 X111.089 Y98.109 E0.01728
G1 X110.898 Y98.504 E0.01321
G1 X110.710 Y99.054 E0.01746
G1 X110.600 Y99.628 E0.01760
G1 X110.571 Y100.213 E0.01761
G1 X110.604 Y100.658 E0.01342
G1 X110.719 Y101.236 E0.01774
G1 X110.914 Y101.798 E0.01787
G1 X111.186 Y102.327 E0.01789
G1 X111.441 Y102.701 E0.01363
G1 X111.836 Y103.152 E0.01802
G1 X112.293 Y103.546 E0.01815
G1 X112.801 Y103.873 E0.01817
G1 X113.215 Y104.073 E0.01384
G1 X113.789 Y104.268 E0.01825
G1 X114.243 Y104.362 E0.01393
G1 X114.852 Y104.413 E0.01838
G1 X115.318 Y104.394 E0.01403
G1 X115.927 Y104.295 E0.01857
G1 X116.520 Y104.110 E0.01869
G1 X117.083 Y103.844 E0.01871
G1 X117.483 Y103.591 E0.01424
G1 X117.968 Y103.194 E0.01884
G1 X118.393 Y102.733 E0.01887
G1 X118.674 Y102.343 E0.01444
G1 X118.977 Y101.788 E0.01905
G1 X119.203 Y101.191 E0.01918
G1 X119.343 Y100.567 E0.01925
G1 X119.395 Y99.928 E0.01927
G1 X119.375 Y99.441 E0.01466
G1 X119.270 Y98.805 E0.01940
G1 X119.076 Y98.185 E0.01953
G1 X118.799 Y97.599 E0.01951
G1 X118.533 Y97.180 E0.01492
G1 X118.118 Y96.674 E0.01968
G1 X117.633 Y96.228 E0.01981
G1 X117.089 Y95.853 E0.01989
G1 X116.496 Y95.555 E0.01996
G1 X115.864 Y95.343 E0.02004
G1 X115.207 Y95.220 E0.02011
G1 X114.537 Y95.190 E0.02019
G1 X113.866 Y95.254 E0.02026
G1 X113.209 Y95.411 E0.02034
G1 X112.577 Y95.659 E0.02041
G1 X111.984 Y95.993 E0.02048
G1 X111.441 Y96.409 E0.02056
G1 X110.960 Y96.898 E0.02063
G1 X110.550 Y97.451 E0.02071
G1 X110.220 Y98.058 E0.02078
G1 X109.977 Y98.707 E0.02086
G1 X109.826 Y99.385 E0.02088
G1 X109.776 Y99.910 E0.01586
G1 X109.794 Y100.604 E0.02090
G1 X109.872 Y101.131 E0.01601
G1 X110.059 Y101.804 E0.02103
G1 X110.263 Y102.298 E0.01606
G1 X110.517 Y102.765 E0.01599
G1 X110.820 Y103.206 E0.01609
G1 X111.288 Y103.735 E0.02127
G1 X111.693 Y104.093 E0.01624
G1 X112.130 Y104.405 E0.01617
G1 X112.600 Y104.670 E0.01621
G1 X113.095 Y104.885 E0.01626
G1 X113.612 Y105.048 E0.01630
G1 X114.146 Y105.156 E0.01637
G1 X114.573 Y105.193 E0.01291
G1 X114.573 Y105.292 E0.00298
G1 X113.873 Y105.189 E0.02128
G1 X113.338 Y105.052 E0.01663
G1 X112.995 Y104.932 E0.01091
G1 X112.492 Y104.705 E0.01661
G1 X112.177 Y104.528 E0.01087
G1 X111.723 Y104.217 E0.01654
G1 X111.445 Y103.989 E0.01082
G1 X111.054 Y103.607 E0.01647
G1 X110.820 Y103.335 E0.01077
G1 X110.504 Y102.893 E0.01634
G1 X110.236 Y102.424 E0.01625
G1 X110.086 Y102.097 E0.01081
G1 X109.961 Y101.763 E0.01074
G1 X109.815 Y101.244 E0.01620
G1 X109.726 Y100.717 E0.01611
G1 X109.692 Y100.182 E0.01612
G1 X109.700 Y99.830 E0.01058
G1 X109.760 Y99.300 E0.01605
G1 X109.873 Y98.782 E0.01595
G1 X110.040 Y98.280 E0.01591
G1 X110.258 Y97.799 E0.01587
G1 X110.524 Y97.346 E0.01583
G1 X110.836 Y96.923 E0.01578
G1 X111.190 Y96.535 E0.01580
G1 X111.443 Y96.302 E0.01036
G1 X111.858 Y95.983 E0.01573
G1 X112.300 Y95.711 E0.01563
G1 X112.768 Y95.487 E0.01559
G1 X113.255 Y95.314 E0.01555
G1 X113.756 Y95.193 E0.01550
G1 X114.266 Y95.125 E0.01549
G1 X114.693 Y95.110 E0.01285
G1 X115.205 Y95.140 E0.01542
G1 X115.538 Y95.190 E0.01013
G1 X116.035 Y95.308 E0.01537
G1 X116.515 Y95.478 E0.01533
G1 X116.820 Y95.616 E0.01005
G1 X117.261 Y95.866 E0.01526
G1 X117.672 Y96.158 E0.01516
G1 X118.049 Y96.491 E0.01512
G1 X118.388 Y96.860 E0.01508
G1 X118.590 Y97.123 E0.00997
G1 X118.859 Y97.545 E0.01506
G1 X119.082 Y97.992 E0.01502
G1 X119.202 Y98.297 E0.00985
G1 X119.344 Y98.773 E0.01495
G1 X119.434 Y99.259 E0.01485
G1 X119.473 Y99.749 E0.01481
G1 X119.460 Y100.240 E0.01477
G1 X119.396 Y100.726 E0.01473
G1 X119.282 Y101.201 E0.01469
G1 X119.120 Y101.660 E0.01464
G1 X118.911 Y102.098 E0.01460
G1 X118.658 Y102.510 E0.01456
G1 X118.364 Y102.893 E0.01452
G1 X118.032 Y103.242 E0.01448
G1 X117.667 Y103.554 E0.01443
G1 X117.273 Y103.825 E0.01439
G1 X116.854 Y104.052 E0.01435
G1 X116.414 Y104.234 E0.01431
G1 X115.959 Y104.368 E0.01427
G1 X115.494 Y104.454 E0.01422
G1 X115.026 Y104.491 E0.01413
G1 X114.397 Y104.463 E0.01895
G1 X113.938 Y104.385 E0.01397
G1 X113.339 Y104.207 E0.01882
G1 X112.916 Y104.023 E0.01388
G1 X112.381 Y103.707 E0.01869
G1 X112.018 Y103.427 E0.01378
G1 X111.579 Y102.994 E0.01856
G1 X111.296 Y102.638 E0.01368
G1 X110.977 Y102.115 E0.01843
G1 X110.790 Y101.704 E0.01358
G1 X110.608 Y101.124 E0.01830
G1 X110.528 Y100.683 E0.01348
G1 X110.492 Y100.080 E0.01817
G1 X110.520 Y99.636 E0.01339
G1 X110.631 Y99.046 E0.01803
G1 X110.764 Y98.625 E0.01329
G1 X111.012 Y98.084 E0.01790
G1 X111.243 Y97.711 E0.01319
G1 X111.612 Y97.249 E0.01777
G1 X111.923 Y96.945 E0.01309
G1 X112.389 Y96.589 E0.01764
G1 X112.762 Y96.371 E0.01299
G1 X113.295 Y96.141 E0.01746
G1 X113.851 Y95.989 E0.01733
G1 X114.421 Y95.916 E0.01731
G1 X114.846 Y95.914 E0.01278
G1 X115.415 Y95.980 E0.01723
G1 X115.825 Y96.080 E0.01269
G1 X116.357 Y96.281 E0.01710
G1 X116.727 Y96.476 E0.01259
G1 X117.190 Y96.796 E0.01692
G1 X117.600 Y97.175 E0.01679
G1 X117.952 Y97.607 E0.01677
G1 X118.172 Y97.955 E0.01238
G1 X118.409 Y98.457 E0.01669
G1 X118.537 Y98.844 E0.01228
G1 X118.644 Y99.385 E0.01656
G1 X118.674 Y99.788 E0.01218
G1 X118.647 Y100.332 E0.01638
G1 X118.546 Y100.863 E0.01625
G1 X118.372 Y101.373 E0.01623
G1 X118.199 Y101.732 E0.01197
G1 X117.908 Y102.183 E0.01615
G1 X117.655 Y102.486 E0.01188
G1 X117.267 Y102.851 E0.01602
G1 X116.951 Y103.082 E0.01178
G1 X116.491 Y103.339 E0.01584
G1 X116.004 Y103.527 E0.01571
G1 X115.497 Y103.646 E0.01569
G1 X115.114 Y103.687 E0.01157
G1 X114.595 Y103.679 E0.01561
G1 X114.218 Y103.627 E0.01147
G1 X113.720 Y103.495 E0.01548
G1 X113.369 Y103.354 E0.01137
G1 X112.924 Y103.108 E0.01529
G1 X112.521 Y102.805 E0.01516
G1 X112.165 Y102.450 E0.01515
G1 X111.936 Y102.158 E0.01116
G1 X111.677 Y101.728 E0.01507
G1 X111.527 Y101.393 E0.01106
G1 X111.381 Y100.918 E0.01494
G1 X111.318 Y100.559 E0.01097
G1 X111.292 Y100.069 E0.01475
G1 X111.334 Y99.585 E0.01462
G1 X111.443 Y99.111 E0.01460
G1 X111.565 Y98.775 E0.01076
G1 X111.785 Y98.345 E0.01453
G1 X111.983 Y98.051 E0.01066
G1 X112.297 Y97.690 E0.01440
G1 X112.558 Y97.455 E0.01056
G1 X112.945 Y97.184 E0.01421
G1 X113.362 Y96.972 E0.01408
G1 X113.805 Y96.820 E0.01406
G1 X114.141 Y96.749 E0.01035
G1 X114.605 Y96.709 E0.01399
G1 X114.945 Y96.722 E0.01025
G1 X115.400 Y96.794 E0.01386
G1 X115.726 Y96.888 E0.01019
G1 X116.143 Y97.066 E0.01364
G1 X116.528 Y97.299 E0.01354
G1 X116.877 Y97.583 E0.01352
G1 X117.106 Y97.821 E0.00995
G1 X117.374 Y98.179 E0.01345
G1 X117.537 Y98.463 E0.00985
G1 X117.709 Y98.871 E0.01332
G1 X117.797 Y99.183 E0.00975
G1 X117.864 Y99.614 E0.01313
G1 X117.870 Y100.047 E0.01303
G1 X117.826 Y100.419 E0.01126
G1 X117.721 Y100.836 E0.01295
G1 X117.606 Y101.132 E0.00955
G1 X117.461 Y101.412 E0.00948
G1 X117.188 Y101.806 E0.01442
G1 X116.980 Y102.035 E0.00929
G1 X116.618 Y102.341 E0.01426
G1 X116.362 Y102.506 E0.00918
G1 X115.937 Y102.705 E0.01410
G1 X115.647 Y102.798 E0.00916
G1 X115.347 Y102.860 E0.00920
G1 X115.047 Y102.890 E0.00908
G1 X114.588 Y102.875 E0.01382
G1 X114.296 Y102.827 E0.00889
G1 X113.862 Y102.695 E0.01366
G1 X113.596 Y102.574 E0.00879
G1 X113.214 Y102.337 E0.01351
G1 X112.989 Y102.152 E0.00876
G1 X112.784 Y101.944 E0.00880
G1 X112.604 Y101.718 E0.00868
G1 X112.377 Y101.341 E0.01322
G1 X112.265 Y101.083 E0.00849
G1 X112.145 Y100.665 E0.01307
G1 X112.103 Y100.389 E0.00839
G1 X112.096 Y99.960 E0.01291
G1 X112.127 Y99.684 E0.00836
G1 X112.188 Y99.411 E0.00841
G1 X112.276 Y99.150 E0.00828
G1 X112.460 Y98.773 E0.01263
G1 X112.609 Y98.549 E0.00809
G1 X112.881 Y98.237 E0.01247
G1 X113.080 Y98.061 E0.00799
G1 X113.420 Y97.833 E0.01231
G1 X113.657 Y97.715 E0.00797
G1 X113.907 Y97.623 E0.00801
G1 X114.161 Y97.558 E0.00788
G1 X114.558 Y97.510 E0.01203
G1 X114.814 Y97.513 E0.00769
G1 X115.204 Y97.570 E0.01187
G1 X115.447 Y97.638 E0.00759
G1 X115.805 Y97.792 E0.01171
G1 X116.021 Y97.920 E0.00757
G1 X116.224 Y98.072 E0.00761
G1 X116.406 Y98.241 E0.00748
G1 X116.649 Y98.533 E0.01143
G1 X116.778 Y98.738 E0.00730
G1 X116.935 Y99.079 E0.01127
G1 X117.005 Y99.307 E0.00719
G1 X117.067 Y99.672 E0.01112
G1 X117.076 Y99.910 E0.00717
G1 X117.019 Y100.381 E0.01428
