; generated by Slic3r 1.33.8.devel on 2017-12-22 at 14:26:35

; 

; external perimeters extrusion width = 0.45mm
; perimeters extrusion width = 0.45mm
; infill extrusion width = 0.45mm
; solid infill extrusion width = 0.45mm
; top infill extrusion width = 0.40mm
; first layer extrusion width = 0.42mm

M107
M115 U3.0.12 ; tell printer latest fw version
M83  ; extruder relative mode
M104 S215 ; set extruder temp
M140 S55 ; set bed temp
M190 S55 ; wait for bed temp
M109 S215 ; wait for extruder temp
G28 W ; home all without mesh bed level
G80 ; mesh bed leveling
G1 Y-3.0 F1000.0 ; go outside pritn area
G1 X60.0 E9.0  F1000.0 ; intro line
G1 X100.0 E12.5  F1000.0 ; intro line
; Filament gcode

G21 ; set units to millimeters
G90 ; use absolute coordinates
M83 ; use relative distances for extrusion
G1 E-0.80000 F2100.00000
G1 Z0.200 F7200.000
G1 X4.182 Y2.768 F7200.000
G1 E0.80000 F2100.00000
M204 S1000
G1 F2100
G1 X4.995 Y2.623 E0.02485
G1 X245.004 Y2.623 E7.21943
G1 X245.909 Y2.804 E0.02778
G1 X246.678 Y3.316 E0.02778
G1 X247.191 Y4.079 E0.02767
G1 X247.377 Y4.984 E0.02778
G1 X247.377 Y205.011 E6.01680
G1 X247.319 Y205.521 E0.01544
G1 X247.153 Y206.007 E0.01544
G1 X246.887 Y206.446 E0.01544
G1 X246.533 Y206.817 E0.01544
G1 X245.818 Y207.232 E0.02485
G1 X245.005 Y207.377 E0.02485
G1 X4.996 Y207.377 E7.21943
G1 X4.486 Y207.321 E0.01544
G1 X3.996 Y207.155 E0.01555
G1 X3.554 Y206.887 E0.01555
G1 X3.183 Y206.533 E0.01544
G1 X2.769 Y205.822 E0.02474
G1 X2.623 Y205.009 E0.02485
G1 X2.623 Y4.996 E6.01635
G1 X2.679 Y4.486 E0.01544
G1 X2.845 Y3.996 E0.01555
G1 X3.113 Y3.554 E0.01555
G1 X3.467 Y3.183 E0.01544
G1 X4.130 Y2.798 E0.02305
G1 F5760
G1 X4.995 Y2.623 E-0.30575
G1 F5760
G1 X6.307 Y2.623 E-0.45425
G1 E-0.04000 F2100.00000
G1 X5.587 Y5.587 F7200.000
G1 E0.80000 F2100.00000
G1 F1680
G1 X244.413 Y5.587 E7.18385
G1 X244.413 Y204.413 E5.98065
G1 X5.587 Y204.413 E7.18385
G1 X5.587 Y5.647 E5.97885
G1 X5.210 Y5.210 F7200.000
G1 F1260
G1 X244.790 Y5.210 E7.20653
G1 X244.790 Y204.790 E6.00334
G1 X5.210 Y204.790 E7.20653
G1 X5.210 Y5.270 E6.00153
G1 X5.599 Y5.302 F7200.000
G1 F5760
G1 X7.404 Y5.269 E-0.76000
G1 E-0.04000 F2100.00000
G1 X5.700 Y203.536 F7200.000
G1 E0.80000 F2100.00000
G1 F1680
G1 X6.294 Y204.130 E0.02530
G1 X6.828 Y204.130 E0.01608
G1 X5.870 Y203.172 E0.04081
G1 X5.870 Y202.638 E0.01608
G1 X7.362 Y204.130 E0.06355
G1 X7.896 Y204.130 E0.01608
G1 X5.870 Y202.104 E0.08629
G1 X5.870 Y201.570 E0.01608
G1 X8.430 Y204.130 E0.10903
G1 X8.964 Y204.130 E0.01608
G1 X5.870 Y201.036 E0.13177
G1 X5.870 Y200.502 E0.01608
G1 X9.498 Y204.130 E0.15451
G1 X10.031 Y204.130 E0.01608
G1 X5.870 Y199.968 E0.17726
G1 X5.870 Y199.435 E0.01608
G1 X10.565 Y204.130 E0.20000
G1 X11.099 Y204.130 E0.01608
G1 X5.870 Y198.901 E0.22274
G1 X5.870 Y198.367 E0.01608
G1 X11.633 Y204.130 E0.24548
G1 X12.167 Y204.130 E0.01608
G1 X5.870 Y197.833 E0.26822
G1 X5.870 Y197.299 E0.01608
G1 X12.701 Y204.130 E0.29096
G1 X13.235 Y204.130 E0.01608
G1 X5.870 Y196.765 E0.31370
G1 X5.870 Y196.231 E0.01608
G1 X13.769 Y204.130 E0.33644
G1 X14.303 Y204.130 E0.01608
G1 X5.870 Y195.697 E0.35918
G1 X5.870 Y195.163 E0.01608
G1 X14.837 Y204.130 E0.38192
G1 X15.371 Y204.130 E0.01608
G1 X5.870 Y194.629 E0.40466
G1 X5.870 Y194.095 E0.01608
G1 X15.905 Y204.130 E0.42740
G1 X16.438 Y204.130 E0.01608
G1 X5.870 Y193.562 E0.45014
G1 X5.870 Y193.028 E0.01608
G1 X16.972 Y204.130 E0.47288
G1 X17.506 Y204.130 E0.01608
G1 X5.870 Y192.494 E0.49563
G1 X5.870 Y191.960 E0.01608
G1 X18.040 Y204.130 E0.51837
G1 X18.574 Y204.130 E0.01608
G1 X5.870 Y191.426 E0.54111
G1 X5.870 Y190.892 E0.01608
G1 X19.108 Y204.130 E0.56385
G1 X19.642 Y204.130 E0.01608
G1 X5.870 Y190.358 E0.58659
G1 X5.870 Y189.824 E0.01608
G1 X20.176 Y204.130 E0.60933
G1 X20.710 Y204.130 E0.01608
G1 X5.870 Y189.290 E0.63207
G1 X5.870 Y188.756 E0.01608
G1 X21.244 Y204.130 E0.65481
G1 X21.778 Y204.130 E0.01608
G1 X5.870 Y188.222 E0.67755
G1 X5.870 Y187.689 E0.01608
G1 X22.311 Y204.130 E0.70029
G1 X22.845 Y204.130 E0.01608
G1 X5.870 Y187.155 E0.72303
G1 X5.870 Y186.621 E0.01608
G1 X23.379 Y204.130 E0.74577
G1 X23.913 Y204.130 E0.01608
G1 X5.870 Y186.087 E0.76851
G1 X5.870 Y185.553 E0.01608
G1 X24.447 Y204.130 E0.79125
G1 X24.981 Y204.130 E0.01608
G1 X5.870 Y185.019 E0.81400
G1 X5.870 Y184.485 E0.01608
G1 X25.515 Y204.130 E0.83674
G1 X26.049 Y204.130 E0.01608
G1 X5.870 Y183.951 E0.85948
G1 X5.870 Y183.417 E0.01608
G1 X26.583 Y204.130 E0.88222
G1 X27.117 Y204.130 E0.01608
G1 X5.870 Y182.883 E0.90496
G1 X5.870 Y182.349 E0.01608
G1 X27.651 Y204.130 E0.92770
G1 X28.185 Y204.130 E0.01608
G1 X5.870 Y181.815 E0.95044
G1 X5.870 Y181.282 E0.01608
G1 X28.718 Y204.130 E0.97318
G1 X29.252 Y204.130 E0.01608
G1 X5.870 Y180.748 E0.99592
G1 X5.870 Y180.214 E0.01608
G1 X29.786 Y204.130 E1.01866
G1 X30.320 Y204.130 E0.01608
G1 X5.870 Y179.680 E1.04140
G1 X5.870 Y179.146 E0.01608
G1 X30.854 Y204.130 E1.06414
G1 X31.388 Y204.130 E0.01608
G1 X5.870 Y178.612 E1.08688
G1 X5.870 Y178.078 E0.01608
G1 X31.922 Y204.130 E1.10963
G1 X32.456 Y204.130 E0.01608
G1 X5.870 Y177.544 E1.13237
G1 X5.870 Y177.010 E0.01608
G1 X32.990 Y204.130 E1.15511
G1 X33.524 Y204.130 E0.01608
G1 X5.870 Y176.476 E1.17785
G1 X5.870 Y175.942 E0.01608
G1 X34.058 Y204.130 E1.20059
G1 X34.591 Y204.130 E0.01608
G1 X5.870 Y175.409 E1.22333
G1 X5.870 Y174.875 E0.01608
G1 X35.125 Y204.130 E1.24607
G1 X35.659 Y204.130 E0.01608
G1 X5.870 Y174.341 E1.26881
G1 X5.870 Y173.807 E0.01608
G1 X36.193 Y204.130 E1.29155
G1 X36.727 Y204.130 E0.01608
G1 X5.870 Y173.273 E1.31429
G1 X5.870 Y172.739 E0.01608
G1 X37.261 Y204.130 E1.33703
G1 X37.795 Y204.130 E0.01608
G1 X5.870 Y172.205 E1.35977
G1 X5.870 Y171.671 E0.01608
G1 X38.329 Y204.130 E1.38251
G1 X38.863 Y204.130 E0.01608
G1 X5.870 Y171.137 E1.40525
G1 X5.870 Y170.603 E0.01608
G1 X39.397 Y204.130 E1.42800
G1 X39.931 Y204.130 E0.01608
G1 X5.870 Y170.069 E1.45074
G1 X5.870 Y169.535 E0.01608
G1 X40.465 Y204.130 E1.47348
G1 X40.998 Y204.130 E0.01608
G1 X5.870 Y169.002 E1.49622
G1 X5.870 Y168.468 E0.01608
G1 X41.532 Y204.130 E1.51896
G1 X42.066 Y204.130 E0.01608
G1 X5.870 Y167.934 E1.54170
G1 X5.870 Y167.400 E0.01608
G1 X42.600 Y204.130 E1.56444
G1 X43.134 Y204.130 E0.01608
G1 X5.870 Y166.866 E1.58718
G1 X5.870 Y166.332 E0.01608
G1 X43.668 Y204.130 E1.60992
G1 X44.202 Y204.130 E0.01608
G1 X5.870 Y165.798 E1.63266
G1 X5.870 Y165.264 E0.01608
G1 X44.736 Y204.130 E1.65540
G1 X45.270 Y204.130 E0.01608
G1 X5.870 Y164.730 E1.67814
G1 X5.870 Y164.196 E0.01608
G1 X45.804 Y204.130 E1.70088
G1 X46.338 Y204.130 E0.01608
G1 X5.870 Y163.662 E1.72363
G1 X5.870 Y163.129 E0.01608
G1 X46.871 Y204.130 E1.74637
G1 X47.405 Y204.130 E0.01608
G1 X5.870 Y162.595 E1.76911
G1 X5.870 Y162.061 E0.01608
G1 X47.939 Y204.130 E1.79185
G1 X48.473 Y204.130 E0.01608
G1 X5.870 Y161.527 E1.81459
G1 X5.870 Y160.993 E0.01608
G1 X49.007 Y204.130 E1.83733
G1 X49.541 Y204.130 E0.01608
G1 X5.870 Y160.459 E1.86007
G1 X5.870 Y159.925 E0.01608
G1 X50.075 Y204.130 E1.88281
G1 X50.609 Y204.130 E0.01608
G1 X5.870 Y159.391 E1.90555
G1 X5.870 Y158.857 E0.01608
G1 X51.143 Y204.130 E1.92829
G1 X51.677 Y204.130 E0.01608
G1 X5.870 Y158.323 E1.95103
G1 X5.870 Y157.789 E0.01608
G1 X52.211 Y204.130 E1.97377
G1 X52.744 Y204.130 E0.01608
G1 X5.870 Y157.256 E1.99651
G1 X5.870 Y156.722 E0.01608
G1 X53.278 Y204.130 E2.01925
G1 X53.812 Y204.130 E0.01608
G1 X5.870 Y156.188 E2.04200
G1 X5.870 Y155.654 E0.01608
G1 X54.346 Y204.130 E2.06474
G1 X54.880 Y204.130 E0.01608
G1 X5.870 Y155.120 E2.08748
G1 X5.870 Y154.586 E0.01608
G1 X55.414 Y204.130 E2.11022
G1 X55.948 Y204.130 E0.01608
G1 X5.870 Y154.052 E2.13296
G1 X5.870 Y153.518 E0.01608
G1 X56.482 Y204.130 E2.15570
G1 X57.016 Y204.130 E0.01608
G1 X5.870 Y152.984 E2.17844
G1 X5.870 Y152.450 E0.01608
G1 X57.550 Y204.130 E2.20118
G1 X58.084 Y204.130 E0.01608
G1 X5.870 Y151.916 E2.22392
G1 X5.870 Y151.382 E0.01608
G1 X58.618 Y204.130 E2.24666
G1 X59.151 Y204.130 E0.01608
G1 X5.870 Y150.849 E2.26940
G1 X5.870 Y150.315 E0.01608
G1 X59.685 Y204.130 E2.29214
G1 X60.219 Y204.130 E0.01608
G1 X5.870 Y149.781 E2.31488
G1 X5.870 Y149.247 E0.01608
G1 X60.753 Y204.130 E2.33762
G1 X61.287 Y204.130 E0.01608
G1 X5.870 Y148.713 E2.36037
G1 X5.870 Y148.179 E0.01608
G1 X61.821 Y204.130 E2.38311
G1 X62.355 Y204.130 E0.01608
G1 X5.870 Y147.645 E2.40585
G1 X5.870 Y147.111 E0.01608
G1 X62.889 Y204.130 E2.42859
G1 X63.423 Y204.130 E0.01608
G1 X5.870 Y146.577 E2.45133
G1 X5.870 Y146.043 E0.01608
G1 X63.957 Y204.130 E2.47407
G1 X64.491 Y204.130 E0.01608
G1 X5.870 Y145.509 E2.49681
G1 X5.870 Y144.976 E0.01608
G1 X65.024 Y204.130 E2.51955
G1 X65.558 Y204.130 E0.01608
G1 X5.870 Y144.442 E2.54229
G1 X5.870 Y143.908 E0.01608
G1 X66.092 Y204.130 E2.56503
G1 X66.626 Y204.130 E0.01608
G1 X5.870 Y143.374 E2.58777
G1 X5.870 Y142.840 E0.01608
G1 X67.160 Y204.130 E2.61051
G1 X67.694 Y204.130 E0.01608
G1 X5.870 Y142.306 E2.63325
G1 X5.870 Y141.772 E0.01608
G1 X68.228 Y204.130 E2.65600
G1 X68.762 Y204.130 E0.01608
G1 X5.870 Y141.238 E2.67874
G1 X5.870 Y140.704 E0.01608
G1 X69.296 Y204.130 E2.70148
G1 X69.830 Y204.130 E0.01608
G1 X5.870 Y140.170 E2.72422
G1 X5.870 Y139.636 E0.01608
G1 X70.364 Y204.130 E2.74696
G1 X70.897 Y204.130 E0.01608
G1 X5.870 Y139.102 E2.76970
G1 X5.870 Y138.569 E0.01608
G1 X71.431 Y204.130 E2.79244
G1 X71.965 Y204.130 E0.01608
G1 X5.870 Y138.035 E2.81518
G1 X5.870 Y137.501 E0.01608
G1 X72.499 Y204.130 E2.83792
G1 X73.033 Y204.130 E0.01608
G1 X5.870 Y136.967 E2.86066
G1 X5.870 Y136.433 E0.01608
G1 X73.567 Y204.130 E2.88340
G1 X74.101 Y204.130 E0.01608
G1 X5.870 Y135.899 E2.90614
G1 X5.870 Y135.365 E0.01608
G1 X74.635 Y204.130 E2.92888
G1 X75.169 Y204.130 E0.01608
G1 X5.870 Y134.831 E2.95162
G1 X5.870 Y134.297 E0.01608
G1 X75.703 Y204.130 E2.97437
G1 X76.237 Y204.130 E0.01608
G1 X5.870 Y133.763 E2.99711
G1 X5.870 Y133.229 E0.01608
G1 X76.771 Y204.130 E3.01985
G1 X77.304 Y204.130 E0.01608
G1 X5.870 Y132.696 E3.04259
G1 X5.870 Y132.162 E0.01608
G1 X77.838 Y204.130 E3.06533
G1 X78.372 Y204.130 E0.01608
G1 X5.870 Y131.628 E3.08807
G1 X5.870 Y131.094 E0.01608
G1 X78.906 Y204.130 E3.11081
G1 X79.440 Y204.130 E0.01608
G1 X5.870 Y130.560 E3.13355
G1 X5.870 Y130.026 E0.01608
G1 X79.974 Y204.130 E3.15629
G1 X80.508 Y204.130 E0.01608
G1 X5.870 Y129.492 E3.17903
G1 X5.870 Y128.958 E0.01608
G1 X81.042 Y204.130 E3.20177
G1 X81.576 Y204.130 E0.01608
G1 X5.870 Y128.424 E3.22451
G1 X5.870 Y127.890 E0.01608
G1 X82.110 Y204.130 E3.24725
G1 X82.644 Y204.130 E0.01608
G1 X5.870 Y127.356 E3.27000
G1 X5.870 Y126.823 E0.01608
G1 X83.177 Y204.130 E3.29274
G1 X83.711 Y204.130 E0.01608
G1 X5.870 Y126.289 E3.31548
G1 X5.870 Y125.755 E0.01608
G1 X84.245 Y204.130 E3.33822
G1 X84.779 Y204.130 E0.01608
G1 X5.870 Y125.221 E3.36096
G1 X5.870 Y124.687 E0.01608
G1 X85.313 Y204.130 E3.38370
G1 X85.847 Y204.130 E0.01608
G1 X5.870 Y124.153 E3.40644
G1 X5.870 Y123.619 E0.01608
G1 X86.381 Y204.130 E3.42918
G1 X86.915 Y204.130 E0.01608
G1 X5.870 Y123.085 E3.45192
G1 X5.870 Y122.551 E0.01608
G1 X87.449 Y204.130 E3.47466
G1 X87.983 Y204.130 E0.01608
G1 X5.870 Y122.017 E3.49740
G1 X5.870 Y121.483 E0.01608
G1 X88.517 Y204.130 E3.52014
G1 X89.051 Y204.130 E0.01608
G1 X5.870 Y120.949 E3.54288
G1 X5.870 Y120.416 E0.01608
G1 X89.584 Y204.130 E3.56562
G1 X90.118 Y204.130 E0.01608
G1 X5.870 Y119.882 E3.58837
G1 X5.870 Y119.348 E0.01608
G1 X90.652 Y204.130 E3.61111
G1 X91.186 Y204.130 E0.01608
G1 X5.870 Y118.814 E3.63385
G1 X5.870 Y118.280 E0.01608
G1 X91.720 Y204.130 E3.65659
G1 X92.254 Y204.130 E0.01608
G1 X5.870 Y117.746 E3.67933
G1 X5.870 Y117.212 E0.01608
G1 X92.788 Y204.130 E3.70207
G1 X93.322 Y204.130 E0.01608
G1 X5.870 Y116.678 E3.72481
G1 X5.870 Y116.144 E0.01608
G1 X93.856 Y204.130 E3.74755
G1 X94.390 Y204.130 E0.01608
G1 X5.870 Y115.610 E3.77029
G1 X5.870 Y115.076 E0.01608
G1 X94.924 Y204.130 E3.79303
G1 X95.457 Y204.130 E0.01608
G1 X5.870 Y114.543 E3.81577
G1 X5.870 Y114.009 E0.01608
G1 X95.991 Y204.130 E3.83851
G1 X96.525 Y204.130 E0.01608
G1 X5.870 Y113.475 E3.86125
G1 X5.870 Y112.941 E0.01608
G1 X97.059 Y204.130 E3.88399
G1 X97.593 Y204.130 E0.01608
G1 X5.870 Y112.407 E3.90674
G1 X5.870 Y111.873 E0.01608
G1 X98.127 Y204.130 E3.92948
G1 X98.661 Y204.130 E0.01608
G1 X5.870 Y111.339 E3.95222
G1 X5.870 Y110.805 E0.01608
G1 X99.195 Y204.130 E3.97496
G1 X99.729 Y204.130 E0.01608
G1 X5.870 Y110.271 E3.99770
G1 X5.870 Y109.737 E0.01608
G1 X100.263 Y204.130 E4.02044
G1 X100.797 Y204.130 E0.01608
G1 X5.870 Y109.203 E4.04318
G1 X5.870 Y108.669 E0.01608
G1 X101.331 Y204.130 E4.06592
G1 X101.864 Y204.130 E0.01608
G1 X5.870 Y108.136 E4.08866
G1 X5.870 Y107.602 E0.01608
G1 X102.398 Y204.130 E4.11140
G1 X102.932 Y204.130 E0.01608
G1 X5.870 Y107.068 E4.13414
G1 X5.870 Y106.534 E0.01608
G1 X103.466 Y204.130 E4.15688
G1 X104.000 Y204.130 E0.01608
G1 X5.870 Y106.000 E4.17962
G1 X5.870 Y105.466 E0.01608
G1 X104.534 Y204.130 E4.20237
G1 X105.068 Y204.130 E0.01608
G1 X5.870 Y104.932 E4.22511
G1 X5.870 Y104.398 E0.01608
G1 X105.602 Y204.130 E4.24785
G1 X106.136 Y204.130 E0.01608
G1 X5.870 Y103.864 E4.27059
G1 X5.870 Y103.330 E0.01608
G1 X106.670 Y204.130 E4.29333
G1 X107.204 Y204.130 E0.01608
G1 X5.870 Y102.796 E4.31607
G1 X5.870 Y102.263 E0.01608
G1 X107.737 Y204.130 E4.33881
G1 X108.271 Y204.130 E0.01608
G1 X5.870 Y101.729 E4.36155
G1 X5.870 Y101.195 E0.01608
G1 X108.805 Y204.130 E4.38429
G1 X109.339 Y204.130 E0.01608
G1 X5.870 Y100.661 E4.40703
G1 X5.870 Y100.127 E0.01608
G1 X109.873 Y204.130 E4.42977
G1 X110.407 Y204.130 E0.01608
G1 X5.870 Y99.593 E4.45251
G1 X5.870 Y99.059 E0.01608
G1 X110.941 Y204.130 E4.47525
G1 X111.475 Y204.130 E0.01608
G1 X5.870 Y98.525 E4.49799
G1 X5.870 Y97.991 E0.01608
G1 X112.009 Y204.130 E4.52074
G1 X112.543 Y204.130 E0.01608
G1 X5.870 Y97.457 E4.54348
G1 X5.870 Y96.923 E0.01608
G1 X113.077 Y204.130 E4.56622
G1 X113.610 Y204.130 E0.01608
G1 X5.870 Y96.390 E4.58896
G1 X5.870 Y95.856 E0.01608
G1 X114.144 Y204.130 E4.61170
G1 X114.678 Y204.130 E0.01608
G1 X5.870 Y95.322 E4.63444
G1 X5.870 Y94.788 E0.01608
G1 X115.212 Y204.130 E4.65718
G1 X115.746 Y204.130 E0.01608
G1 X5.870 Y94.254 E4.67992
G1 X5.870 Y93.720 E0.01608
G1 X116.280 Y204.130 E4.70266
G1 X116.814 Y204.130 E0.01608
G1 X5.870 Y93.186 E4.72540
G1 X5.870 Y92.652 E0.01608
G1 X117.348 Y204.130 E4.74814
G1 X117.882 Y204.130 E0.01608
G1 X5.870 Y92.118 E4.77088
G1 X5.870 Y91.584 E0.01608
G1 X118.416 Y204.130 E4.79362
G1 X118.950 Y204.130 E0.01608
G1 X5.870 Y91.050 E4.81637
G1 X5.870 Y90.516 E0.01608
G1 X119.484 Y204.130 E4.83911
G1 X120.017 Y204.130 E0.01608
G1 X5.870 Y89.983 E4.86185
G1 X5.870 Y89.449 E0.01608
G1 X120.551 Y204.130 E4.88459
G1 X121.085 Y204.130 E0.01608
G1 X5.870 Y88.915 E4.90733
G1 X5.870 Y88.381 E0.01608
G1 X121.619 Y204.130 E4.93007
G1 X122.153 Y204.130 E0.01608
G1 X5.870 Y87.847 E4.95281
G1 X5.870 Y87.313 E0.01608
G1 X122.687 Y204.130 E4.97555
G1 X123.221 Y204.130 E0.01608
G1 X5.870 Y86.779 E4.99829
G1 X5.870 Y86.245 E0.01608
G1 X123.755 Y204.130 E5.02103
G1 X124.289 Y204.130 E0.01608
G1 X5.870 Y85.711 E5.04377
G1 X5.870 Y85.177 E0.01608
G1 X124.823 Y204.130 E5.06651
G1 X125.357 Y204.130 E0.01608
G1 X5.870 Y84.643 E5.08925
G1 X5.870 Y84.110 E0.01608
G1 X125.890 Y204.130 E5.11199
G1 X126.424 Y204.130 E0.01608
G1 X5.870 Y83.576 E5.13474
G1 X5.870 Y83.042 E0.01608
G1 X126.958 Y204.130 E5.15748
G1 X127.492 Y204.130 E0.01608
G1 X5.870 Y82.508 E5.18022
G1 X5.870 Y81.974 E0.01608
G1 X128.026 Y204.130 E5.20296
G1 X128.560 Y204.130 E0.01608
G1 X5.870 Y81.440 E5.22570
G1 X5.870 Y80.906 E0.01608
G1 X129.094 Y204.130 E5.24844
G1 X129.628 Y204.130 E0.01608
G1 X5.870 Y80.372 E5.27118
G1 X5.870 Y79.838 E0.01608
G1 X130.162 Y204.130 E5.29392
G1 X130.696 Y204.130 E0.01608
G1 X5.870 Y79.304 E5.31666
G1 X5.870 Y78.770 E0.01608
G1 X131.230 Y204.130 E5.33940
G1 X131.764 Y204.130 E0.01608
G1 X5.870 Y78.236 E5.36214
G1 X5.870 Y77.703 E0.01608
G1 X132.297 Y204.130 E5.38488
G1 X132.831 Y204.130 E0.01608
G1 X5.870 Y77.169 E5.40762
G1 X5.870 Y76.635 E0.01608
G1 X133.365 Y204.130 E5.43037
G1 X133.899 Y204.130 E0.01608
G1 X5.870 Y76.101 E5.45311
G1 X5.870 Y75.567 E0.01608
G1 X134.433 Y204.130 E5.47585
G1 X134.967 Y204.130 E0.01608
G1 X5.870 Y75.033 E5.49859
