; generated by Slic3r 1.33.8.devel on 2018-09-01 at 09:08:33

; 

; external perimeters extrusion width = 0.60mm
; perimeters extrusion width = 0.43mm
; infill extrusion width = 0.70mm
; solid infill extrusion width = 0.70mm
; top infill extrusion width = 0.43mm
; first layer extrusion width = 0.42mm

M107
M115 U3.0.12 ; tell printer latest fw version
M83  ; extruder relative mode
M104 S215 ; set extruder temp
M140 S55 ; set bed temp
M190 S55 ; wait for bed temp
M109 S215 ; wait for extruder temp
G28 W ; home all without mesh bed level
G80 ; mesh bed leveling
G1 Y-3.0 F1000.0 ; go outside pritn area
G1 X60.0 E9.0  F1000.0 ; intro line
G1 X100.0 E12.5  F1000.0 ; intro line
; Filament gcode

G21 ; set units to millimeters
G90 ; use absolute coordinates
M83 ; use relative distances for extrusion
G1 E-0.80000 F2100.00000
G1 Z0.200 F7200.000
G1 X49.529 Y47.498 F7200.000
G1 E0.80000 F2100.00000
M204 S1000
G1 F2100
G1 X62.616 Y37.990 E0.48658
G1 X77.390 Y31.412 E0.48646
G1 X93.216 Y28.047 E0.48669
G1 X109.149 Y28.034 E0.47926
G1 X109.633 Y28.084 E0.01464
G1 X125.212 Y31.408 E0.47915
G1 X139.960 Y37.970 E0.48555
G1 X217.669 Y88.236 E2.78385
G1 X221.322 Y91.848 E0.15453
G1 X223.892 Y95.878 E0.14379
G1 X225.489 Y100.343 E0.14264
G1 X226.012 Y104.746 E0.13337
G1 X226.013 Y105.244 E0.01498
G1 X225.482 Y109.687 E0.13461
G1 X223.885 Y114.138 E0.14222
G1 X221.330 Y118.142 E0.14287
G1 X217.837 Y121.644 E0.14879
G1 X139.995 Y172.010 E2.78884
G1 X125.442 Y178.504 E0.47937
G1 X124.936 Y178.663 E0.01594
G1 X109.391 Y181.953 E0.47795
G1 X93.223 Y181.954 E0.48635
G1 X77.396 Y178.590 E0.48670
G1 X62.621 Y172.013 E0.48646
G1 X49.534 Y162.506 E0.48658
G1 X38.860 Y150.672 E0.47937
G1 X30.622 Y136.480 E0.49359
G1 X25.684 Y121.328 E0.47937
G1 X25.580 Y120.842 E0.01495
G1 X23.941 Y104.754 E0.48642
G1 X25.620 Y88.910 E0.47926
G1 X30.615 Y73.537 E0.48623
G1 X38.705 Y59.520 E0.48680
G1 X49.489 Y47.543 E0.48477
G1 F5760
G1 X51.263 Y46.252 E-0.76000
G1 E-0.04000 F2100.00000
G1 X55.744 Y54.399 F7200.000
G1 E0.80000 F2100.00000
G1 F1680
G1 X67.260 Y46.032 E0.42818
G1 X80.264 Y40.242 E0.42818
G1 X94.188 Y37.283 E0.42818
G1 X108.423 Y37.283 E0.42818
G1 X122.347 Y40.242 E0.42818
G1 X135.351 Y46.032 E0.42818
G1 X146.851 Y54.387 E0.42759
G1 X156.392 Y64.977 E0.42875
G1 X163.509 Y77.305 E0.42818
G1 X167.908 Y90.843 E0.42818
G1 X169.396 Y105.000 E0.42818
G1 X167.908 Y119.157 E0.42818
G1 X163.509 Y132.695 E0.42818
G1 X156.392 Y145.022 E0.42818
G1 X146.867 Y155.601 E0.42818
G1 X135.351 Y163.968 E0.42818
G1 X122.347 Y169.758 E0.42818
G1 X108.423 Y172.717 E0.42818
G1 X94.188 Y172.717 E0.42818
G1 X80.264 Y169.758 E0.42818
G1 X67.260 Y163.968 E0.42818
G1 X55.767 Y155.618 E0.42733
G1 X46.219 Y145.023 E0.42901
G1 X39.102 Y132.695 E0.42818
G1 X34.703 Y119.157 E0.42818
G1 X33.215 Y105.000 E0.42818
G1 X34.703 Y90.843 E0.42818
G1 X39.102 Y77.305 E0.42818
G1 X46.219 Y64.978 E0.42818
G1 X55.704 Y54.444 E0.42637
G1 X55.984 Y54.696 F7200.000
G1 F1260
G1 X67.450 Y46.360 E0.42639
G1 X80.382 Y40.603 E0.42580
G1 X94.228 Y37.660 E0.42579
G1 X108.383 Y37.660 E0.42579
G1 X122.229 Y40.603 E0.42579
G1 X135.161 Y46.360 E0.42580
G1 X146.597 Y54.669 E0.42521
G1 X156.085 Y65.200 E0.42637
G1 X163.163 Y77.459 E0.42580
G1 X167.537 Y90.922 E0.42580
G1 X169.017 Y105.000 E0.42579
G1 X167.537 Y119.078 E0.42579
G1 X163.163 Y132.541 E0.42580
G1 X156.085 Y144.800 E0.42580
G1 X146.613 Y155.319 E0.42580
G1 X135.161 Y163.640 E0.42579
G1 X122.229 Y169.397 E0.42580
G1 X108.383 Y172.340 E0.42579
G1 X94.228 Y172.340 E0.42579
G1 X80.382 Y169.397 E0.42579
G1 X67.450 Y163.640 E0.42580
G1 X56.021 Y155.336 E0.42494
G1 X46.526 Y144.800 E0.42663
G1 X39.448 Y132.541 E0.42580
G1 X35.074 Y119.078 E0.42580
G1 X33.594 Y105.000 E0.42579
G1 X35.074 Y90.922 E0.42579
G1 X39.448 Y77.459 E0.42580
G1 X46.526 Y65.200 E0.42580
G1 X55.944 Y54.741 E0.42338
G1 X55.901 Y54.305 F7200.000
G1 F5760
G1 X57.718 Y53.449 E-0.76000
G1 E-0.04000 F2100.00000
G1 X188.834 Y102.373 F7200.000
G1 E0.80000 F2100.00000
G1 F1680
G1 X189.707 Y99.859 E0.08004
G1 X191.118 Y97.567 E0.08100
G1 X193.010 Y95.592 E0.08224
G1 X195.301 Y94.021 E0.08356
G1 X197.895 Y92.920 E0.08478
G1 X200.684 Y92.338 E0.08570
G1 X203.550 Y92.304 E0.08621
G1 X206.368 Y92.823 E0.08620
G1 X209.018 Y93.879 E0.08578
G1 X211.378 Y95.429 E0.08494
G1 X213.343 Y97.410 E0.08392
G1 X214.819 Y99.736 E0.08288
G1 X215.735 Y102.306 E0.08205
G1 X216.045 Y105.000 E0.08158
G1 X215.735 Y107.694 E0.08158
G1 X214.819 Y110.264 E0.08205
G1 X213.343 Y112.590 E0.08288
G1 X211.378 Y114.571 E0.08392
G1 X209.018 Y116.121 E0.08494
G1 X206.368 Y117.177 E0.08578
G1 X203.550 Y117.696 E0.08621
G1 X200.684 Y117.662 E0.08621
G1 X197.895 Y117.080 E0.08569
G1 X195.301 Y115.979 E0.08478
G1 X193.010 Y114.408 E0.08357
G1 X191.118 Y112.433 E0.08224
G1 X189.707 Y110.141 E0.08099
G1 X188.834 Y107.627 E0.08004
G1 X188.539 Y105.000 E0.07951
G1 X188.828 Y102.433 E0.07771
G1 X189.202 Y102.475 F7200.000
G1 F1260
G1 X190.049 Y100.022 E0.07806
G1 X191.418 Y97.798 E0.07855
G1 X193.255 Y95.881 E0.07986
G1 X195.483 Y94.353 E0.08126
G1 X198.008 Y93.281 E0.08252
G1 X200.725 Y92.715 E0.08348
G1 X203.518 Y92.682 E0.08400
G1 X206.263 Y93.187 E0.08398
G1 X208.843 Y94.215 E0.08351
G1 X211.138 Y95.722 E0.08261
G1 X213.046 Y97.646 E0.08151
G1 X214.478 Y99.903 E0.08038
G1 X215.365 Y102.392 E0.07949
G1 X215.666 Y105.000 E0.07897
G1 X215.365 Y107.608 E0.07897
G1 X214.478 Y110.097 E0.07949
G1 X213.046 Y112.354 E0.08038
G1 X211.138 Y114.278 E0.08151
G1 X208.843 Y115.785 E0.08260
G1 X206.263 Y116.813 E0.08351
G1 X203.518 Y117.318 E0.08398
G1 X200.725 Y117.285 E0.08401
G1 X198.008 Y116.719 E0.08348
G1 X195.483 Y115.647 E0.08253
G1 X193.255 Y114.119 E0.08126
G1 X191.418 Y112.202 E0.07986
G1 X190.049 Y109.978 E0.07855
G1 X189.204 Y107.543 E0.07753
G1 X188.919 Y105.000 E0.07697
G1 X189.196 Y102.534 E0.07463
G1 X188.908 Y102.204 F7200.000
G1 F5760
G1 X189.901 Y100.457 E-0.76000
G1 E-0.04000 F2100.00000
G1 X216.007 Y90.692 F7200.000
G1 E0.80000 F2100.00000
G1 F1680
G1 X219.018 Y93.719 E0.12843
G1 X221.227 Y97.183 E0.12360
G1 X222.595 Y101.001 E0.12199
G1 X223.057 Y105.000 E0.12109
G1 X222.595 Y108.999 E0.12109
G1 X221.227 Y112.817 E0.12199
G1 X219.018 Y116.281 E0.12359
G1 X215.986 Y119.323 E0.12920
G1 X212.393 Y121.664 E0.12899
G1 X138.525 Y169.434 E2.64608
G1 X124.299 Y175.768 E0.46840
G1 X109.083 Y179.002 E0.46792
G1 X93.528 Y179.002 E0.46792
G1 X78.312 Y175.768 E0.46792
G1 X64.101 Y169.441 E0.46792
G1 X51.535 Y160.311 E0.46722
G1 X41.107 Y148.737 E0.46861
G1 X33.329 Y135.265 E0.46792
G1 X28.522 Y120.471 E0.46792
G1 X26.896 Y105.000 E0.46792
G1 X28.522 Y89.529 E0.46792
G1 X33.329 Y74.735 E0.46792
G1 X41.107 Y61.263 E0.46792
G1 X51.516 Y49.703 E0.46792
G1 X64.101 Y40.559 E0.46792
G1 X78.312 Y34.232 E0.46792
G1 X93.528 Y30.998 E0.46792
G1 X109.083 Y30.998 E0.46792
G1 X124.260 Y34.224 E0.46669
G1 X138.525 Y40.566 E0.46960
G1 X212.392 Y88.335 E2.64605
G1 X215.956 Y90.659 E0.12798
G1 X216.162 Y90.343 F7200.000
G1 F1260
G1 X216.246 Y90.398 E0.00300
G1 X219.314 Y93.481 E0.13085
G1 X221.568 Y97.016 E0.12610
G1 X222.964 Y100.915 E0.12457
G1 X223.437 Y105.000 E0.12370
G1 X222.964 Y109.085 E0.12370
G1 X221.568 Y112.984 E0.12457
G1 X219.314 Y116.518 E0.12609
G1 X216.225 Y119.617 E0.13162
G1 X212.598 Y121.981 E0.13020
G1 X138.705 Y169.767 E2.64698
G1 X124.417 Y176.128 E0.47047
G1 X109.123 Y179.379 E0.47030
G1 X93.488 Y179.379 E0.47030
G1 X78.194 Y176.128 E0.47030
G1 X63.911 Y169.769 E0.47030
G1 X51.281 Y160.593 E0.46960
G1 X40.800 Y148.960 E0.47099
G1 X32.982 Y135.419 E0.47030
G1 X28.151 Y120.549 E0.47030
G1 X26.517 Y105.000 E0.47030
G1 X28.151 Y89.451 E0.47030
G1 X32.982 Y74.581 E0.47030
G1 X40.800 Y61.040 E0.47030
G1 X51.262 Y49.421 E0.47030
G1 X63.911 Y40.231 E0.47030
G1 X78.194 Y33.872 E0.47030
G1 X93.488 Y30.621 E0.47030
G1 X109.123 Y30.621 E0.47030
G1 X124.377 Y33.863 E0.46908
G1 X138.705 Y40.233 E0.47168
G1 X212.598 Y88.019 E2.64695
G1 X216.112 Y90.311 E0.12620
G1 X216.157 Y90.443 F7200.000
G1 X215.244 Y90.330 F7200.000
G1 F2520
G1 X219.326 Y94.412 E0.17383
G1 F5760
G1 X217.774 Y92.860 E-0.76000
G1 E-0.04000 F2100.00000
G1 X220.265 Y95.885 F7200.000
G1 E0.80000 F2100.00000
G1 F2520
G1 X213.710 Y89.329 E0.27917
G1 F5760
G1 X215.261 Y90.881 E-0.76000
G1 E-0.04000 F2100.00000
G1 X212.178 Y88.331 F7200.000
G1 E0.80000 F2100.00000
G1 F2520
G1 X221.150 Y97.303 E0.38210
G1 X221.448 Y98.135 F7200.000
G1 F2520
G1 X210.667 Y87.354 E0.45914
G1 F5760
G1 X212.218 Y88.906 E-0.76000
G1 E-0.04000 F2100.00000
G1 X209.156 Y86.377 F7200.000
G1 E0.80000 F2100.00000
G1 F2520
G1 X221.746 Y98.967 E0.53618
G1 X222.044 Y99.799 F7200.000
G1 F2520
G1 X207.645 Y85.400 E0.61321
G1 F5760
G1 X209.196 Y86.951 E-0.76000
G1 E-0.04000 F2100.00000
G1 X206.134 Y84.423 F7200.000
G1 E0.80000 F2100.00000
G1 F2520
G1 X222.342 Y100.631 E0.69025
G1 X222.520 Y101.343 F7200.000
G1 F2520
G1 X204.623 Y83.445 E0.76220
G1 F5760
G1 X206.174 Y84.997 E-0.76000
G1 E-0.04000 F2100.00000
G1 X203.112 Y82.468 F7200.000
G1 E0.80000 F2100.00000
G1 F2520
G1 X222.590 Y101.947 E0.82952
G1 X222.660 Y102.550 F7200.000
G1 F2520
G1 X201.601 Y81.491 E0.89684
G1 F5760
G1 X203.152 Y83.043 E-0.76000
G1 E-0.04000 F2100.00000
G1 X200.090 Y80.514 F7200.000
G1 E0.80000 F2100.00000
G1 F2520
G1 X222.730 Y103.154 E0.96416
G1 X222.800 Y103.758 F7200.000
G1 F2520
G1 X198.579 Y79.537 E1.03148
G1 F5760
G1 X200.131 Y81.089 E-0.76000
G1 E-0.04000 F2100.00000
G1 X197.068 Y78.560 F7200.000
G1 E0.80000 F2100.00000
G1 F2520
G1 X222.869 Y104.361 E1.09880
G1 X222.939 Y104.965 F7200.000
G1 F2520
G1 X195.557 Y77.583 E1.16612
G1 F5760
G1 X197.109 Y79.134 E-0.76000
G1 E-0.04000 F2100.00000
G1 X194.046 Y76.606 F7200.000
G1 E0.80000 F2100.00000
G1 F2520
G1 X222.891 Y105.451 E1.22843
G1 X222.836 Y105.929 F7200.000
G1 F2520
G1 X192.535 Y75.628 E1.29042
G1 F5760
G1 X194.087 Y77.180 E-0.76000
G1 E-0.04000 F2100.00000
G1 X191.024 Y74.651 F7200.000
G1 E0.80000 F2100.00000
G1 F2520
G1 X222.781 Y106.408 E1.35241
G1 X222.725 Y106.886 F7200.000
G1 F2520
G1 X213.872 Y98.033 E0.37702
G1 F5760
G1 X215.424 Y99.585 E-0.76000
G1 E-0.04000 F2100.00000
G1 X210.662 Y94.823 F7200.000
G1 E0.80000 F2100.00000
G1 F2520
G1 X189.513 Y73.674 E0.90066
G1 F5760
G1 X191.065 Y75.226 E-0.76000
G1 E-0.04000 F2100.00000
G1 X188.002 Y72.697 F7200.000
G1 E0.80000 F2100.00000
G1 F2520
G1 X209.107 Y93.802 E0.89879
G1 X208.204 Y93.433 F7200.000
G1 F2520
G1 X186.491 Y71.720 E0.92469
G1 F5760
G1 X188.043 Y73.271 E-0.76000
G1 E-0.04000 F2100.00000
G1 X184.980 Y70.743 F7200.000
G1 E0.80000 F2100.00000
G1 F2520
G1 X207.317 Y93.079 E0.95125
G1 X206.430 Y92.726 F7200.000
G1 F2520
G1 X183.469 Y69.766 E0.97782
G1 F5760
G1 X185.021 Y71.317 E-0.76000
G1 E-0.04000 F2100.00000
G1 X181.958 Y68.788 F7200.000
G1 E0.80000 F2100.00000
G1 F2520
G1 X205.767 Y92.598 E1.01396
G1 X205.113 Y92.477 F7200.000
G1 F2520
G1 X180.447 Y67.811 E1.05044
G1 F5760
G1 X181.999 Y69.363 E-0.76000
G1 E-0.04000 F2100.00000
G1 X178.936 Y66.834 F7200.000
G1 E0.80000 F2100.00000
G1 F2520
G1 X204.459 Y92.357 E1.08692
G1 X203.804 Y92.236 F7200.000
G1 F2520
G1 X177.425 Y65.857 E1.12340
G1 F5760
G1 X178.977 Y67.409 E-0.76000
G1 E-0.04000 F2100.00000
G1 X175.914 Y64.880 F7200.000
G1 E0.80000 F2100.00000
G1 F2520
G1 X203.229 Y92.195 E1.16326
G1 X202.702 Y92.201 F7200.000
G1 F2520
G1 X174.403 Y63.903 E1.20514
G1 F5760
G1 X175.955 Y65.454 E-0.76000
G1 E-0.04000 F2100.00000
G1 X172.892 Y62.926 F7200.000
G1 E0.80000 F2100.00000
G1 F2520
G1 X202.174 Y92.207 E1.24702
G1 X201.646 Y92.214 F7200.000
G1 F2520
G1 X171.381 Y61.948 E1.28890
G1 F5760
G1 X172.933 Y63.500 E-0.76000
G1 E-0.04000 F2100.00000
G1 X169.870 Y60.971 F7200.000
G1 E0.80000 F2100.00000
G1 F2520
G1 X201.119 Y92.220 E1.33078
G1 X200.604 Y92.239 F7200.000
G1 F2520
G1 X168.359 Y59.994 E1.37322
G1 F5760
G1 X169.911 Y61.546 E-0.76000
G1 E-0.04000 F2100.00000
G1 X166.848 Y59.017 F7200.000
G1 E0.80000 F2100.00000
G1 F2520
G1 X200.163 Y92.331 E1.41876
G1 X199.721 Y92.424 F7200.000
G1 F2520
G1 X165.337 Y58.040 E1.46429
G1 F5760
G1 X166.889 Y59.591 E-0.76000
G1 E-0.04000 F2100.00000
G1 X163.826 Y57.063 F7200.000
G1 E0.80000 F2100.00000
G1 F2520
G1 X199.279 Y92.516 E1.50983
G1 X198.838 Y92.608 F7200.000
G1 F2520
G1 X162.315 Y56.086 E1.55537
G1 F5760
G1 X163.867 Y57.637 E-0.76000
G1 E-0.04000 F2100.00000
G1 X160.804 Y55.108 F7200.000
G1 E0.80000 F2100.00000
G1 F2520
G1 X198.396 Y92.700 E1.60090
G1 X197.954 Y92.792 F7200.000
G1 F2520
G1 X159.293 Y54.131 E1.64644
G1 F5760
G1 X160.845 Y55.683 E-0.76000
G1 E-0.04000 F2100.00000
G1 X157.782 Y53.154 F7200.000
G1 E0.80000 F2100.00000
G1 F2520
G1 X197.565 Y92.937 E1.69423
G1 X197.190 Y93.096 F7200.000
G1 F2520
G1 X156.271 Y52.177 E1.74261
G1 F5760
G1 X157.823 Y53.729 E-0.76000
G1 E-0.04000 F2100.00000
G1 X154.760 Y51.200 F7200.000
G1 E0.80000 F2100.00000
G1 F2520
G1 X196.816 Y93.255 E1.79100
G1 X196.441 Y93.414 F7200.000
G1 F2520
G1 X153.249 Y50.223 E1.83939
G1 F5760
G1 X154.801 Y51.774 E-0.76000
G1 E-0.04000 F2100.00000
G1 X151.738 Y49.246 F7200.000
G1 E0.80000 F2100.00000
G1 F2520
G1 X196.066 Y93.573 E1.88777
G1 X195.691 Y93.732 F7200.000
G1 F2520
G1 X150.227 Y48.268 E1.93616
G1 F5760
G1 X151.779 Y49.820 E-0.76000
G1 E-0.04000 F2100.00000
G1 X148.716 Y47.291 F7200.000
G1 E0.80000 F2100.00000
G1 F2520
G1 X195.316 Y93.891 E1.98455
G1 X194.989 Y94.098 F7200.000
G1 F2520
G1 X147.205 Y46.314 E2.03494
G1 F5760
G1 X148.757 Y47.866 E-0.76000
G1 E-0.04000 F2100.00000
G1 X145.694 Y45.337 F7200.000
G1 E0.80000 F2100.00000
G1 F2520
G1 X194.672 Y94.315 E2.08581
G1 X194.356 Y94.532 F7200.000
G1 F2520
G1 X144.184 Y44.360 E2.13667
G1 F5760
G1 X145.735 Y45.911 E-0.76000
G1 E-0.04000 F2100.00000
G1 X142.673 Y43.383 F7200.000
G1 E0.80000 F2100.00000
G1 F2520
G1 X194.039 Y94.749 E2.18753
G1 X193.722 Y94.966 F7200.000
G1 F2520
G1 X141.162 Y42.406 E2.23840
G1 F5760
G1 X142.713 Y43.957 E-0.76000
G1 E-0.04000 F2100.00000
G1 X139.651 Y41.428 F7200.000
G1 E0.80000 F2100.00000
G1 F2520
G1 X193.406 Y95.184 E2.28926
G1 X193.089 Y95.401 F7200.000
G1 F2520
G1 X138.260 Y40.572 E2.33499
G1 F5760
G1 X139.812 Y42.124 E-0.76000
G1 E-0.04000 F2100.00000
G1 X136.163 Y46.483 F7200.000
G1 E0.80000 F2100.00000
G1 F2520
G1 X124.172 Y34.494 E0.51062
G1 X123.498 Y34.351 E0.02075
G1 X134.483 Y45.336 E0.46783
G1 X133.521 Y44.908 E0.03172
G1 X122.820 Y34.207 E0.45572
G1 X122.142 Y34.063 E0.02087
G1 X132.558 Y44.479 E0.44361
G1 X131.596 Y44.051 E0.03172
G1 X121.464 Y33.919 E0.43150
G1 X120.786 Y33.775 E0.02087
G1 X130.634 Y43.623 E0.41940
G1 X129.672 Y43.194 E0.03172
G1 X120.108 Y33.630 E0.40729
G1 X119.430 Y33.486 E0.02087
G1 X128.709 Y42.766 E0.39518
G1 X127.747 Y42.337 E0.03172
G1 X118.752 Y33.342 E0.38307
G1 X118.074 Y33.198 E0.02087
G1 X126.785 Y41.909 E0.37096
G1 X125.823 Y41.480 E0.03172
G1 X117.396 Y33.054 E0.35885
G1 X116.718 Y32.910 E0.02087
G1 X124.860 Y41.052 E0.34674
G1 X123.898 Y40.624 E0.03172
G1 X116.040 Y32.766 E0.33463
G1 X115.362 Y32.622 E0.02087
G1 X122.936 Y40.195 E0.32253
G1 X122.434 Y39.972 E0.01653
G1 X122.110 Y39.903 E0.01000
G1 X114.684 Y32.478 E0.31622
G1 X114.007 Y32.334 E0.02087
G1 X121.432 Y39.759 E0.31622
G1 X120.754 Y39.615 E0.02087
G1 X113.329 Y32.189 E0.31622
G1 X112.651 Y32.045 E0.02087
G1 X120.076 Y39.471 E0.31622
G1 X119.398 Y39.326 E0.02087
G1 X111.973 Y31.901 E0.31622
G1 X111.295 Y31.757 E0.02087
G1 X118.720 Y39.182 E0.31622
G1 X118.042 Y39.038 E0.02087
G1 X110.617 Y31.613 E0.31622
G1 X109.939 Y31.469 E0.02087
G1 X117.364 Y38.894 E0.31622
G1 X116.686 Y38.750 E0.02087
G1 X109.261 Y31.325 E0.31622
G1 X109.054 Y31.281 E0.00638
G1 X108.683 Y31.281 E0.01116
G1 X116.008 Y38.606 E0.31196
G1 X115.330 Y38.462 E0.02087
G1 X108.149 Y31.281 E0.30582
G1 X107.615 Y31.281 E0.01608
G1 X114.652 Y38.318 E0.29968
G1 X113.974 Y38.174 E0.02087
G1 X107.081 Y31.281 E0.29355
G1 X106.548 Y31.281 E0.01608
G1 X113.296 Y38.030 E0.28741
G1 X112.618 Y37.885 E0.02087
G1 X106.014 Y31.281 E0.28127
G1 X105.480 Y31.281 E0.01608
G1 X111.941 Y37.741 E0.27513
G1 X111.263 Y37.597 E0.02087
G1 X104.946 Y31.281 E0.26900
G1 X104.412 Y31.281 E0.01608
G1 X110.585 Y37.453 E0.26286
G1 X109.907 Y37.309 E0.02087
G1 X103.878 Y31.281 E0.25672
G1 X103.345 Y31.281 E0.01608
