; generated by Slic3r 1.33.8.devel on 2018-02-27 at 10:10:30

; 

; external perimeters extrusion width = 0.60mm
; perimeters extrusion width = 0.43mm
; infill extrusion width = 0.70mm
; solid infill extrusion width = 0.70mm
; top infill extrusion width = 0.43mm
; first layer extrusion width = 0.42mm

M107
M115 U3.0.12 ; tell printer latest fw version
M83  ; extruder relative mode
M104 S215 ; set extruder temp
M140 S55 ; set bed temp
M190 S55 ; wait for bed temp
M109 S215 ; wait for extruder temp
G28 W ; home all without mesh bed level
G80 ; mesh bed leveling
G1 Y-3.0 F1000.0 ; go outside pritn area
G1 X60.0 E9.0  F1000.0 ; intro line
G1 X100.0 E12.5  F1000.0 ; intro line
; Filament gcode

G21 ; set units to millimeters
G90 ; use absolute coordinates
M83 ; use relative distances for extrusion
G1 E-0.80000 F2100.00000
G1 Z0.200 F7200.000
G1 X55.339 Y108.491 F7200.000
G1 E0.80000 F2100.00000
M204 S1000
G1 F2100
G1 X55.127 Y107.631 E0.02665
G1 X55.123 Y102.462 E0.15547
G1 X55.222 Y101.820 E0.01953
G1 X55.533 Y101.165 E0.02180
G1 X56.029 Y100.632 E0.02191
G1 X56.660 Y100.276 E0.02180
G1 X57.369 Y100.127 E0.02180
G1 X192.504 Y100.123 E4.06482
G1 X193.402 Y100.301 E0.02755
G1 X194.170 Y100.808 E0.02767
G1 X194.687 Y101.569 E0.02767
G1 X194.877 Y102.468 E0.02767
G1 X194.877 Y107.542 E0.15261
G1 X194.775 Y108.191 E0.01976
G1 X194.463 Y108.841 E0.02169
G1 X193.968 Y109.370 E0.02180
G1 X193.336 Y109.725 E0.02180
G1 X192.631 Y109.873 E0.02169
G1 X57.462 Y109.877 E4.06585
G1 X56.594 Y109.698 E0.02665
G1 X55.852 Y109.213 E0.02665
G1 X55.374 Y108.540 E0.02485
G1 F5760
G1 X55.127 Y107.631 E-0.32633
G1 F5760
G1 X55.126 Y106.378 E-0.43367
G1 E-0.04000 F2100.00000
G1 X117.859 Y104.996 F7200.000
G1 E0.80000 F2100.00000
G1 F840
G1 X117.907 Y104.615 E0.01155
G1 X118.022 Y104.288 E0.01042
G1 X118.217 Y103.977 E0.01105
G1 X118.477 Y103.717 E0.01105
G1 X118.788 Y103.522 E0.01105
G1 X119.135 Y103.400 E0.01105
G1 X119.479 Y103.362 E0.01041
G1 X119.861 Y103.399 E0.01154
G1 X120.212 Y103.522 E0.01119
G1 X120.523 Y103.717 E0.01105
G1 X120.783 Y103.977 E0.01105
G1 X120.978 Y104.288 E0.01105
G1 X121.100 Y104.635 E0.01105
G1 X121.141 Y105.000 E0.01105
G1 X121.100 Y105.365 E0.01105
G1 X120.978 Y105.712 E0.01105
G1 X120.783 Y106.023 E0.01105
G1 X120.523 Y106.283 E0.01105
G1 X120.212 Y106.478 E0.01105
G1 X119.865 Y106.600 E0.01105
G1 X119.500 Y106.641 E0.01105
G1 X119.135 Y106.600 E0.01105
G1 X118.788 Y106.478 E0.01105
G1 X118.477 Y106.283 E0.01105
G1 X118.217 Y106.023 E0.01105
G1 X118.022 Y105.712 E0.01105
G1 X117.900 Y105.365 E0.01105
G1 X117.865 Y105.055 E0.00938
G1 X118.240 Y105.013 F7200.000
G1 F840
G1 X118.276 Y104.702 E0.00942
G1 X118.364 Y104.453 E0.00794
G1 X118.514 Y104.214 E0.00849
G1 X118.714 Y104.014 E0.00849
G1 X118.953 Y103.864 E0.00850
G1 X119.219 Y103.770 E0.00850
G1 X119.482 Y103.741 E0.00794
G1 X119.779 Y103.770 E0.00899
G1 X120.047 Y103.864 E0.00855
G1 X120.286 Y104.014 E0.00850
G1 X120.486 Y104.214 E0.00849
G1 X120.636 Y104.453 E0.00849
G1 X120.730 Y104.719 E0.00850
G1 X120.761 Y105.000 E0.00850
G1 X120.730 Y105.281 E0.00850
G1 X120.636 Y105.547 E0.00850
G1 X120.486 Y105.786 E0.00849
G1 X120.286 Y105.986 E0.00849
G1 X120.047 Y106.136 E0.00850
G1 X119.781 Y106.230 E0.00850
G1 X119.500 Y106.261 E0.00849
G1 X119.219 Y106.230 E0.00849
G1 X118.953 Y106.136 E0.00850
G1 X118.714 Y105.986 E0.00850
G1 X118.514 Y105.786 E0.00849
G1 X118.364 Y105.547 E0.00849
G1 X118.270 Y105.281 E0.00850
G1 X118.247 Y105.073 E0.00630
G1 X117.969 Y104.856 F7200.000
G1 F5760
G1 X118.276 Y104.702 E-0.12880
G1 F5760
G1 X118.364 Y104.453 E-0.09147
G1 F5760
G1 X118.514 Y104.214 E-0.09781
G1 F5760
G1 X118.714 Y104.014 E-0.09781
G1 F5760
G1 X118.953 Y103.864 E-0.09784
G1 F5760
G1 X119.219 Y103.770 E-0.09785
G1 F5760
G1 X119.482 Y103.741 E-0.09145
G1 F5760
G1 X119.645 Y103.757 E-0.05697
G1 E-0.04000 F2100.00000
G1 X122.859 Y104.996 F7200.000
G1 E0.80000 F2100.00000
G1 F840
G1 X122.907 Y104.615 E0.01155
G1 X123.022 Y104.288 E0.01042
G1 X123.217 Y103.977 E0.01105
G1 X123.477 Y103.717 E0.01105
G1 X123.788 Y103.522 E0.01105
G1 X124.135 Y103.400 E0.01105
G1 X124.479 Y103.362 E0.01042
G1 X124.861 Y103.399 E0.01154
G1 X125.212 Y103.522 E0.01119
G1 X125.523 Y103.717 E0.01106
G1 X125.783 Y103.977 E0.01105
G1 X125.978 Y104.288 E0.01105
G1 X126.100 Y104.635 E0.01105
G1 X126.141 Y105.000 E0.01105
G1 X126.100 Y105.365 E0.01105
G1 X125.978 Y105.712 E0.01105
G1 X125.783 Y106.023 E0.01105
G1 X125.523 Y106.283 E0.01105
G1 X125.212 Y106.478 E0.01106
G1 X124.865 Y106.600 E0.01105
G1 X124.500 Y106.641 E0.01105
G1 X124.135 Y106.600 E0.01105
G1 X123.788 Y106.478 E0.01105
G1 X123.477 Y106.283 E0.01105
G1 X123.217 Y106.023 E0.01105
G1 X123.022 Y105.712 E0.01105
G1 X122.900 Y105.365 E0.01105
G1 X122.865 Y105.055 E0.00938
G1 X123.240 Y105.013 F7200.000
G1 F840
G1 X123.276 Y104.702 E0.00942
G1 X123.364 Y104.453 E0.00794
G1 X123.514 Y104.214 E0.00849
G1 X123.714 Y104.014 E0.00849
G1 X123.953 Y103.864 E0.00850
G1 X124.219 Y103.770 E0.00849
G1 X124.482 Y103.741 E0.00795
G1 X124.779 Y103.770 E0.00899
G1 X125.047 Y103.864 E0.00855
G1 X125.286 Y104.014 E0.00850
G1 X125.486 Y104.214 E0.00849
G1 X125.636 Y104.453 E0.00849
G1 X125.730 Y104.719 E0.00850
G1 X125.761 Y105.000 E0.00850
G1 X125.730 Y105.281 E0.00850
G1 X125.636 Y105.547 E0.00850
G1 X125.486 Y105.786 E0.00849
G1 X125.286 Y105.986 E0.00849
G1 X125.047 Y106.136 E0.00850
G1 X124.781 Y106.230 E0.00850
G1 X124.500 Y106.261 E0.00849
G1 X124.219 Y106.230 E0.00850
G1 X123.953 Y106.136 E0.00849
G1 X123.714 Y105.986 E0.00850
G1 X123.514 Y105.786 E0.00849
G1 X123.364 Y105.547 E0.00850
G1 X123.270 Y105.281 E0.00850
G1 X123.247 Y105.073 E0.00630
G1 X122.969 Y104.856 F7200.000
G1 F5760
G1 X123.276 Y104.702 E-0.12879
G1 F5760
G1 X123.364 Y104.453 E-0.09147
G1 F5760
G1 X123.514 Y104.214 E-0.09782
G1 F5760
G1 X123.714 Y104.014 E-0.09781
G1 F5760
G1 X123.953 Y103.864 E-0.09784
G1 F5760
G1 X124.219 Y103.770 E-0.09781
G1 F5760
G1 X124.482 Y103.741 E-0.09148
G1 F5760
G1 X124.645 Y103.757 E-0.05697
G1 E-0.04000 F2100.00000
G1 X127.859 Y105.000 F7200.000
G1 E0.80000 F2100.00000
G1 F840
G1 X127.900 Y104.635 E0.01105
G1 X128.022 Y104.288 E0.01105
G1 X128.217 Y103.977 E0.01105
G1 X128.477 Y103.717 E0.01105
G1 X128.788 Y103.522 E0.01105
G1 X129.135 Y103.400 E0.01105
G1 X129.479 Y103.362 E0.01042
G1 X129.861 Y103.399 E0.01154
G1 X130.212 Y103.522 E0.01119
G1 X130.523 Y103.717 E0.01106
G1 X130.783 Y103.977 E0.01105
G1 X130.978 Y104.288 E0.01105
G1 X131.100 Y104.635 E0.01105
G1 X131.141 Y105.000 E0.01105
G1 X131.100 Y105.365 E0.01105
G1 X130.978 Y105.712 E0.01105
G1 X130.783 Y106.023 E0.01105
G1 X130.523 Y106.283 E0.01105
G1 X130.212 Y106.478 E0.01106
G1 X129.865 Y106.600 E0.01105
G1 X129.500 Y106.641 E0.01105
G1 X129.135 Y106.600 E0.01105
G1 X128.788 Y106.478 E0.01105
G1 X128.477 Y106.283 E0.01105
G1 X128.217 Y106.023 E0.01105
G1 X128.022 Y105.712 E0.01105
G1 X127.900 Y105.365 E0.01105
G1 X127.866 Y105.060 E0.00925
G1 X128.241 Y105.017 F7200.000
G1 F840
G1 X128.270 Y104.719 E0.00901
G1 X128.364 Y104.453 E0.00850
G1 X128.514 Y104.214 E0.00849
G1 X128.714 Y104.014 E0.00849
G1 X128.953 Y103.864 E0.00850
G1 X129.219 Y103.770 E0.00849
G1 X129.482 Y103.741 E0.00795
G1 X129.779 Y103.770 E0.00899
G1 X130.047 Y103.864 E0.00855
G1 X130.286 Y104.014 E0.00850
G1 X130.486 Y104.214 E0.00849
G1 X130.636 Y104.453 E0.00849
G1 X130.730 Y104.719 E0.00850
G1 X130.761 Y105.000 E0.00850
G1 X130.730 Y105.281 E0.00850
G1 X130.636 Y105.547 E0.00850
G1 X130.486 Y105.786 E0.00849
G1 X130.286 Y105.986 E0.00849
G1 X130.047 Y106.136 E0.00850
G1 X129.781 Y106.230 E0.00850
G1 X129.500 Y106.261 E0.00849
G1 X129.219 Y106.230 E0.00850
G1 X128.953 Y106.136 E0.00849
G1 X128.714 Y105.986 E0.00850
G1 X128.514 Y105.786 E0.00849
G1 X128.364 Y105.547 E0.00850
G1 X128.270 Y105.281 E0.00850
G1 X128.247 Y105.077 E0.00616
G1 X127.980 Y104.870 F7200.000
G1 F5760
G1 X128.270 Y104.719 E-0.12416
G1 F5760
G1 X128.364 Y104.453 E-0.09784
G1 F5760
G1 X128.514 Y104.214 E-0.09782
G1 F5760
G1 X128.714 Y104.014 E-0.09781
G1 F5760
G1 X128.953 Y103.864 E-0.09784
G1 F5760
G1 X129.219 Y103.770 E-0.09781
G1 F5760
G1 X129.482 Y103.741 E-0.09148
G1 F5760
G1 X129.640 Y103.756 E-0.05524
G1 E-0.04000 F2100.00000
G1 X132.859 Y105.000 F7200.000
G1 E0.80000 F2100.00000
G1 F840
G1 X132.900 Y104.635 E0.01105
G1 X133.022 Y104.288 E0.01105
G1 X133.217 Y103.977 E0.01105
G1 X133.477 Y103.717 E0.01105
G1 X133.788 Y103.522 E0.01105
G1 X134.135 Y103.400 E0.01105
G1 X134.479 Y103.362 E0.01042
G1 X134.861 Y103.399 E0.01154
G1 X135.212 Y103.522 E0.01119
G1 X135.523 Y103.717 E0.01106
G1 X135.783 Y103.977 E0.01105
G1 X135.978 Y104.288 E0.01105
G1 X136.100 Y104.635 E0.01105
G1 X136.141 Y105.000 E0.01105
G1 X136.100 Y105.365 E0.01105
G1 X135.978 Y105.712 E0.01105
G1 X135.783 Y106.023 E0.01105
G1 X135.523 Y106.283 E0.01105
G1 X135.212 Y106.478 E0.01106
G1 X134.865 Y106.600 E0.01105
G1 X134.500 Y106.641 E0.01105
G1 X134.135 Y106.600 E0.01105
G1 X133.788 Y106.478 E0.01105
G1 X133.477 Y106.283 E0.01105
G1 X133.217 Y106.023 E0.01105
G1 X133.022 Y105.712 E0.01105
G1 X132.900 Y105.365 E0.01105
G1 X132.866 Y105.060 E0.00925
G1 X133.241 Y105.017 F7200.000
G1 F840
G1 X133.270 Y104.719 E0.00901
G1 X133.364 Y104.453 E0.00850
G1 X133.514 Y104.214 E0.00849
G1 X133.714 Y104.014 E0.00849
G1 X133.953 Y103.864 E0.00850
G1 X134.219 Y103.770 E0.00849
G1 X134.482 Y103.741 E0.00795
G1 X134.779 Y103.770 E0.00899
G1 X135.047 Y103.864 E0.00855
G1 X135.286 Y104.014 E0.00850
G1 X135.486 Y104.214 E0.00849
G1 X135.636 Y104.453 E0.00849
G1 X135.730 Y104.719 E0.00850
G1 X135.761 Y105.000 E0.00850
G1 X135.730 Y105.281 E0.00850
G1 X135.636 Y105.547 E0.00850
G1 X135.486 Y105.786 E0.00849
G1 X135.286 Y105.986 E0.00849
G1 X135.047 Y106.136 E0.00850
G1 X134.781 Y106.230 E0.00850
G1 X134.500 Y106.261 E0.00849
G1 X134.219 Y106.230 E0.00850
G1 X133.953 Y106.136 E0.00849
G1 X133.714 Y105.986 E0.00850
G1 X133.514 Y105.786 E0.00849
G1 X133.364 Y105.547 E0.00850
G1 X133.270 Y105.281 E0.00850
G1 X133.247 Y105.077 E0.00616
G1 X132.980 Y104.870 F7200.000
G1 F5760
G1 X133.270 Y104.719 E-0.12416
G1 F5760
G1 X133.364 Y104.453 E-0.09784
G1 F5760
G1 X133.514 Y104.214 E-0.09782
G1 F5760
G1 X133.714 Y104.014 E-0.09781
G1 F5760
G1 X133.953 Y103.864 E-0.09784
G1 F5760
G1 X134.219 Y103.770 E-0.09781
G1 F5760
G1 X134.482 Y103.741 E-0.09148
G1 F5760
G1 X134.640 Y103.756 E-0.05524
G1 E-0.04000 F2100.00000
G1 X137.859 Y105.000 F7200.000
G1 E0.80000 F2100.00000
G1 F840
G1 X137.900 Y104.635 E0.01105
G1 X138.022 Y104.288 E0.01105
G1 X138.217 Y103.977 E0.01105
G1 X138.477 Y103.717 E0.01105
G1 X138.788 Y103.522 E0.01105
G1 X139.135 Y103.400 E0.01105
G1 X139.479 Y103.362 E0.01042
G1 X139.861 Y103.399 E0.01154
G1 X140.212 Y103.522 E0.01119
G1 X140.523 Y103.717 E0.01106
G1 X140.783 Y103.977 E0.01105
G1 X140.978 Y104.288 E0.01105
G1 X141.100 Y104.635 E0.01105
G1 X141.141 Y105.000 E0.01105
G1 X141.100 Y105.365 E0.01105
G1 X140.978 Y105.712 E0.01105
G1 X140.783 Y106.023 E0.01105
G1 X140.523 Y106.283 E0.01105
G1 X140.212 Y106.478 E0.01106
G1 X139.865 Y106.600 E0.01105
G1 X139.500 Y106.641 E0.01105
G1 X139.135 Y106.600 E0.01105
G1 X138.788 Y106.478 E0.01105
G1 X138.477 Y106.283 E0.01105
G1 X138.217 Y106.023 E0.01105
G1 X138.022 Y105.712 E0.01105
G1 X137.900 Y105.365 E0.01105
G1 X137.866 Y105.060 E0.00925
G1 X138.241 Y105.017 F7200.000
G1 F840
G1 X138.270 Y104.719 E0.00901
G1 X138.364 Y104.453 E0.00850
G1 X138.514 Y104.214 E0.00849
G1 X138.714 Y104.014 E0.00849
G1 X138.953 Y103.864 E0.00850
G1 X139.219 Y103.770 E0.00849
G1 X139.482 Y103.741 E0.00795
G1 X139.779 Y103.770 E0.00899
G1 X140.047 Y103.864 E0.00855
G1 X140.286 Y104.014 E0.00850
G1 X140.486 Y104.214 E0.00849
G1 X140.636 Y104.453 E0.00849
G1 X140.730 Y104.719 E0.00850
G1 X140.761 Y105.000 E0.00850
G1 X140.730 Y105.281 E0.00850
G1 X140.636 Y105.547 E0.00850
G1 X140.486 Y105.786 E0.00849
G1 X140.286 Y105.986 E0.00849
G1 X140.047 Y106.136 E0.00850
G1 X139.781 Y106.230 E0.00850
G1 X139.500 Y106.261 E0.00849
G1 X139.219 Y106.230 E0.00850
G1 X138.953 Y106.136 E0.00849
G1 X138.714 Y105.986 E0.00850
G1 X138.514 Y105.786 E0.00849
G1 X138.364 Y105.547 E0.00850
G1 X138.270 Y105.281 E0.00850
G1 X138.247 Y105.077 E0.00616
G1 X137.980 Y104.870 F7200.000
G1 F5760
G1 X138.270 Y104.719 E-0.12416
G1 F5760
G1 X138.364 Y104.453 E-0.09784
G1 F5760
G1 X138.514 Y104.214 E-0.09782
G1 F5760
G1 X138.714 Y104.014 E-0.09781
G1 F5760
G1 X138.953 Y103.864 E-0.09784
G1 F5760
G1 X139.219 Y103.770 E-0.09781
G1 F5760
G1 X139.482 Y103.741 E-0.09148
G1 F5760
G1 X139.640 Y103.756 E-0.05524
G1 E-0.04000 F2100.00000
G1 X142.859 Y105.000 F7200.000
G1 E0.80000 F2100.00000
G1 F840
G1 X142.900 Y104.635 E0.01105
G1 X143.022 Y104.288 E0.01105
G1 X143.217 Y103.977 E0.01105
G1 X143.477 Y103.717 E0.01105
G1 X143.788 Y103.522 E0.01105
G1 X144.135 Y103.400 E0.01105
G1 X144.479 Y103.362 E0.01042
G1 X144.861 Y103.399 E0.01154
G1 X145.212 Y103.522 E0.01119
G1 X145.523 Y103.717 E0.01106
G1 X145.783 Y103.977 E0.01105
G1 X145.978 Y104.288 E0.01105
G1 X146.100 Y104.635 E0.01105
G1 X146.141 Y105.000 E0.01105
G1 X146.100 Y105.365 E0.01105
G1 X145.978 Y105.712 E0.01105
G1 X145.783 Y106.023 E0.01105
G1 X145.523 Y106.283 E0.01105
G1 X145.212 Y106.478 E0.01106
G1 X144.865 Y106.600 E0.01105
G1 X144.500 Y106.641 E0.01105
G1 X144.135 Y106.600 E0.01105
G1 X143.788 Y106.478 E0.01105
G1 X143.477 Y106.283 E0.01105
G1 X143.217 Y106.023 E0.01105
G1 X143.022 Y105.712 E0.01105
G1 X142.900 Y105.365 E0.01105
G1 X142.866 Y105.060 E0.00925
G1 X143.241 Y105.017 F7200.000
G1 F840
G1 X143.270 Y104.719 E0.00901
G1 X143.364 Y104.453 E0.00850
G1 X143.514 Y104.214 E0.00849
G1 X143.714 Y104.014 E0.00849
G1 X143.953 Y103.864 E0.00850
G1 X144.219 Y103.770 E0.00849
G1 X144.482 Y103.741 E0.00795
G1 X144.779 Y103.770 E0.00899
G1 X145.047 Y103.864 E0.00855
G1 X145.286 Y104.014 E0.00850
G1 X145.486 Y104.214 E0.00849
G1 X145.636 Y104.453 E0.00849
G1 X145.730 Y104.719 E0.00850
G1 X145.761 Y105.000 E0.00850
G1 X145.730 Y105.281 E0.00850
G1 X145.636 Y105.547 E0.00850
G1 X145.486 Y105.786 E0.00849
G1 X145.286 Y105.986 E0.00849
G1 X145.047 Y106.136 E0.00850
G1 X144.781 Y106.230 E0.00850
G1 X144.500 Y106.261 E0.00849
G1 X144.219 Y106.230 E0.00850
G1 X143.953 Y106.136 E0.00849
G1 X143.714 Y105.986 E0.00850
G1 X143.514 Y105.786 E0.00849
G1 X143.364 Y105.547 E0.00850
G1 X143.270 Y105.281 E0.00850
G1 X143.247 Y105.077 E0.00616
G1 X142.980 Y104.870 F7200.000
G1 F5760
G1 X143.270 Y104.719 E-0.12416
G1 F5760
G1 X143.364 Y104.453 E-0.09784
G1 F5760
G1 X143.514 Y104.214 E-0.09782
G1 F5760
G1 X143.714 Y104.014 E-0.09781
G1 F5760
G1 X143.953 Y103.864 E-0.09784
G1 F5760
G1 X144.219 Y103.770 E-0.09781
G1 F5760
G1 X144.482 Y103.741 E-0.09148
G1 F5760
G1 X144.640 Y103.756 E-0.05524
G1 E-0.04000 F2100.00000
G1 X147.859 Y105.000 F7200.000
G1 E0.80000 F2100.00000
G1 F840
G1 X147.900 Y104.635 E0.01105
G1 X148.022 Y104.288 E0.01105
G1 X148.217 Y103.977 E0.01105
G1 X148.477 Y103.717 E0.01105
G1 X148.788 Y103.522 E0.01105
G1 X149.135 Y103.400 E0.01105
G1 X149.479 Y103.362 E0.01042
G1 X149.861 Y103.399 E0.01154
G1 X150.212 Y103.522 E0.01119
G1 X150.523 Y103.717 E0.01106
G1 X150.783 Y103.977 E0.01105
G1 X150.978 Y104.288 E0.01105
G1 X151.100 Y104.635 E0.01105
G1 X151.141 Y105.000 E0.01105
G1 X151.100 Y105.365 E0.01105
G1 X150.978 Y105.712 E0.01105
G1 X150.783 Y106.023 E0.01105
G1 X150.523 Y106.283 E0.01105
G1 X150.212 Y106.478 E0.01106
G1 X149.865 Y106.600 E0.01105
G1 X149.500 Y106.641 E0.01105
G1 X149.135 Y106.600 E0.01105
G1 X148.788 Y106.478 E0.01105
G1 X148.477 Y106.283 E0.01105
G1 X148.217 Y106.023 E0.01105
G1 X148.022 Y105.712 E0.01105
G1 X147.900 Y105.365 E0.01105
G1 X147.866 Y105.060 E0.00925
G1 X148.241 Y105.017 F7200.000
G1 F840
G1 X148.270 Y104.719 E0.00901
G1 X148.364 Y104.453 E0.00850
G1 X148.514 Y104.214 E0.00849
G1 X148.714 Y104.014 E0.00849
G1 X148.953 Y103.864 E0.00850
G1 X149.219 Y103.770 E0.00849
G1 X149.482 Y103.741 E0.00795
G1 X149.779 Y103.770 E0.00899
G1 X150.047 Y103.864 E0.00855
G1 X150.286 Y104.014 E0.00850
G1 X150.486 Y104.214 E0.00849
G1 X150.636 Y104.453 E0.00849
G1 X150.730 Y104.719 E0.00850
G1 X150.761 Y105.000 E0.00850
