; generated by Slic3r 1.33.8.devel on 2017-12-29 at 22:44:26

; 

; external perimeters extrusion width = 0.60mm
; perimeters extrusion width = 0.43mm
; infill extrusion width = 0.70mm
; solid infill extrusion width = 0.70mm
; top infill extrusion width = 0.43mm
; first layer extrusion width = 0.42mm

M107
M115 U3.0.12 ; tell printer latest fw version
M83  ; extruder relative mode
M104 S215 ; set extruder temp
M140 S55 ; set bed temp
M190 S55 ; wait for bed temp
M109 S215 ; wait for extruder temp
G28 W ; home all without mesh bed level
G80 ; mesh bed leveling
G1 Y-3.0 F1000.0 ; go outside pritn area
G1 X60.0 E9.0  F1000.0 ; intro line
G1 X100.0 E12.5  F1000.0 ; intro line
; Filament gcode

G21 ; set units to millimeters
G90 ; use absolute coordinates
M83 ; use relative distances for extrusion
G1 E-0.80000 F2100.00000
G1 Z0.200 F7200.000
G1 X90.175 Y69.241 F7200.000
G1 E0.80000 F2100.00000
M204 S1000
G1 F2100
G1 X90.419 Y68.799 E0.01521
G1 X90.992 Y68.072 E0.02783
G1 X91.360 Y67.709 E0.01555
G1 X91.800 Y67.431 E0.01567
G1 X92.758 Y66.990 E0.03171
G1 X93.475 Y66.864 E0.02191
G1 X152.482 Y66.864 E1.77493
G1 X153.416 Y67.056 E0.02868
G1 X154.351 Y67.511 E0.03127
G1 X154.823 Y67.870 E0.01783
G1 X155.751 Y69.082 E0.04594
G1 X156.134 Y70.438 E0.04239
G1 X159.709 Y98.795 E0.85973
G1 X160.976 Y109.874 E0.33541
G1 X160.937 Y120.480 E0.31903
G1 X155.924 Y140.473 E0.62001
G1 X155.645 Y141.105 E0.02078
G1 X155.008 Y141.928 E0.03130
G1 X154.455 Y142.425 E0.02236
G1 X153.506 Y142.903 E0.03194
G1 X153.011 Y143.076 E0.01578
G1 X152.490 Y143.136 E0.01578
G1 X93.487 Y143.136 E1.77481
G1 X92.640 Y142.967 E0.02598
G1 X91.342 Y142.277 E0.04421
G1 X90.506 Y141.317 E0.03830
G1 X90.225 Y140.870 E0.01589
G1 X90.050 Y140.371 E0.01589
G1 X89.821 Y139.112 E0.03851
G1 X89.821 Y70.862 E2.05294
G1 X90.162 Y69.300 E0.04809
G1 F5760
G1 X90.419 Y68.799 E-0.19514
G1 F5760
G1 X90.992 Y68.072 E-0.32047
G1 F5760
G1 X91.360 Y67.709 E-0.17907
G1 F5760
G1 X91.519 Y67.608 E-0.06533
G1 E-0.04000 F2100.00000
G1 X109.913 Y81.913 F7200.000
G1 E0.80000 F2100.00000
G1 F1680
G1 X136.087 Y81.913 E0.78731
G1 X136.087 Y128.087 E1.38891
G1 X109.913 Y128.087 E0.78731
G1 X109.913 Y81.973 E1.38711
G1 X110.290 Y82.290 F7200.000
G1 F1260
G1 X135.710 Y82.290 E0.76463
G1 X135.710 Y127.710 E1.36623
G1 X110.290 Y127.710 E0.76463
G1 X110.290 Y82.350 E1.36442
G1 X110.222 Y81.896 F7200.000
G1 F5760
G1 X112.484 Y82.345 E-0.76000
G1 E-0.04000 F2100.00000
G1 X93.893 Y70.869 F7200.000
G1 E0.80000 F2100.00000
G1 F1680
G1 X152.120 Y70.875 E1.75145
G1 X152.156 Y71.006 E0.00407
G1 X157.112 Y106.992 E1.09267
G1 X158.013 Y114.086 E0.21511
G1 X158.013 Y115.878 E0.05392
G1 X152.120 Y139.125 E0.72137
G1 X93.880 Y139.125 E1.75183
G1 X93.853 Y139.034 E0.00285
G1 X93.864 Y70.917 E2.04893
G1 X93.639 Y70.573 F7200.000
G1 F1260
G1 X93.807 Y70.492 E0.00560
G1 X152.193 Y70.492 E1.75625
G1 X152.361 Y70.573 E0.00560
G1 X152.477 Y70.718 E0.00560
G1 X152.527 Y70.938 E0.00677
G1 X157.486 Y106.942 E1.09323
G1 X158.390 Y114.062 E0.21588
G1 X158.390 Y115.925 E0.05605
G1 X152.479 Y139.280 E0.72465
G1 X152.361 Y139.427 E0.00568
G1 X152.193 Y139.508 E0.00560
G1 X93.807 Y139.508 E1.75625
G1 X93.639 Y139.427 E0.00560
G1 X93.523 Y139.282 E0.00560
G1 X93.476 Y139.076 E0.00633
G1 X93.476 Y70.924 E2.05002
G1 X93.523 Y70.718 E0.00633
G1 X93.602 Y70.620 E0.00380
G1 X93.813 Y70.640 F7200.000
G1 F5760
G1 X93.807 Y70.492 E-0.08370
G1 F5760
G1 X95.760 Y70.492 E-0.67630
G1 E-0.04000 F2100.00000
G1 X152.162 Y71.878 F7200.000
G1 E0.80000 F2100.00000
G1 F2520
G1 X151.442 Y71.158 E0.03069
G1 X150.908 Y71.158 E0.01612
G1 X152.048 Y72.299 E0.04866
G1 X152.134 Y72.919 E0.01888
G1 X150.373 Y71.158 E0.07510
G1 X149.838 Y71.158 E0.01612
G1 X152.219 Y73.539 E0.10155
G1 X152.305 Y74.159 E0.01888
G1 X149.304 Y71.158 E0.12799
G1 X148.769 Y71.158 E0.01612
G1 X152.390 Y74.779 E0.15443
G1 X152.475 Y75.399 E0.01888
G1 X148.234 Y71.158 E0.18088
G1 X147.700 Y71.158 E0.01612
G1 X152.561 Y76.019 E0.20732
G1 X152.646 Y76.639 E0.01888
G1 X147.165 Y71.158 E0.23377
G1 X146.631 Y71.158 E0.01612
G1 X152.732 Y77.259 E0.26021
G1 X152.817 Y77.879 E0.01888
G1 X146.096 Y71.158 E0.28665
G1 X145.561 Y71.158 E0.01612
G1 X152.902 Y78.499 E0.31310
G1 X152.988 Y79.119 E0.01888
G1 X145.027 Y71.158 E0.33954
G1 X144.492 Y71.158 E0.01612
G1 X153.073 Y79.739 E0.36598
G1 X153.159 Y80.359 E0.01888
G1 X143.958 Y71.158 E0.39243
G1 X143.423 Y71.158 E0.01612
G1 X153.244 Y80.979 E0.41887
G1 X153.329 Y81.599 E0.01888
G1 X142.888 Y71.158 E0.44532
G1 X142.354 Y71.158 E0.01612
G1 X153.415 Y82.219 E0.47176
G1 X153.500 Y82.839 E0.01888
G1 X141.819 Y71.158 E0.49820
G1 X141.285 Y71.158 E0.01612
G1 X153.585 Y83.459 E0.52465
G1 X153.671 Y84.079 E0.01888
G1 X140.750 Y71.158 E0.55109
G1 X140.215 Y71.158 E0.01612
G1 X153.756 Y84.699 E0.57754
G1 X153.842 Y85.319 E0.01888
G1 X139.681 Y71.158 E0.60398
G1 X139.146 Y71.158 E0.01612
G1 X153.927 Y85.939 E0.63042
G1 X154.012 Y86.559 E0.01888
G1 X138.611 Y71.158 E0.65687
G1 X138.077 Y71.158 E0.01612
G1 X154.098 Y87.179 E0.68331
G1 X154.183 Y87.799 E0.01888
G1 X137.542 Y71.158 E0.70976
G1 X137.008 Y71.158 E0.01612
G1 X154.269 Y88.419 E0.73620
G1 X154.354 Y89.039 E0.01888
G1 X136.473 Y71.158 E0.76264
G1 X135.938 Y71.158 E0.01612
G1 X154.439 Y89.659 E0.78909
G1 X154.525 Y90.279 E0.01888
G1 X135.404 Y71.158 E0.81553
G1 X134.869 Y71.158 E0.01612
G1 X154.610 Y90.899 E0.84197
G1 X154.696 Y91.519 E0.01888
G1 X134.335 Y71.158 E0.86842
G1 X133.800 Y71.158 E0.01612
G1 X154.781 Y92.139 E0.89486
G1 X154.866 Y92.759 E0.01888
G1 X133.265 Y71.158 E0.92131
G1 X132.731 Y71.158 E0.01612
G1 X154.952 Y93.379 E0.94775
G1 X155.037 Y93.999 E0.01888
G1 X132.196 Y71.158 E0.97419
G1 X131.661 Y71.158 E0.01612
G1 X155.123 Y94.619 E1.00064
G1 X155.208 Y95.239 E0.01888
G1 X131.127 Y71.158 E1.02708
G1 X130.592 Y71.158 E0.01612
G1 X155.293 Y95.859 E1.05353
G1 X155.379 Y96.479 E0.01888
G1 X130.058 Y71.158 E1.07997
G1 X129.523 Y71.158 E0.01612
G1 X155.464 Y97.099 E1.10641
G1 X155.549 Y97.719 E0.01888
G1 X128.988 Y71.158 E1.13286
G1 X128.454 Y71.158 E0.01612
G1 X155.635 Y98.339 E1.15930
G1 X155.720 Y98.959 E0.01888
G1 X127.919 Y71.158 E1.18574
G1 X127.385 Y71.158 E0.01612
G1 X155.806 Y99.579 E1.21219
G1 X155.891 Y100.199 E0.01888
G1 X126.850 Y71.158 E1.23863
G1 X126.315 Y71.158 E0.01612
G1 X155.976 Y100.819 E1.26508
G1 X156.062 Y101.439 E0.01888
G1 X125.781 Y71.158 E1.29152
G1 X125.246 Y71.158 E0.01612
G1 X135.718 Y81.630 E0.44664
G1 X135.184 Y81.630 E0.01612
G1 X124.711 Y71.158 E0.44664
G1 X124.177 Y71.158 E0.01612
G1 X134.649 Y81.630 E0.44664
G1 X134.114 Y81.630 E0.01612
G1 X123.642 Y71.158 E0.44664
G1 X123.108 Y71.158 E0.01612
G1 X133.580 Y81.630 E0.44664
G1 X133.045 Y81.630 E0.01612
G1 X122.573 Y71.158 E0.44664
G1 X122.038 Y71.158 E0.01612
G1 X132.510 Y81.630 E0.44664
G1 X131.976 Y81.630 E0.01612
G1 X121.504 Y71.158 E0.44664
G1 X120.969 Y71.158 E0.01612
G1 X131.441 Y81.630 E0.44664
G1 X130.907 Y81.630 E0.01612
G1 X120.435 Y71.158 E0.44664
G1 X119.900 Y71.158 E0.01612
G1 X130.372 Y81.630 E0.44664
G1 X129.837 Y81.630 E0.01612
G1 X119.365 Y71.158 E0.44664
G1 X118.831 Y71.158 E0.01612
G1 X129.303 Y81.630 E0.44664
G1 X128.768 Y81.630 E0.01612
G1 X118.296 Y71.158 E0.44664
G1 X117.762 Y71.158 E0.01612
G1 X128.234 Y81.630 E0.44664
G1 X127.699 Y81.630 E0.01612
G1 X117.227 Y71.158 E0.44664
G1 X116.692 Y71.158 E0.01612
G1 X127.164 Y81.630 E0.44664
G1 X126.630 Y81.630 E0.01612
G1 X116.158 Y71.158 E0.44664
G1 X115.623 Y71.158 E0.01612
G1 X126.095 Y81.630 E0.44664
G1 X125.561 Y81.630 E0.01612
G1 X115.088 Y71.158 E0.44664
G1 X114.554 Y71.158 E0.01612
G1 X125.026 Y81.630 E0.44664
G1 X124.491 Y81.630 E0.01612
G1 X114.019 Y71.158 E0.44664
G1 X113.485 Y71.158 E0.01612
G1 X123.957 Y81.630 E0.44664
G1 X123.422 Y81.630 E0.01612
G1 X112.950 Y71.158 E0.44664
G1 X112.415 Y71.158 E0.01612
G1 X122.887 Y81.630 E0.44664
G1 X122.353 Y81.630 E0.01612
G1 X111.881 Y71.158 E0.44664
G1 X111.346 Y71.158 E0.01612
G1 X121.818 Y81.630 E0.44664
G1 X121.284 Y81.630 E0.01612
G1 X110.812 Y71.158 E0.44664
G1 X110.277 Y71.158 E0.01612
G1 X120.749 Y81.630 E0.44664
G1 X120.214 Y81.630 E0.01612
G1 X109.742 Y71.158 E0.44664
G1 X109.208 Y71.158 E0.01612
G1 X119.680 Y81.630 E0.44664
G1 X119.145 Y81.630 E0.01612
G1 X108.673 Y71.158 E0.44664
G1 X108.138 Y71.158 E0.01612
G1 X118.611 Y81.630 E0.44664
G1 X118.076 Y81.630 E0.01612
G1 X107.604 Y71.158 E0.44664
G1 X107.069 Y71.158 E0.01612
G1 X117.541 Y81.630 E0.44664
G1 X117.007 Y81.630 E0.01612
G1 X106.535 Y71.158 E0.44664
G1 X106.000 Y71.158 E0.01612
G1 X116.472 Y81.630 E0.44664
G1 X115.937 Y81.630 E0.01612
G1 X105.465 Y71.158 E0.44664
G1 X104.931 Y71.158 E0.01612
G1 X115.403 Y81.630 E0.44664
G1 X114.868 Y81.630 E0.01612
G1 X104.396 Y71.158 E0.44664
G1 X103.862 Y71.158 E0.01612
G1 X114.334 Y81.630 E0.44664
G1 X113.799 Y81.630 E0.01612
G1 X103.327 Y71.158 E0.44664
G1 X102.792 Y71.158 E0.01612
G1 X113.264 Y81.630 E0.44664
G1 X112.730 Y81.630 E0.01612
G1 X102.258 Y71.158 E0.44664
G1 X101.723 Y71.158 E0.01612
G1 X112.195 Y81.630 E0.44664
G1 X111.661 Y81.630 E0.01612
G1 X101.188 Y71.158 E0.44664
G1 X100.654 Y71.158 E0.01612
G1 X111.126 Y81.630 E0.44664
G1 X110.591 Y81.630 E0.01612
G1 X100.119 Y71.158 E0.44664
G1 X99.585 Y71.158 E0.01612
G1 X110.057 Y81.630 E0.44664
G1 X109.630 Y81.630 E0.01287
G1 X109.630 Y81.738 E0.00326
G1 X99.050 Y71.158 E0.45125
G1 X98.515 Y71.158 E0.01612
G1 X109.630 Y82.273 E0.47405
G1 X109.630 Y82.807 E0.01612
G1 X97.981 Y71.158 E0.49686
G1 X97.446 Y71.158 E0.01612
G1 X109.630 Y83.342 E0.51966
G1 X109.630 Y83.877 E0.01612
G1 X96.912 Y71.158 E0.54246
G1 X96.377 Y71.158 E0.01612
G1 X109.630 Y84.411 E0.56526
G1 X109.630 Y84.946 E0.01612
G1 X95.842 Y71.158 E0.58806
G1 X95.308 Y71.158 E0.01612
G1 X109.630 Y85.480 E0.61086
G1 X109.630 Y86.015 E0.01612
G1 X94.773 Y71.158 E0.63367
G1 X94.239 Y71.158 E0.01612
G1 X109.630 Y86.550 E0.65647
G1 X109.630 Y87.084 E0.01612
G1 X94.136 Y71.590 E0.66084
G1 X94.136 Y72.125 E0.01612
G1 X109.630 Y87.619 E0.66084
G1 X109.630 Y88.154 E0.01612
G1 X94.136 Y72.659 E0.66084
G1 X94.136 Y73.194 E0.01612
G1 X109.630 Y88.688 E0.66084
G1 X109.630 Y89.223 E0.01612
G1 X94.136 Y73.729 E0.66084
G1 X94.136 Y74.263 E0.01612
G1 X109.630 Y89.757 E0.66084
G1 X109.630 Y90.292 E0.01612
G1 X94.136 Y74.798 E0.66084
G1 X94.136 Y75.333 E0.01612
G1 X109.630 Y90.827 E0.66084
G1 X109.630 Y91.361 E0.01612
G1 X94.136 Y75.867 E0.66084
G1 X94.136 Y76.402 E0.01612
G1 X109.630 Y91.896 E0.66084
G1 X109.630 Y92.430 E0.01612
G1 X94.136 Y76.936 E0.66084
G1 X94.136 Y77.471 E0.01612
G1 X109.630 Y92.965 E0.66084
G1 X109.630 Y93.500 E0.01612
G1 X94.136 Y78.006 E0.66084
G1 X94.136 Y78.540 E0.01612
G1 X109.630 Y94.034 E0.66084
G1 X109.630 Y94.569 E0.01612
G1 X94.136 Y79.075 E0.66084
G1 X94.136 Y79.609 E0.01612
G1 X109.630 Y95.104 E0.66084
G1 X109.630 Y95.638 E0.01612
G1 X94.136 Y80.144 E0.66084
G1 X94.136 Y80.679 E0.01612
G1 X109.630 Y96.173 E0.66084
G1 X109.630 Y96.707 E0.01612
G1 X94.136 Y81.213 E0.66084
G1 X94.136 Y81.748 E0.01612
G1 X109.630 Y97.242 E0.66084
G1 X109.630 Y97.777 E0.01612
G1 X94.136 Y82.283 E0.66084
G1 X94.136 Y82.817 E0.01612
G1 X109.630 Y98.311 E0.66084
G1 X109.630 Y98.846 E0.01612
G1 X94.136 Y83.352 E0.66084
G1 X94.136 Y83.886 E0.01612
G1 X109.630 Y99.380 E0.66084
G1 X109.630 Y99.915 E0.01612
G1 X94.136 Y84.421 E0.66084
G1 X94.136 Y84.956 E0.01612
G1 X109.630 Y100.450 E0.66084
G1 X109.630 Y100.984 E0.01612
G1 X94.136 Y85.490 E0.66084
G1 X94.136 Y86.025 E0.01612
G1 X109.630 Y101.519 E0.66084
G1 X109.630 Y102.053 E0.01612
G1 X94.136 Y86.559 E0.66084
G1 X94.136 Y87.094 E0.01612
G1 X109.630 Y102.588 E0.66084
G1 X109.630 Y103.123 E0.01612
G1 X94.136 Y87.629 E0.66084
G1 X94.136 Y88.163 E0.01612
G1 X109.630 Y103.657 E0.66084
G1 X109.630 Y104.192 E0.01612
G1 X94.136 Y88.698 E0.66084
G1 X94.136 Y89.233 E0.01612
G1 X109.630 Y104.727 E0.66084
G1 X109.630 Y105.261 E0.01612
G1 X94.136 Y89.767 E0.66084
G1 X94.136 Y90.302 E0.01612
G1 X109.630 Y105.796 E0.66084
G1 X109.630 Y106.330 E0.01612
G1 X94.136 Y90.836 E0.66084
G1 X94.136 Y91.371 E0.01612
G1 X109.630 Y106.865 E0.66084
G1 X109.630 Y107.400 E0.01612
G1 X94.136 Y91.906 E0.66084
G1 X94.136 Y92.440 E0.01612
G1 X109.630 Y107.934 E0.66084
G1 X109.630 Y108.469 E0.01612
G1 X94.136 Y92.975 E0.66084
G1 X94.136 Y93.509 E0.01612
G1 X109.630 Y109.003 E0.66084
G1 X109.630 Y109.538 E0.01612
G1 X94.136 Y94.044 E0.66084
G1 X94.136 Y94.579 E0.01612
G1 X109.630 Y110.073 E0.66084
G1 X109.630 Y110.607 E0.01612
G1 X94.136 Y95.113 E0.66084
G1 X94.136 Y95.648 E0.01612
G1 X109.630 Y111.142 E0.66084
G1 X109.630 Y111.677 E0.01612
G1 X94.136 Y96.182 E0.66084
G1 X94.136 Y96.717 E0.01612
G1 X109.630 Y112.211 E0.66084
G1 X109.630 Y112.746 E0.01612
G1 X94.136 Y97.252 E0.66084
G1 X94.136 Y97.786 E0.01612
G1 X109.630 Y113.280 E0.66084
G1 X109.630 Y113.815 E0.01612
G1 X94.136 Y98.321 E0.66084
G1 X94.136 Y98.856 E0.01612
G1 X109.630 Y114.350 E0.66084
G1 X109.630 Y114.884 E0.01612
G1 X94.136 Y99.390 E0.66084
G1 X94.136 Y99.925 E0.01612
G1 X109.630 Y115.419 E0.66084
G1 X109.630 Y115.953 E0.01612
G1 X94.136 Y100.459 E0.66084
G1 X94.136 Y100.994 E0.01612
G1 X109.630 Y116.488 E0.66084
G1 X109.630 Y117.023 E0.01612
G1 X94.136 Y101.529 E0.66084
G1 X94.136 Y102.063 E0.01612
G1 X109.630 Y117.557 E0.66084
G1 X109.630 Y118.092 E0.01612
G1 X94.136 Y102.598 E0.66084
G1 X94.136 Y103.132 E0.01612
G1 X109.630 Y118.627 E0.66084
G1 X109.630 Y119.161 E0.01612
G1 X94.136 Y103.667 E0.66084
G1 X94.136 Y104.202 E0.01612
G1 X109.630 Y119.696 E0.66084
G1 X109.630 Y120.230 E0.01612
G1 X94.136 Y104.736 E0.66084
G1 X94.136 Y105.271 E0.01612
G1 X109.630 Y120.765 E0.66084
G1 X109.630 Y121.300 E0.01612
G1 X94.136 Y105.806 E0.66084
G1 X94.136 Y106.340 E0.01612
G1 X109.630 Y121.834 E0.66084
G1 X109.630 Y122.369 E0.01612
G1 X94.136 Y106.875 E0.66084
G1 X94.136 Y107.409 E0.01612
G1 X109.630 Y122.903 E0.66084
G1 X109.630 Y123.438 E0.01612
G1 X94.136 Y107.944 E0.66084
G1 X94.136 Y108.479 E0.01612
G1 X109.630 Y123.973 E0.66084
G1 X109.630 Y124.507 E0.01612
G1 X94.136 Y109.013 E0.66084
G1 X94.136 Y109.548 E0.01612
G1 X109.630 Y125.042 E0.66084
G1 X109.630 Y125.577 E0.01612
G1 X94.136 Y110.082 E0.66084
G1 X94.136 Y110.617 E0.01612
G1 X109.630 Y126.111 E0.66084
G1 X109.630 Y126.646 E0.01612
G1 X94.136 Y111.152 E0.66084
G1 X94.136 Y111.686 E0.01612
G1 X109.630 Y127.180 E0.66084
G1 X109.630 Y127.715 E0.01612
G1 X94.136 Y112.221 E0.66084
G1 X94.136 Y112.756 E0.01612
G1 X120.223 Y138.842 E1.11261
G1 X120.757 Y138.842 E0.01612
G1 X110.285 Y128.370 E0.44664
G1 X110.820 Y128.370 E0.01612
G1 X121.292 Y138.842 E0.44664
G1 X121.826 Y138.842 E0.01612
G1 X111.354 Y128.370 E0.44664
G1 X111.889 Y128.370 E0.01612
G1 X122.361 Y138.842 E0.44664
G1 X122.896 Y138.842 E0.01612
G1 X112.424 Y128.370 E0.44664
G1 X112.958 Y128.370 E0.01612
G1 X123.430 Y138.842 E0.44664
G1 X123.965 Y138.842 E0.01612
G1 X113.493 Y128.370 E0.44664
G1 X114.027 Y128.370 E0.01612
G1 X124.499 Y138.842 E0.44664
G1 X125.034 Y138.842 E0.01612
G1 X114.562 Y128.370 E0.44664
G1 X115.097 Y128.370 E0.01612
G1 X125.569 Y138.842 E0.44664
G1 X126.103 Y138.842 E0.01612
G1 X115.631 Y128.370 E0.44664
G1 X116.166 Y128.370 E0.01612
G1 X126.638 Y138.842 E0.44664
G1 X127.172 Y138.842 E0.01612
G1 X116.700 Y128.370 E0.44664
G1 X117.235 Y128.370 E0.01612
G1 X127.707 Y138.842 E0.44664
G1 X128.242 Y138.842 E0.01612
G1 X117.770 Y128.370 E0.44664
G1 X118.304 Y128.370 E0.01612
G1 X128.776 Y138.842 E0.44664
G1 X129.311 Y138.842 E0.01612
G1 X118.839 Y128.370 E0.44664
G1 X119.373 Y128.370 E0.01612
G1 X129.846 Y138.842 E0.44664
G1 X130.380 Y138.842 E0.01612
G1 X119.908 Y128.370 E0.44664
G1 X120.443 Y128.370 E0.01612
G1 X130.915 Y138.842 E0.44664
G1 X131.449 Y138.842 E0.01612
G1 X120.977 Y128.370 E0.44664
G1 X121.512 Y128.370 E0.01612
G1 X131.984 Y138.842 E0.44664
G1 X132.519 Y138.842 E0.01612
G1 X122.047 Y128.370 E0.44664
G1 X122.581 Y128.370 E0.01612
G1 X133.053 Y138.842 E0.44664
G1 X133.588 Y138.842 E0.01612
G1 X123.116 Y128.370 E0.44664
G1 X123.650 Y128.370 E0.01612
G1 X134.122 Y138.842 E0.44664
G1 X134.657 Y138.842 E0.01612
G1 X124.185 Y128.370 E0.44664
G1 X124.720 Y128.370 E0.01612
G1 X135.192 Y138.842 E0.44664
