; generated by Slic3r 1.33.8.devel on 2018-02-27 at 10:44:14

; 

; external perimeters extrusion width = 0.45mm
; perimeters extrusion width = 0.45mm
; infill extrusion width = 0.45mm
; solid infill extrusion width = 0.45mm
; top infill extrusion width = 0.40mm
; first layer extrusion width = 0.42mm

M107
M115 U3.0.12 ; tell printer latest fw version
M83  ; extruder relative mode
M104 S215 ; set extruder temp
M140 S55 ; set bed temp
M190 S55 ; wait for bed temp
M109 S215 ; wait for extruder temp
G28 W ; home all without mesh bed level
G80 ; mesh bed leveling
G1 Y-3.0 F1000.0 ; go outside pritn area
G1 X60.0 E9.0  F1000.0 ; intro line
G1 X100.0 E12.5  F1000.0 ; intro line
; Filament gcode

G21 ; set units to millimeters
G90 ; use absolute coordinates
M83 ; use relative distances for extrusion
G1 E-0.80000 F2100.00000
G1 Z0.200 F7200.000
G1 X84.703 Y71.516 F7200.000
G1 E0.80000 F2100.00000
M204 S1000
G1 F2100
G1 X87.634 Y68.278 E0.13138
G1 X90.754 Y65.354 E0.12863
G1 X94.019 Y62.753 E0.12555
G1 X97.485 Y60.422 E0.12566
G1 X101.294 Y58.284 E0.13138
G1 X105.184 Y56.507 E0.12864
G1 X109.203 Y55.055 E0.12852
G1 X113.419 Y53.916 E0.13137
G1 X117.523 Y53.156 E0.12555
G1 X121.679 Y52.729 E0.12566
G1 X126.004 Y52.633 E0.13012
G1 X130.314 Y52.895 E0.12990
G1 X134.633 Y53.522 E0.13127
G1 X138.800 Y54.481 E0.12862
G1 X142.780 Y55.741 E0.12556
G1 X146.648 Y57.318 E0.12566
G1 X150.547 Y59.287 E0.13138
G1 X154.188 Y61.523 E0.12853
G1 X157.637 Y64.051 E0.12864
G1 X160.934 Y66.916 E0.13138
G1 X163.854 Y69.899 E0.12556
G1 X166.526 Y73.110 E0.12566
G1 X168.990 Y76.606 E0.12864
G1 X171.202 Y80.367 E0.13127
G1 X173.058 Y84.220 E0.12864
G1 X174.592 Y88.208 E0.12853
G1 X175.816 Y92.400 E0.13137
G1 X176.660 Y96.488 E0.12556
G1 X177.172 Y100.634 E0.12566
G1 X177.356 Y104.998 E0.13138
G1 X177.182 Y109.271 E0.12864
G1 X176.643 Y113.605 E0.13137
G1 X175.795 Y117.693 E0.12556
G1 X174.620 Y121.701 E0.12566
G1 X173.058 Y125.780 E0.13138
G1 X171.202 Y129.633 E0.12864
G1 X168.990 Y133.395 E0.13127
G1 X166.526 Y136.890 E0.12863
G1 X163.856 Y140.099 E0.12556
G1 X160.934 Y143.084 E0.12566
G1 X157.637 Y145.949 E0.13138
G1 X154.191 Y148.475 E0.12853
G1 X150.547 Y150.713 E0.12864
G1 X146.648 Y152.682 E0.13137
G1 X142.783 Y154.258 E0.12556
G1 X138.800 Y155.519 E0.12566
G1 X134.633 Y156.478 E0.12863
G1 X130.314 Y157.105 E0.13127
G1 X126.000 Y157.367 E0.13001
G1 X121.679 Y157.271 E0.13000
G1 X117.527 Y156.844 E0.12556
G1 X113.419 Y156.084 E0.12566
G1 X109.202 Y154.944 E0.13138
G1 X105.181 Y153.491 E0.12864
G1 X101.213 Y151.673 E0.13127
G1 X97.568 Y149.632 E0.12566
G1 X94.099 Y147.304 E0.12566
G1 X90.681 Y144.585 E0.13138
G1 X87.568 Y141.658 E0.12852
G1 X84.703 Y138.483 E0.12864
G1 X82.054 Y135.010 E0.13137
G1 X79.799 Y131.498 E0.12555
G1 X77.833 Y127.812 E0.12566
G1 X76.094 Y123.805 E0.13138
G1 X74.723 Y119.754 E0.12864
G1 X73.671 Y115.519 E0.13127
G1 X72.984 Y111.298 E0.12863
G1 X72.646 Y107.138 E0.12556
G1 X72.644 Y102.961 E0.12566
G1 X72.994 Y98.607 E0.13138
G1 X73.688 Y94.391 E0.12852
G1 X74.724 Y90.242 E0.12864
G1 X76.130 Y86.107 E0.13137
G1 X77.788 Y82.276 E0.12556
G1 X79.751 Y78.588 E0.12566
G1 X82.056 Y74.986 E0.12863
G1 X84.666 Y71.564 E0.12947
G1 F5760
G1 X86.137 Y69.935 E-0.76000
G1 E-0.04000 F2100.00000
G1 X123.932 Y151.187 F7200.000
G1 E0.80000 F2100.00000
G1 F840
G1 X124.605 Y150.862 E0.02249
G1 X125.353 Y150.862 E0.02249
G1 X126.026 Y151.187 E0.02249
G1 X126.493 Y151.771 E0.02249
G1 X126.659 Y152.500 E0.02248
G1 X126.493 Y153.229 E0.02248
G1 X126.026 Y153.813 E0.02249
G1 X125.353 Y154.138 E0.02249
G1 X124.605 Y154.138 E0.02249
G1 X123.932 Y153.813 E0.02249
G1 X123.466 Y153.229 E0.02249
G1 X123.300 Y152.500 E0.02249
G1 X123.466 Y151.771 E0.02248
G1 X123.895 Y151.234 E0.02068
G1 X123.872 Y150.791 F7200.000
G1 F5760
G1 X124.605 Y150.862 E-0.27779
G1 F5760
G1 X125.353 Y150.862 E-0.25891
G1 F5760
G1 X125.934 Y151.142 E-0.22330
G1 E-0.04000 F2100.00000
G1 X127.269 Y150.117 F7200.000
G1 E0.80000 F2100.00000
G1 F1260
G1 X127.269 Y59.883 E2.71422
G1 X129.583 Y60.025 E0.06972
G1 X133.233 Y60.550 E0.11094
G1 X136.829 Y61.370 E0.11094
G1 X140.346 Y62.481 E0.11094
G1 X143.760 Y63.875 E0.11094
G1 X147.050 Y65.543 E0.11094
G1 X150.192 Y67.473 E0.11094
G1 X153.167 Y69.653 E0.11094
G1 X155.955 Y72.069 E0.11094
G1 X158.536 Y74.703 E0.11094
G1 X160.894 Y77.539 E0.11094
G1 X163.012 Y80.558 E0.11094
G1 X164.878 Y83.739 E0.11094
G1 X166.478 Y87.062 E0.11094
G1 X167.802 Y90.504 E0.11094
G1 X168.842 Y94.043 E0.11094
G1 X169.589 Y97.654 E0.11094
G1 X170.039 Y101.315 E0.11094
G1 X170.189 Y105.000 E0.11094
G1 X170.039 Y108.685 E0.11094
G1 X169.589 Y112.346 E0.11094
G1 X168.842 Y115.957 E0.11094
G1 X167.802 Y119.496 E0.11094
G1 X166.478 Y122.938 E0.11094
G1 X164.878 Y126.261 E0.11094
G1 X163.012 Y129.442 E0.11094
G1 X162.857 Y129.664 E0.00815
G1 X160.894 Y132.461 E0.10279
G1 X158.536 Y135.297 E0.11094
G1 X155.955 Y137.931 E0.11094
G1 X153.167 Y140.347 E0.11094
G1 X150.192 Y142.527 E0.11094
G1 X147.050 Y144.457 E0.11094
G1 X143.760 Y146.125 E0.11094
G1 X140.346 Y147.519 E0.11094
G1 X136.829 Y148.630 E0.11094
G1 X133.233 Y149.450 E0.11094
G1 X129.583 Y149.975 E0.11094
G1 X127.329 Y150.113 E0.06791
G1 X126.869 Y150.132 F7200.000
G1 F5760
G1 X127.328 Y147.919 E-0.76000
G1 E-0.04000 F2100.00000
G1 X135.623 Y150.569 F7200.000
G1 E0.80000 F2100.00000
G1 F840
G1 X135.922 Y149.884 E0.02249
G1 X136.488 Y149.396 E0.02249
G1 X137.210 Y149.203 E0.02248
G1 X137.945 Y149.342 E0.02248
G1 X138.546 Y149.786 E0.02249
G1 X138.896 Y150.447 E0.02249
G1 X138.924 Y151.194 E0.02249
G1 X138.625 Y151.879 E0.02249
G1 X138.058 Y152.366 E0.02248
G1 X137.336 Y152.560 E0.02249
G1 X136.601 Y152.421 E0.02248
G1 X136.000 Y151.977 E0.02249
G1 X135.651 Y151.316 E0.02249
G1 X135.625 Y150.629 E0.02068
G1 X135.320 Y150.308 F7200.000
G1 F5760
G1 X135.922 Y149.884 E-0.27778
G1 F5760
G1 X136.488 Y149.396 E-0.25891
G1 F5760
G1 X137.111 Y149.230 E-0.22331
G1 E-0.04000 F2100.00000
G1 X137.379 Y148.851 F7200.000
G1 E0.80000 F2100.00000
G1 F840
G1 X140.474 Y147.873 E0.09762
G1 X143.917 Y146.468 E0.11186
G1 X147.199 Y144.804 E0.11069
G1 X146.806 Y145.381 E0.02102
G1 X146.669 Y146.291 E0.02766
G1 X146.940 Y147.169 E0.02766
G1 X147.565 Y147.844 E0.02766
G1 X148.421 Y148.180 E0.02766
G1 X149.092 Y148.129 E0.02022
G1 X145.506 Y149.947 E0.12092
G1 X141.774 Y151.471 E0.12125
G1 X138.461 Y152.517 E0.10452
G1 X138.936 Y152.109 E0.01885
G1 X139.304 Y151.266 E0.02767
G1 X139.269 Y150.347 E0.02766
G1 X138.839 Y149.533 E0.02766
G1 X138.099 Y148.987 E0.02767
G1 X137.438 Y148.862 E0.02024
G1 F5760
G1 X139.525 Y148.183 E-0.76000
G1 E-0.04000 F2100.00000
G1 X147.054 Y146.262 F7200.000
G1 E0.80000 F2100.00000
G1 F840
G1 X147.166 Y145.523 E0.02249
G1 X147.587 Y144.905 E0.02249
G1 X148.234 Y144.531 E0.02249
G1 X148.980 Y144.475 E0.02248
G1 X149.675 Y144.748 E0.02248
G1 X150.184 Y145.296 E0.02249
G1 X150.404 Y146.011 E0.02249
G1 X150.293 Y146.750 E0.02249
G1 X149.872 Y147.368 E0.02249
G1 X149.224 Y147.741 E0.02249
G1 X148.479 Y147.797 E0.02249
G1 X147.783 Y147.524 E0.02249
G1 X147.275 Y146.976 E0.02249
G1 X147.072 Y146.319 E0.02068
G1 X146.694 Y146.088 F7200.000
G1 F5760
G1 X147.166 Y145.523 E-0.27777
G1 F5760
G1 X147.587 Y144.905 E-0.25891
G1 F5760
G1 X148.145 Y144.583 E-0.22331
G1 E-0.04000 F2100.00000
G1 X148.269 Y144.150 F7200.000
G1 E0.80000 F2100.00000
G1 F840
G1 X150.403 Y142.840 E0.07531
G1 X153.403 Y140.642 E0.11186
G1 X156.213 Y138.206 E0.11187
G1 X156.762 Y137.647 E0.02357
G1 X156.513 Y138.356 E0.02261
G1 X156.616 Y139.270 E0.02767
G1 X157.106 Y140.049 E0.02766
G1 X157.884 Y140.538 E0.02767
G1 X158.798 Y140.641 E0.02766
G1 X159.376 Y140.439 E0.01843
G1 X158.834 Y140.993 E0.02332
G1 X155.787 Y143.632 E0.12125
G1 X152.536 Y146.015 E0.12125
G1 X150.324 Y147.373 E0.07808
G1 X150.653 Y146.891 E0.01755
G1 X150.790 Y145.982 E0.02766
G1 X150.519 Y145.103 E0.02766
G1 X149.893 Y144.429 E0.02766
G1 X149.037 Y144.093 E0.02766
G1 X148.329 Y144.146 E0.02135
G1 F5760
G1 X150.186 Y142.977 E-0.76000
G1 E-0.04000 F2100.00000
G1 X156.981 Y139.142 F7200.000
G1 E0.80000 F2100.00000
G1 F840
G1 X156.898 Y138.399 E0.02249
G1 X157.145 Y137.694 E0.02249
G1 X157.673 Y137.165 E0.02249
G1 X158.379 Y136.918 E0.02248
G1 X159.122 Y137.002 E0.02249
G1 X159.754 Y137.400 E0.02249
G1 X160.152 Y138.033 E0.02249
G1 X160.236 Y138.776 E0.02248
G1 X159.989 Y139.481 E0.02248
G1 X159.460 Y140.010 E0.02249
G1 X158.755 Y140.257 E0.02248
G1 X158.012 Y140.173 E0.02248
G1 X157.379 Y139.775 E0.02249
G1 X157.013 Y139.193 E0.02068
G1 X156.588 Y139.068 F7200.000
G1 F5760
G1 X156.898 Y138.399 E-0.27779
G1 F5760
G1 X157.145 Y137.694 E-0.25891
G1 F5760
G1 X157.600 Y137.238 E-0.22330
G1 E-0.04000 F2100.00000
G1 X157.599 Y136.792 F7200.000
G1 E0.80000 F2100.00000
G1 F840
G1 X158.816 Y135.550 E0.05229
G1 X161.193 Y132.690 E0.11186
G1 X163.330 Y129.646 E0.11186
G1 X164.130 Y128.282 E0.04758
G1 X164.072 Y129.058 E0.02341
G1 X164.408 Y129.914 E0.02766
G1 X165.082 Y130.540 E0.02766
G1 X165.961 Y130.811 E0.02766
G1 X166.870 Y130.674 E0.02766
G1 X167.350 Y130.347 E0.01744
G1 X166.548 Y131.714 E0.04768
G1 X164.232 Y135.014 E0.12125
G1 X161.655 Y138.113 E0.12125
G1 X160.430 Y139.364 E0.05266
G1 X160.620 Y138.819 E0.01736
G1 X160.517 Y137.905 E0.02766
G1 X160.028 Y137.126 E0.02766
G1 X159.249 Y136.637 E0.02766
G1 X158.335 Y136.534 E0.02767
G1 X157.656 Y136.772 E0.02165
G1 F5760
G1 X158.816 Y135.550 E-0.58350
G1 F5760
G1 X159.142 Y135.158 E-0.17650
G1 E-0.04000 F2100.00000
G1 X164.728 Y129.696 F7200.000
G1 E0.80000 F2100.00000
G1 F840
G1 X164.455 Y129.000 E0.02248
G1 X164.510 Y128.255 E0.02248
G1 X164.884 Y127.607 E0.02249
G1 X165.502 Y127.186 E0.02249
G1 X166.241 Y127.075 E0.02249
G1 X166.955 Y127.295 E0.02249
G1 X167.503 Y127.804 E0.02248
G1 X167.776 Y128.500 E0.02249
G1 X167.720 Y129.245 E0.02249
G1 X167.347 Y129.893 E0.02249
G1 X166.729 Y130.314 E0.02249
G1 X165.990 Y130.425 E0.02248
G1 X165.276 Y130.205 E0.02249
G1 X164.772 Y129.737 E0.02068
G1 X164.329 Y129.726 F7200.000
G1 F5760
G1 X164.455 Y129.000 E-0.27776
G1 F5760
G1 X164.510 Y128.255 E-0.25890
G1 F5760
G1 X164.833 Y127.697 E-0.22334
G1 E-0.04000 F2100.00000
G1 X164.733 Y127.254 F7200.000
G1 E0.80000 F2100.00000
G1 F840
G1 X165.211 Y126.439 E0.02844
G1 X166.825 Y123.088 E0.11186
G1 X168.160 Y119.617 E0.11186
G1 X168.823 Y117.360 E0.07077
G1 X168.967 Y118.120 E0.02328
G1 X169.513 Y118.860 E0.02767
G1 X170.326 Y119.290 E0.02766
G1 X171.245 Y119.324 E0.02766
G1 X172.088 Y118.957 E0.02767
G1 X172.466 Y118.517 E0.01743
G1 X171.783 Y120.843 E0.07292
G1 X170.336 Y124.606 E0.12125
G1 X168.587 Y128.237 E0.12125
G1 X168.114 Y129.044 E0.02813
G1 X168.159 Y128.442 E0.01816
G1 X167.823 Y127.586 E0.02766
G1 X167.149 Y126.960 E0.02766
G1 X166.270 Y126.689 E0.02766
G1 X165.360 Y126.826 E0.02766
G1 X164.782 Y127.220 E0.02104
G1 F5760
G1 X165.211 Y126.439 E-0.30886
G1 F5760
G1 X165.776 Y125.265 E-0.45114
G1 E-0.04000 F2100.00000
G1 X169.765 Y118.567 F7200.000
G1 E0.80000 F2100.00000
G1 F840
G1 X169.321 Y117.966 E0.02249
G1 X169.182 Y117.231 E0.02248
G1 X169.376 Y116.509 E0.02249
G1 X169.863 Y115.942 E0.02248
G1 X170.548 Y115.644 E0.02249
G1 X171.295 Y115.671 E0.02249
G1 X171.956 Y116.021 E0.02249
G1 X172.400 Y116.622 E0.02249
G1 X172.539 Y117.357 E0.02248
G1 X172.346 Y118.079 E0.02249
G1 X171.858 Y118.645 E0.02248
G1 X171.173 Y118.944 E0.02249
G1 X170.426 Y118.916 E0.02249
G1 X169.818 Y118.595 E0.02068
G1 X169.387 Y118.699 F7200.000
G1 F5760
G1 X169.321 Y117.966 E-0.27780
G1 F5760
G1 X169.182 Y117.231 E-0.25890
G1 F5760
G1 X169.349 Y116.608 E-0.22330
G1 E-0.04000 F2100.00000
G1 X169.173 Y116.166 F7200.000
G1 E0.80000 F2100.00000
G1 F840
G1 X169.961 Y112.407 E0.11554
G1 X170.415 Y108.716 E0.11186
G1 X170.541 Y105.620 E0.09321
G1 X170.864 Y106.288 E0.02233
G1 X171.583 Y106.862 E0.02766
G1 X172.479 Y107.066 E0.02766
G1 X173.376 Y106.862 E0.02766
G1 X174.095 Y106.288 E0.02766
G1 X174.362 Y105.734 E0.01850
G1 X174.227 Y109.028 E0.09914
G1 X173.735 Y113.028 E0.12125
G1 X172.877 Y117.116 E0.12563
G1 X172.755 Y116.468 E0.01984
G1 X172.209 Y115.728 E0.02767
G1 X171.395 Y115.298 E0.02766
G1 X170.477 Y115.264 E0.02766
G1 X169.633 Y115.631 E0.02767
G1 X169.212 Y116.121 E0.01943
G1 F5760
G1 X169.646 Y113.970 E-0.76000
G1 E-0.04000 F2100.00000
G1 X171.750 Y106.513 F7200.000
G1 E0.80000 F2100.00000
G1 F840
G1 X171.166 Y106.047 E0.02248
G1 X170.842 Y105.374 E0.02249
G1 X170.842 Y104.626 E0.02249
G1 X171.166 Y103.953 E0.02249
G1 X171.750 Y103.487 E0.02248
G1 X172.479 Y103.320 E0.02249
G1 X173.208 Y103.487 E0.02248
G1 X173.792 Y103.953 E0.02249
G1 X174.117 Y104.626 E0.02249
G1 X174.117 Y105.374 E0.02249
G1 X173.792 Y106.047 E0.02249
G1 X173.208 Y106.513 E0.02248
G1 X172.479 Y106.680 E0.02248
G1 X171.809 Y106.527 E0.02068
G1 X171.420 Y106.739 F7200.000
G1 F5760
G1 X171.166 Y106.047 E-0.27777
G1 F5760
G1 X170.842 Y105.374 E-0.25892
G1 F5760
G1 X170.842 Y104.729 E-0.22331
G1 E-0.04000 F2100.00000
G1 X170.541 Y104.380 F7200.000
G1 E0.80000 F2100.00000
G1 F840
G1 X170.415 Y101.284 E0.09321
G1 X169.961 Y97.593 E0.11186
G1 X169.173 Y93.834 E0.11554
G1 X169.634 Y94.369 E0.02123
G1 X170.476 Y94.736 E0.02766
G1 X171.395 Y94.702 E0.02766
G1 X172.209 Y94.272 E0.02766
G1 X172.755 Y93.532 E0.02767
G1 X172.877 Y92.884 E0.01984
G1 X173.735 Y96.972 E0.12563
G1 X174.227 Y100.972 E0.12125
G1 X174.362 Y104.266 E0.09914
G1 X174.095 Y103.712 E0.01850
G1 X173.376 Y103.138 E0.02766
G1 X172.479 Y102.934 E0.02766
G1 X171.583 Y103.138 E0.02766
G1 X170.864 Y103.712 E0.02766
G1 X170.568 Y104.326 E0.02053
G1 F5760
G1 X170.458 Y102.135 E-0.76000
G1 E-0.04000 F2100.00000
G1 X170.548 Y94.356 F7200.000
G1 E0.80000 F2100.00000
G1 F840
G1 X169.863 Y94.058 E0.02249
G1 X169.376 Y93.491 E0.02249
G1 X169.182 Y92.769 E0.02249
G1 X169.321 Y92.034 E0.02248
G1 X169.765 Y91.433 E0.02249
G1 X170.426 Y91.084 E0.02248
G1 X171.173 Y91.056 E0.02249
G1 X171.858 Y91.355 E0.02249
G1 X172.346 Y91.921 E0.02248
G1 X172.539 Y92.643 E0.02249
G1 X172.400 Y93.378 E0.02248
G1 X171.956 Y93.979 E0.02249
G1 X171.295 Y94.329 E0.02249
G1 X170.608 Y94.354 E0.02068
G1 X170.287 Y94.660 F7200.000
G1 F5760
G1 X169.863 Y94.058 E-0.27778
G1 F5760
G1 X169.376 Y93.491 E-0.25891
G1 F5760
G1 X169.209 Y92.868 E-0.22331
G1 E-0.04000 F2100.00000
G1 X168.823 Y92.640 F7200.000
G1 E0.80000 F2100.00000
G1 F840
G1 X168.160 Y90.383 E0.07077
G1 X166.825 Y86.912 E0.11186
G1 X165.211 Y83.561 E0.11186
G1 X164.733 Y82.746 E0.02844
G1 X165.360 Y83.174 E0.02285
G1 X166.270 Y83.311 E0.02766
G1 X167.149 Y83.040 E0.02766
G1 X167.823 Y82.414 E0.02766
G1 X168.159 Y81.558 E0.02766
G1 X168.114 Y80.956 E0.01816
G1 X168.587 Y81.763 E0.02813
G1 X170.336 Y85.394 E0.12125
G1 X171.783 Y89.157 E0.12125
G1 X172.466 Y91.483 E0.07292
G1 X172.088 Y91.043 E0.01743
G1 X171.245 Y90.676 E0.02767
G1 X170.326 Y90.710 E0.02766
G1 X169.513 Y91.140 E0.02766
G1 X168.967 Y91.880 E0.02767
G1 X168.834 Y92.581 E0.02148
G1 F5760
G1 X168.191 Y90.484 E-0.76000
G1 E-0.04000 F2100.00000
G1 X166.241 Y82.925 F7200.000
G1 E0.80000 F2100.00000
G1 F840
G1 X165.502 Y82.814 E0.02249
G1 X164.884 Y82.393 E0.02249
G1 X164.510 Y81.745 E0.02249
G1 X164.455 Y81.000 E0.02249
G1 X164.728 Y80.304 E0.02248
G1 X165.276 Y79.795 E0.02249
G1 X165.990 Y79.575 E0.02249
G1 X166.729 Y79.686 E0.02249
G1 X167.347 Y80.107 E0.02249
G1 X167.720 Y80.755 E0.02249
G1 X167.776 Y81.500 E0.02249
G1 X167.503 Y82.196 E0.02249
G1 X166.955 Y82.705 E0.02248
G1 X166.298 Y82.907 E0.02068
G1 X166.067 Y83.285 F7200.000
G1 F5760
G1 X165.502 Y82.814 E-0.27778
G1 F5760
G1 X164.884 Y82.393 E-0.25891
G1 F5760
G1 X164.562 Y81.834 E-0.22331
G1 E-0.04000 F2100.00000
G1 X164.130 Y81.718 F7200.000
G1 E0.80000 F2100.00000
G1 F840
G1 X163.330 Y80.354 E0.04758
G1 X161.193 Y77.310 E0.11186
G1 X158.816 Y74.450 E0.11186
G1 X157.599 Y73.208 E0.05229
G1 X158.335 Y73.466 E0.02346
G1 X159.249 Y73.363 E0.02767
G1 X160.028 Y72.874 E0.02766
G1 X160.517 Y72.095 E0.02766
G1 X160.620 Y71.181 E0.02766
G1 X160.430 Y70.636 E0.01736
G1 X161.655 Y71.887 E0.05266
G1 X164.232 Y74.986 E0.12125
G1 X166.548 Y78.286 E0.12125
G1 X167.350 Y79.653 E0.04768
G1 X166.870 Y79.326 E0.01744
G1 X165.961 Y79.189 E0.02766
G1 X165.082 Y79.460 E0.02766
