; generated by Slic3r 1.33.8.devel on 2018-09-06 at 11:51:55

; 

; external perimeters extrusion width = 0.60mm
; perimeters extrusion width = 0.43mm
; infill extrusion width = 0.70mm
; solid infill extrusion width = 0.70mm
; top infill extrusion width = 0.43mm
; first layer extrusion width = 0.42mm

M107
M115 U3.0.12 ; tell printer latest fw version
M83  ; extruder relative mode
M104 S240 ; set extruder temp
M140 S85 ; set bed temp
M190 S85 ; wait for bed temp
M109 S240 ; wait for extruder temp
G28 W ; home all without mesh bed level
G80 ; mesh bed leveling
G1 Y-3.0 F1000.0 ; go outside pritn area
G1 X60.0 E9.0  F1000.0 ; intro line
G1 X100.0 E12.5  F1000.0 ; intro line
; Filament gcode

G21 ; set units to millimeters
G90 ; use absolute coordinates
M83 ; use relative distances for extrusion
G1 E-0.80000 F2100.00000
G1 Z0.200 F7200.000
G1 X117.257 Y96.186 F7200.000
G1 E0.80000 F2100.00000
M204 S1000
G1 F2100
G1 X117.806 Y95.598 E0.02421
G1 X119.042 Y94.761 E0.04490
G1 X120.432 Y94.077 E0.04661
G1 X121.207 Y93.890 E0.02396
G1 X128.543 Y93.878 E0.22069
G1 X129.472 Y94.041 E0.02835
G1 X130.906 Y94.730 E0.04786
G1 X132.227 Y95.623 E0.04797
G1 X132.826 Y96.313 E0.02750
G1 X136.614 Y102.966 E0.23028
G1 X136.799 Y103.954 E0.03024
G1 X136.847 Y105.005 E0.03164
G1 X136.799 Y106.053 E0.03155
G1 X136.605 Y107.060 E0.03086
G1 X132.736 Y113.824 E0.23438
G1 X132.181 Y114.413 E0.02433
G1 X130.880 Y115.284 E0.04711
G1 X129.530 Y115.938 E0.04513
G1 X128.720 Y116.116 E0.02494
G1 X121.407 Y116.121 E0.21995
G1 X120.521 Y115.956 E0.02713
G1 X118.989 Y115.207 E0.05130
G1 X117.857 Y114.443 E0.04108
G1 X117.389 Y113.991 E0.01956
G1 X113.568 Y107.441 E0.22809
G1 X113.271 Y106.598 E0.02689
G1 X113.155 Y105.106 E0.04501
G1 X113.199 Y103.967 E0.03428
G1 X113.395 Y102.940 E0.03148
G1 X117.227 Y96.238 E0.23220
G1 X117.553 Y96.425 F7200.000
G1 F2100
G1 X118.049 Y95.886 E0.02205
G1 X119.239 Y95.082 E0.04319
G1 X120.562 Y94.431 E0.04436
G1 X121.248 Y94.265 E0.02123
G1 X128.543 Y94.255 E0.21943
G1 X129.364 Y94.403 E0.02508
G1 X130.725 Y95.061 E0.04548
G1 X131.979 Y95.908 E0.04551
G1 X132.509 Y96.517 E0.02429
G1 X136.254 Y103.080 E0.22731
G1 X136.425 Y104.002 E0.02821
G1 X136.470 Y105.004 E0.03017
G1 X136.425 Y106.004 E0.03009
G1 X136.245 Y106.945 E0.02884
G1 X132.431 Y113.602 E0.23078
G1 X131.939 Y114.124 E0.02157
G1 X130.698 Y114.954 E0.04490
G1 X129.406 Y115.581 E0.04322
G1 X128.691 Y115.740 E0.02202
G1 X121.419 Y115.744 E0.21874
G1 X120.633 Y115.596 E0.02406
G1 X119.194 Y114.890 E0.04822
G1 X118.093 Y114.149 E0.03991
G1 X117.675 Y113.745 E0.01749
G1 X113.900 Y107.263 E0.22562
G1 X113.640 Y106.515 E0.02383
G1 X113.532 Y105.084 E0.04317
G1 X113.574 Y104.008 E0.03240
G1 X113.755 Y103.055 E0.02918
G1 X117.523 Y96.477 E0.22802
G1 F5760
G1 X118.049 Y95.886 E-0.27414
G1 F5760
G1 X119.212 Y95.101 E-0.48586
G1 E-0.04000 F2100.00000
G1 X119.801 Y100.707 F7200.000
G1 E0.80000 F2100.00000
G1 F1680
G1 X119.949 Y100.526 E0.00703
G1 X120.326 Y100.133 E0.01636
G1 X120.714 Y99.789 E0.01561
G1 X121.169 Y99.445 E0.01716
G1 X121.626 Y99.156 E0.01627
G1 X122.107 Y98.904 E0.01635
G1 X122.607 Y98.690 E0.01635
G1 X123.122 Y98.518 E0.01634
G1 X123.625 Y98.394 E0.01558
G1 X123.884 Y98.352 E0.00789
G1 X126.118 Y98.351 E0.06720
G1 X126.880 Y98.519 E0.02347
G1 X127.393 Y98.690 E0.01626
G1 X127.893 Y98.904 E0.01635
G1 X128.352 Y99.145 E0.01560
G1 X128.836 Y99.448 E0.01717
G1 X129.268 Y99.773 E0.01626
G1 X129.675 Y100.133 E0.01636
G1 X130.033 Y100.507 E0.01558
G1 X130.204 Y100.714 E0.00807
G1 X131.318 Y102.644 E0.06703
G1 X131.553 Y103.388 E0.02345
G1 X131.661 Y103.917 E0.01626
G1 X131.726 Y104.457 E0.01634
G1 X131.748 Y105.000 E0.01636
G1 X131.726 Y105.543 E0.01635
G1 X131.661 Y106.083 E0.01634
G1 X131.552 Y106.615 E0.01634
G1 X131.408 Y107.112 E0.01557
G1 X131.313 Y107.364 E0.00810
G1 X130.201 Y109.290 E0.06688
G1 X130.066 Y109.457 E0.00647
G1 X129.672 Y109.868 E0.01713
G1 X129.268 Y110.227 E0.01627
G1 X128.833 Y110.554 E0.01634
G1 X128.374 Y110.844 E0.01635
G1 X127.893 Y111.096 E0.01635
G1 X127.393 Y111.310 E0.01635
G1 X126.877 Y111.482 E0.01634
G1 X126.350 Y111.612 E0.01634
G1 X126.119 Y111.649 E0.00704
G1 X123.881 Y111.649 E0.06730
G1 X123.650 Y111.612 E0.00704
G1 X123.123 Y111.482 E0.01634
G1 X122.607 Y111.310 E0.01634
G1 X122.107 Y111.096 E0.01635
G1 X121.648 Y110.855 E0.01560
G1 X121.164 Y110.552 E0.01717
G1 X120.732 Y110.227 E0.01626
G1 X120.325 Y109.867 E0.01636
G1 X119.949 Y109.474 E0.01636
G1 X119.801 Y109.293 E0.00703
G1 X118.682 Y107.356 E0.06730
G1 X118.599 Y107.137 E0.00704
G1 X118.448 Y106.615 E0.01635
G1 X118.339 Y106.083 E0.01634
G1 X118.274 Y105.543 E0.01634
G1 X118.252 Y105.000 E0.01635
G1 X118.274 Y104.457 E0.01637
G1 X118.336 Y103.942 E0.01559
G1 X118.449 Y103.382 E0.01716
G1 X118.599 Y102.863 E0.01628
G1 X118.682 Y102.644 E0.00703
G1 X119.771 Y100.759 E0.06548
G1 X119.489 Y100.492 F7200.000
G1 F1680
G1 X119.666 Y100.275 E0.00841
G1 X120.064 Y99.861 E0.01727
G1 X120.475 Y99.497 E0.01651
G1 X120.954 Y99.135 E0.01807
G1 X121.437 Y98.829 E0.01720
G1 X121.945 Y98.563 E0.01726
G1 X122.473 Y98.338 E0.01726
G1 X123.018 Y98.156 E0.01725
G1 X123.550 Y98.025 E0.01648
G1 X123.855 Y97.974 E0.00930
G1 X126.147 Y97.974 E0.06897
G1 X126.402 Y98.015 E0.00775
G1 X126.984 Y98.156 E0.01804
G1 X127.527 Y98.338 E0.01719
G1 X128.055 Y98.563 E0.01726
G1 X128.540 Y98.817 E0.01650
G1 X129.049 Y99.137 E0.01808
G1 X129.506 Y99.480 E0.01719
G1 X129.936 Y99.861 E0.01727
G1 X130.316 Y100.256 E0.01648
G1 X130.515 Y100.499 E0.00944
G1 X131.660 Y102.482 E0.06888
G1 X131.750 Y102.720 E0.00765
G1 X131.919 Y103.297 E0.01809
G1 X132.033 Y103.857 E0.01720
G1 X132.102 Y104.426 E0.01725
G1 X132.125 Y105.000 E0.01728
G1 X132.102 Y105.574 E0.01727
G1 X132.033 Y106.143 E0.01725
G1 X131.918 Y106.705 E0.01726
G1 X131.766 Y107.231 E0.01648
G1 X131.655 Y107.526 E0.00947
G1 X130.513 Y109.504 E0.06871
G1 X130.349 Y109.706 E0.00783
G1 X129.934 Y110.140 E0.01805
G1 X129.506 Y110.520 E0.01720
G1 X129.048 Y110.864 E0.01725
G1 X128.563 Y111.171 E0.01726
G1 X128.055 Y111.437 E0.01726
G1 X127.527 Y111.662 E0.01726
G1 X126.982 Y111.844 E0.01725
G1 X126.425 Y111.981 E0.01726
G1 X126.149 Y112.026 E0.00842
G1 X123.851 Y112.026 E0.06913
G1 X123.575 Y111.981 E0.00842
G1 X123.018 Y111.844 E0.01726
G1 X122.473 Y111.662 E0.01725
G1 X121.945 Y111.437 E0.01726
G1 X121.460 Y111.183 E0.01650
G1 X120.951 Y110.863 E0.01808
G1 X120.494 Y110.520 E0.01719
G1 X120.064 Y110.139 E0.01727
G1 X119.666 Y109.725 E0.01727
G1 X119.489 Y109.508 E0.00841
G1 X118.340 Y107.518 E0.06913
G1 X118.241 Y107.257 E0.00841
G1 X118.082 Y106.705 E0.01727
G1 X117.967 Y106.143 E0.01726
G1 X117.898 Y105.574 E0.01725
G1 X117.875 Y105.000 E0.01727
G1 X117.898 Y104.426 E0.01728
G1 X117.964 Y103.882 E0.01649
G1 X118.082 Y103.293 E0.01808
G1 X118.241 Y102.743 E0.01721
G1 X118.340 Y102.482 E0.00840
G1 X119.459 Y100.544 E0.06732
G1 X119.178 Y100.277 F7200.000
G1 F1680
G1 X119.384 Y100.025 E0.00978
G1 X119.803 Y99.589 E0.01818
G1 X120.236 Y99.205 E0.01740
G1 X120.739 Y98.825 E0.01899
G1 X121.249 Y98.502 E0.01814
G1 X121.784 Y98.222 E0.01817
G1 X122.340 Y97.985 E0.01818
G1 X122.913 Y97.793 E0.01817
G1 X123.474 Y97.655 E0.01739
G1 X123.825 Y97.597 E0.01071
G1 X126.177 Y97.597 E0.07074
G1 X126.476 Y97.645 E0.00913
G1 X127.089 Y97.794 E0.01896
G1 X127.660 Y97.985 E0.01813
G1 X128.216 Y98.222 E0.01818
G1 X128.728 Y98.490 E0.01739
G1 X129.263 Y98.826 E0.01900
G1 X129.745 Y99.188 E0.01812
G1 X130.197 Y99.589 E0.01818
G1 X130.598 Y100.006 E0.01738
G1 X130.826 Y100.284 E0.01082
G1 X132.001 Y102.320 E0.07072
G1 X132.108 Y102.600 E0.00900
G1 X132.285 Y103.206 E0.01900
G1 X132.406 Y103.796 E0.01813
G1 X132.478 Y104.396 E0.01817
G1 X132.503 Y105.000 E0.01819
G1 X132.478 Y105.604 E0.01818
G1 X132.406 Y106.204 E0.01817
G1 X132.285 Y106.796 E0.01817
G1 X132.124 Y107.351 E0.01738
G1 X131.997 Y107.688 E0.01084
G1 X130.824 Y109.719 E0.07055
G1 X130.632 Y109.956 E0.00918
G1 X130.196 Y110.412 E0.01897
G1 X129.745 Y110.812 E0.01813
G1 X129.262 Y111.175 E0.01817
G1 X128.751 Y111.498 E0.01818
G1 X128.216 Y111.778 E0.01817
G1 X127.660 Y112.015 E0.01818
G1 X127.087 Y112.207 E0.01817
G1 X126.501 Y112.351 E0.01817
G1 X126.180 Y112.403 E0.00979
G1 X123.820 Y112.403 E0.07097
G1 X123.499 Y112.351 E0.00979
G1 X122.913 Y112.207 E0.01817
G1 X122.340 Y112.015 E0.01817
G1 X121.784 Y111.778 E0.01818
G1 X121.272 Y111.510 E0.01740
G1 X120.737 Y111.174 E0.01900
G1 X120.255 Y110.812 E0.01812
G1 X119.803 Y110.411 E0.01818
G1 X119.384 Y109.975 E0.01818
G1 X119.178 Y109.723 E0.00978
G1 X117.999 Y107.680 E0.07096
G1 X117.883 Y107.376 E0.00978
G1 X117.715 Y106.796 E0.01818
G1 X117.594 Y106.204 E0.01817
G1 X117.522 Y105.604 E0.01817
G1 X117.497 Y105.000 E0.01818
G1 X117.522 Y104.396 E0.01819
G1 X117.591 Y103.822 E0.01739
G1 X117.715 Y103.203 E0.01900
G1 X117.883 Y102.624 E0.01814
G1 X117.998 Y102.320 E0.00977
G1 X119.148 Y100.329 E0.06916
G1 X118.867 Y100.062 F7200.000
G1 F1680
G1 X119.101 Y99.775 E0.01115
G1 X119.541 Y99.317 E0.01910
G1 X119.997 Y98.913 E0.01830
G1 X120.524 Y98.514 E0.01990
G1 X121.060 Y98.175 E0.01907
G1 X121.622 Y97.881 E0.01909
G1 X122.206 Y97.632 E0.01909
G1 X122.808 Y97.431 E0.01909
G1 X123.398 Y97.285 E0.01829
G1 X123.796 Y97.220 E0.01212
G1 X126.206 Y97.220 E0.07251
G1 X126.551 Y97.275 E0.01050
G1 X127.193 Y97.431 E0.01989
G1 X127.794 Y97.632 E0.01906
G1 X128.378 Y97.881 E0.01909
G1 X128.917 Y98.163 E0.01829
G1 X129.477 Y98.515 E0.01992
G1 X129.984 Y98.896 E0.01906
G1 X130.459 Y99.317 E0.01909
G1 X130.880 Y99.755 E0.01828
G1 X131.137 Y100.068 E0.01219
G1 X132.343 Y102.158 E0.07257
G1 X132.465 Y102.480 E0.01036
G1 X132.652 Y103.115 E0.01991
G1 X132.778 Y103.736 E0.01906
G1 X132.854 Y104.366 E0.01908
G1 X132.880 Y105.000 E0.01910
G1 X132.854 Y105.634 E0.01909
G1 X132.778 Y106.264 E0.01908
G1 X132.651 Y106.886 E0.01909
G1 X132.482 Y107.470 E0.01828
G1 X132.339 Y107.850 E0.01221
G1 X131.136 Y109.934 E0.07238
G1 X130.915 Y110.205 E0.01054
G1 X130.458 Y110.684 E0.01990
G1 X129.984 Y111.104 E0.01906
G1 X129.477 Y111.485 E0.01908
G1 X128.940 Y111.825 E0.01910
G1 X128.378 Y112.119 E0.01909
G1 X127.794 Y112.368 E0.01909
G1 X127.192 Y112.569 E0.01909
G1 X126.576 Y112.721 E0.01909
G1 X126.210 Y112.780 E0.01116
G1 X123.790 Y112.780 E0.07280
G1 X123.424 Y112.721 E0.01116
G1 X122.808 Y112.569 E0.01909
G1 X122.206 Y112.368 E0.01909
G1 X121.622 Y112.119 E0.01909
G1 X121.083 Y111.837 E0.01829
G1 X120.523 Y111.485 E0.01992
G1 X120.016 Y111.104 E0.01906
G1 X119.541 Y110.683 E0.01909
G1 X119.101 Y110.225 E0.01909
G1 X118.867 Y109.938 E0.01115
G1 X117.657 Y107.842 E0.07280
G1 X117.525 Y107.496 E0.01115
G1 X117.349 Y106.886 E0.01909
G1 X117.222 Y106.264 E0.01909
G1 X117.146 Y105.634 E0.01908
G1 X117.120 Y105.000 E0.01909
G1 X117.146 Y104.366 E0.01910
G1 X117.219 Y103.762 E0.01828
G1 X117.349 Y103.113 E0.01991
G1 X117.525 Y102.504 E0.01907
G1 X117.657 Y102.158 E0.01114
G1 X118.837 Y100.114 E0.07100
G1 X118.510 Y99.925 F7200.000
G1 F1260
G1 X118.819 Y99.524 E0.01522
G1 X119.280 Y99.045 E0.02001
G1 X119.757 Y98.622 E0.01919
G1 X120.309 Y98.204 E0.02082
G1 X120.871 Y97.849 E0.02000
G1 X121.460 Y97.540 E0.02000
G1 X122.072 Y97.279 E0.02000
G1 X122.703 Y97.068 E0.02000
G1 X123.322 Y96.916 E0.01919
G1 X123.766 Y96.843 E0.01354
G1 X126.235 Y96.843 E0.07427
G1 X126.625 Y96.905 E0.01188
G1 X127.298 Y97.068 E0.02082
G1 X127.928 Y97.279 E0.01999
G1 X128.540 Y97.540 E0.02000
G1 X129.105 Y97.836 E0.01919
G1 X129.691 Y98.204 E0.02083
G1 X130.222 Y98.604 E0.01999
G1 X130.720 Y99.045 E0.02001
G1 X131.162 Y99.505 E0.01918
G1 X131.448 Y99.853 E0.01356
G1 X132.685 Y101.995 E0.07441
G1 X132.823 Y102.360 E0.01171
G1 X133.018 Y103.024 E0.02083
G1 X133.151 Y103.675 E0.02000
G1 X133.231 Y104.335 E0.01999
G1 X133.257 Y105.000 E0.02001
G1 X133.231 Y105.665 E0.02000
G1 X133.151 Y106.325 E0.01999
G1 X133.018 Y106.976 E0.02001
G1 X132.840 Y107.589 E0.01919
G1 X132.681 Y108.012 E0.01359
G1 X131.447 Y110.148 E0.07422
G1 X131.198 Y110.455 E0.01189
G1 X130.720 Y110.956 E0.02082
G1 X130.222 Y111.396 E0.02000
G1 X129.691 Y111.796 E0.02000
G1 X129.129 Y112.151 E0.02001
G1 X128.540 Y112.460 E0.02000
G1 X127.928 Y112.721 E0.02000
G1 X127.297 Y112.932 E0.02000
G1 X126.652 Y113.091 E0.02000
G1 X126.241 Y113.158 E0.01253
G1 X123.759 Y113.158 E0.07463
G1 X123.348 Y113.091 E0.01253
G1 X122.703 Y112.932 E0.02000
G1 X122.072 Y112.721 E0.02000
G1 X121.460 Y112.460 E0.02000
G1 X120.895 Y112.164 E0.01919
G1 X120.309 Y111.796 E0.02083
G1 X119.778 Y111.396 E0.01999
G1 X119.280 Y110.955 E0.02001
G1 X118.819 Y110.476 E0.02001
G1 X118.556 Y110.153 E0.01253
G1 X117.315 Y108.004 E0.07463
G1 X117.167 Y107.615 E0.01253
G1 X116.982 Y106.976 E0.02001
G1 X116.849 Y106.325 E0.02001
G1 X116.769 Y105.665 E0.01999
G1 X116.743 Y105.000 E0.02000
G1 X116.769 Y104.335 E0.02001
G1 X116.846 Y103.702 E0.01918
G1 X116.982 Y103.023 E0.02083
G1 X117.167 Y102.385 E0.02000
G1 X117.315 Y101.996 E0.01251
G1 X118.480 Y99.977 E0.07012
G1 X118.909 Y99.957 F7200.000
G1 F5760
G1 X118.819 Y99.524 E-0.19587
G1 F5760
G1 X119.280 Y99.045 E-0.23037
G1 F5760
G1 X119.757 Y98.622 E-0.22098
G1 F5760
G1 X120.017 Y98.425 E-0.11279
G1 E-0.04000 F2100.00000
G1 X118.892 Y107.494 F7200.000
G1 E0.80000 F2100.00000
G1 F2520
G1 X122.247 Y110.849 E0.14392
G1 X122.708 Y111.045 E0.01518
G1 X123.118 Y111.182 E0.01313
G1 X118.820 Y106.884 E0.18437
G1 X118.723 Y106.547 E0.01064
G1 X118.646 Y106.173 E0.01160
G1 X123.828 Y111.354 E0.22228
G1 X124.378 Y111.366 E0.01669
G1 X118.559 Y105.548 E0.24959
G1 X118.536 Y104.987 E0.01704
G1 X124.915 Y111.366 E0.27367
G1 X125.453 Y111.366 E0.01631
G1 X118.557 Y104.471 E0.29581
G1 X118.615 Y103.991 E0.01465
G1 X125.991 Y111.366 E0.31639
G1 X126.096 Y111.366 E0.00320
G1 X126.456 Y111.294 E0.01114
G1 X118.705 Y103.543 E0.33251
G1 X118.819 Y103.120 E0.01330
G1 X126.881 Y111.182 E0.34586
G1 X127.284 Y111.048 E0.01289
G1 X118.962 Y102.725 E0.35702
G1 X119.159 Y102.384 E0.01194
G1 X127.662 Y110.887 E0.36477
G1 X128.022 Y110.710 E0.01217
G1 X119.355 Y102.043 E0.37176
G1 X119.552 Y101.703 E0.01194
G1 X128.365 Y110.515 E0.37804
G1 X128.693 Y110.306 E0.01181
G1 X119.749 Y101.362 E0.38367
G1 X119.946 Y101.021 E0.01194
G1 X129.000 Y110.075 E0.38839
G1 X129.291 Y109.829 E0.01157
G1 X120.168 Y100.706 E0.39136
G1 X120.431 Y100.431 E0.01153
G1 X129.566 Y109.566 E0.39185
G1 X129.823 Y109.285 E0.01154
G1 X120.709 Y100.171 E0.39096
G1 X121.001 Y99.926 E0.01158
G1 X130.054 Y108.979 E0.38835
G1 X130.251 Y108.638 E0.01194
G1 X121.307 Y99.695 E0.38366
G1 X121.635 Y99.485 E0.01180
G1 X130.448 Y108.297 E0.37804
G1 X130.644 Y107.957 E0.01194
G1 X121.978 Y99.290 E0.37176
G1 X122.338 Y99.113 E0.01217
G1 X130.841 Y107.616 E0.36477
G1 X131.038 Y107.275 E0.01194
G1 X122.715 Y98.952 E0.35702
G1 X123.118 Y98.818 E0.01289
G1 X131.181 Y106.880 E0.34586
G1 X131.296 Y106.457 E0.01329
G1 X123.544 Y98.706 E0.33253
G1 X123.907 Y98.635 E0.01123
G1 X124.010 Y98.635 E0.00312
G1 X131.385 Y106.009 E0.31635
G1 X131.443 Y105.529 E0.01465
G1 X124.548 Y98.634 E0.29578
G1 X125.085 Y98.634 E0.01630
G1 X131.464 Y105.013 E0.27365
G1 X131.441 Y104.452 E0.01704
G1 X125.623 Y98.634 E0.24957
G1 X126.173 Y98.646 E0.01668
G1 X131.354 Y103.828 E0.22226
G1 X131.278 Y103.459 E0.01143
G1 X131.166 Y103.102 E0.01133
G1 X126.882 Y98.818 E0.18380
G1 X127.292 Y98.955 E0.01314
G1 X127.752 Y99.151 E0.01517
G1 X131.108 Y102.507 E0.14395
G1 F5760
G1 X129.556 Y100.955 E-0.76000
G1 E-0.04000 F2100.00000
G1 X130.373 Y101.234 F7200.000
G1 E0.80000 F2100.00000
G1 F2520
G1 X128.526 Y99.387 E0.07923
G1 F5760
G1 X130.078 Y100.939 E-0.76000
G1 E-0.04000 F2100.00000
G1 X119.627 Y108.766 F7200.000
G1 E0.80000 F2100.00000
G1 F2520
G1 X121.473 Y110.612 E0.07921
G1 F5760
G1 X119.922 Y109.061 E-0.76000
G1 E-0.04000 F2100.00000
G1 Z0.550 F7200.000
G1 X117.389 Y113.991 F7200.000
G1 E0.80000 F2100.00000
G1 F3000
G1 X113.568 Y107.441 E0.35095
G1 X113.271 Y106.598 E0.04137
G1 X113.155 Y105.106 E0.06925
G1 X113.199 Y103.967 E0.05275
G1 X113.395 Y102.940 E0.04843
G1 X117.257 Y96.186 E0.36006
G1 X117.806 Y95.598 E0.03725
G1 X119.042 Y94.761 E0.06908
G1 X120.432 Y94.077 E0.07171
G1 X121.207 Y93.890 E0.03687
G1 X128.543 Y93.878 E0.33956
