; generated by Slic3r 1.33.8.devel on 2018-10-01 at 21:30:50

; 

; external perimeters extrusion width = 0.60mm
; perimeters extrusion width = 0.43mm
; infill extrusion width = 0.70mm
; solid infill extrusion width = 0.70mm
; top infill extrusion width = 0.43mm
; first layer extrusion width = 0.42mm

M107
M115 U3.0.12 ; tell printer latest fw version
M83  ; extruder relative mode
M104 S215 ; set extruder temp
M140 S55 ; set bed temp
M190 S55 ; wait for bed temp
M109 S215 ; wait for extruder temp
G28 W ; home all without mesh bed level
G80 ; mesh bed leveling
G1 Y-3.0 F1000.0 ; go outside pritn area
G1 X60.0 E9.0  F1000.0 ; intro line
G1 X100.0 E12.5  F1000.0 ; intro line
; Filament gcode

G21 ; set units to millimeters
G90 ; use absolute coordinates
M83 ; use relative distances for extrusion
G1 E-0.80000 F2100.00000
G1 Z0.200 F7200.000
G1 X31.944 Y66.468 F7200.000
G1 E0.80000 F2100.00000
M204 S1000
G1 F2100
G1 X32.464 Y65.686 E0.02824
G1 X85.688 Y12.461 E2.26414
G1 X86.450 Y11.951 E0.02755
G1 X87.362 Y11.768 E0.02800
G1 X162.637 Y11.768 E2.26427
G1 X163.536 Y11.945 E0.02755
G1 X164.303 Y12.453 E0.02767
G1 X217.539 Y65.688 E2.26461
G1 X218.047 Y66.446 E0.02744
G1 X218.232 Y67.366 E0.02824
G1 X218.232 Y142.637 E2.26414
G1 X218.056 Y143.532 E0.02744
G1 X217.536 Y144.314 E0.02824
G1 X164.312 Y197.539 E2.26414
G1 X163.543 Y198.051 E0.02778
G1 X162.634 Y198.232 E0.02791
G1 X87.363 Y198.232 E2.26414
G1 X86.468 Y198.056 E0.02744
G1 X85.686 Y197.536 E0.02824
G1 X32.461 Y144.312 E2.26414
G1 X31.949 Y143.543 E0.02778
G1 X31.768 Y142.634 E0.02791
G1 X31.768 Y67.363 E2.26414
G1 X31.932 Y66.526 E0.02564
G1 F5760
G1 X32.464 Y65.686 E-0.34451
G1 F5760
G1 X33.312 Y64.837 E-0.41549
G1 E-0.04000 F2100.00000
G1 X37.106 Y68.593 F7200.000
G1 E0.80000 F2100.00000
G1 F1680
G1 X88.593 Y17.106 E2.19022
G1 X161.407 Y17.106 E2.19022
G1 X212.894 Y68.593 E2.19022
G1 X212.894 Y141.407 E2.19022
G1 X161.407 Y192.894 E2.19022
G1 X88.593 Y192.894 E2.19022
G1 X37.106 Y141.407 E2.19022
G1 X37.106 Y68.653 E2.18842
G1 F5760
G1 X38.657 Y67.101 E-0.76000
G1 E-0.04000 F2100.00000
G1 X122.321 Y165.430 F7200.000
G1 E0.80000 F2100.00000
G1 F1260
G1 X127.679 Y165.430 E0.16114
G1 X127.679 Y192.517 E0.81476
G1 X122.321 Y192.517 E0.16114
G1 X122.321 Y165.490 E0.81296
G1 X122.295 Y165.031 F7200.000
G1 F5760
G1 X124.516 Y165.465 E-0.76000
G1 E-0.04000 F2100.00000
G1 X128.059 Y165.490 F7200.000
G1 E0.80000 F2100.00000
G1 F1260
G1 X128.059 Y165.430 E0.00180
G1 X133.416 Y165.430 E0.16114
G1 X133.416 Y192.517 E0.81476
G1 X128.059 Y192.517 E0.16114
G1 X128.059 Y165.550 E0.81115
G1 X128.005 Y165.463 F7200.000
G1 F5760
G1 X128.059 Y165.430 E-0.04156
G1 F5760
G1 X130.133 Y165.430 E-0.71844
G1 E-0.04000 F2100.00000
G1 X133.796 Y165.550 F7200.000
G1 E0.80000 F2100.00000
G1 F1260
G1 X133.796 Y165.430 E0.00361
G1 X139.153 Y165.430 E0.16114
G1 X139.153 Y192.517 E0.81476
G1 X133.796 Y192.517 E0.16114
G1 X133.796 Y165.610 E0.80935
G1 X133.688 Y165.497 F7200.000
G1 F5760
G1 X133.796 Y165.430 E-0.06234
G1 F5760
G1 X135.810 Y165.430 E-0.69766
G1 E-0.04000 F2100.00000
G1 X139.533 Y165.610 F7200.000
G1 E0.80000 F2100.00000
G1 F1260
G1 X139.533 Y165.430 E0.00541
G1 X144.890 Y165.430 E0.16114
G1 X144.890 Y192.517 E0.81476
G1 X139.533 Y192.517 E0.16114
G1 X139.533 Y165.670 E0.80754
G1 X139.371 Y165.530 F7200.000
G1 F5760
G1 X139.533 Y165.430 E-0.08312
G1 F5760
G1 X141.487 Y165.430 E-0.67687
G1 E-0.04000 F2100.00000
G1 X145.270 Y165.430 F7200.000
G1 E0.80000 F2100.00000
G1 F1260
G1 X150.627 Y165.430 E0.16114
G1 X150.627 Y192.517 E0.81476
G1 X145.270 Y192.517 E0.16114
G1 X145.270 Y165.490 E0.81296
G1 X145.244 Y165.031 F7200.000
G1 F5760
G1 X147.464 Y165.465 E-0.76000
G1 E-0.04000 F2100.00000
G1 X151.007 Y165.490 F7200.000
G1 E0.80000 F2100.00000
G1 F1260
G1 X151.007 Y165.430 E0.00180
G1 X156.364 Y165.430 E0.16114
G1 X156.364 Y192.517 E0.81476
G1 X151.007 Y192.517 E0.16114
G1 X151.007 Y165.550 E0.81115
G1 X150.953 Y165.463 F7200.000
G1 F5760
G1 X151.007 Y165.430 E-0.04156
G1 F5760
G1 X153.081 Y165.430 E-0.71844
G1 E-0.04000 F2100.00000
G1 X156.744 Y165.550 F7200.000
G1 E0.80000 F2100.00000
G1 F1260
G1 X156.744 Y165.430 E0.00361
G1 X162.101 Y165.430 E0.16114
G1 X162.101 Y191.666 E0.78917
G1 X161.251 Y192.517 E0.03619
G1 X156.744 Y192.517 E0.13555
G1 X156.744 Y165.610 E0.80935
G1 X156.637 Y165.496 F7200.000
G1 F5760
G1 X156.744 Y165.430 E-0.06234
G1 F5760
G1 X158.759 Y165.430 E-0.69766
G1 E-0.04000 F2100.00000
G1 X162.481 Y165.610 F7200.000
G1 E0.80000 F2100.00000
G1 F1260
G1 X162.481 Y165.430 E0.00541
G1 X167.839 Y165.430 E0.16114
G1 X167.839 Y185.929 E0.61659
G1 X162.481 Y191.286 E0.22789
G1 X162.481 Y165.670 E0.77052
G1 X162.318 Y165.534 F7200.000
G1 F5760
G1 X162.481 Y165.430 E-0.08312
G1 F5760
G1 X164.436 Y165.430 E-0.67687
G1 E-0.04000 F2100.00000
G1 X168.219 Y165.430 F7200.000
G1 E0.80000 F2100.00000
G1 F1260
G1 X173.576 Y165.430 E0.16114
G1 X173.576 Y180.191 E0.44402
G1 X168.219 Y185.549 E0.22789
G1 X168.219 Y165.490 E0.60336
G1 X168.172 Y165.033 F7200.000
G1 F5760
G1 X170.413 Y165.465 E-0.76000
G1 E-0.04000 F2100.00000
G1 X173.956 Y165.490 F7200.000
G1 E0.80000 F2100.00000
G1 F840
G1 X173.956 Y165.430 E0.00180
G1 X179.313 Y165.430 E0.16114
G1 X179.313 Y174.454 E0.27145
G1 X173.956 Y179.811 E0.22789
G1 X173.956 Y165.550 E0.42898
G1 X173.899 Y165.470 F7200.000
G1 F5760
G1 X173.956 Y165.430 E-0.04156
G1 F5760
G1 X176.030 Y165.430 E-0.71844
G1 E-0.04000 F2100.00000
G1 X179.693 Y165.550 F7200.000
G1 E0.80000 F2100.00000
G1 F840
G1 X179.693 Y165.430 E0.00361
G1 X185.050 Y165.430 E0.16114
G1 X185.050 Y168.717 E0.09888
G1 X179.693 Y174.074 E0.22789
G1 X179.693 Y165.610 E0.25460
G1 X179.575 Y165.529 F7200.000
G1 F5760
G1 X179.693 Y165.430 E-0.06234
G1 F5760
G1 X181.707 Y165.430 E-0.69766
G1 E-0.04000 F2100.00000
G1 X185.430 Y165.610 F7200.000
G1 E0.80000 F2100.00000
G1 F840
G1 X185.430 Y165.430 E0.00541
G1 X188.337 Y165.430 E0.08745
G1 X185.430 Y168.337 E0.12367
G1 X185.430 Y165.670 E0.08023
G1 X185.250 Y165.614 F7200.000
G1 X185.430 Y165.050 F7200.000
G1 F1260
G1 X185.430 Y125.270 E1.19658
G1 X190.787 Y125.270 E0.16114
G1 X190.787 Y162.980 E1.13431
G1 X188.717 Y165.050 E0.08805
G1 X185.490 Y165.050 E0.09707
G1 X185.033 Y165.099 F7200.000
G1 F5760
G1 X185.487 Y162.856 E-0.76000
G1 E-0.04000 F2100.00000
G1 X191.167 Y162.600 F7200.000
G1 E0.80000 F2100.00000
G1 F1260
G1 X191.167 Y125.270 E1.12288
G1 X196.524 Y125.270 E0.16114
G1 X196.524 Y157.243 E0.96174
G1 X191.210 Y162.558 E0.22609
G1 X190.812 Y162.783 F7200.000
G1 F5760
G1 X191.207 Y160.363 E-0.76000
G1 E-0.04000 F2100.00000
G1 X196.904 Y156.863 F7200.000
G1 E0.80000 F2100.00000
G1 F1260
G1 X196.904 Y125.270 E0.95031
G1 X202.261 Y125.270 E0.16114
G1 X202.261 Y151.506 E0.78917
G1 X196.947 Y156.820 E0.22608
G1 X196.547 Y157.043 F7200.000
G1 F5760
G1 X196.944 Y154.626 E-0.76000
G1 E-0.04000 F2100.00000
G1 X202.641 Y151.126 F7200.000
G1 E0.80000 F2100.00000
G1 F1260
G1 X202.641 Y125.270 E0.77774
G1 X207.999 Y125.270 E0.16114
G1 X207.999 Y145.769 E0.61659
G1 X202.684 Y151.083 E0.22609
G1 X202.282 Y151.302 F7200.000
G1 F5760
G1 X202.680 Y148.889 E-0.76000
G1 E-0.04000 F2100.00000
G1 X208.379 Y145.389 F7200.000
G1 E0.80000 F2100.00000
G1 F1260
G1 X208.379 Y125.270 E0.60516
G1 X212.517 Y125.270 E0.12447
G1 X212.517 Y141.251 E0.48069
G1 X208.421 Y145.346 E0.17422
G1 X208.019 Y145.565 F7200.000
G1 F5760
G1 X208.416 Y143.152 E-0.76000
G1 E-0.04000 F2100.00000
G1 X179.693 Y125.270 F7200.000
G1 E0.80000 F2100.00000
G1 F1260
G1 X185.050 Y125.270 E0.16114
G1 X185.050 Y165.050 E1.19658
G1 X179.693 Y165.050 E0.16114
G1 X179.693 Y125.330 E1.19477
G1 X179.675 Y124.870 F7200.000
G1 X179.313 Y125.330 F7200.000
G1 F1260
G1 X179.313 Y165.050 E1.19477
G1 X173.956 Y165.050 E0.16114
G1 X173.956 Y125.270 E1.19658
G1 X179.313 Y125.270 E0.16114
G1 X179.668 Y125.146 F7200.000
G1 F5760
G1 X179.313 Y127.464 E-0.76000
G1 E-0.04000 F2100.00000
G1 X173.576 Y125.270 F7200.000
G1 E0.80000 F2100.00000
G1 F1260
G1 X173.576 Y165.050 E1.19658
G1 X168.219 Y165.050 E0.16114
G1 X168.219 Y125.270 E1.19658
G1 X173.516 Y125.270 E0.15934
G1 X173.931 Y125.086 F7200.000
G1 F5760
G1 X173.519 Y127.464 E-0.76000
G1 E-0.04000 F2100.00000
G1 X167.839 Y125.270 F7200.000
G1 E0.80000 F2100.00000
G1 F1260
G1 X167.839 Y165.050 E1.19658
G1 X162.481 Y165.050 E0.16114
G1 X162.481 Y125.270 E1.19658
G1 X167.779 Y125.270 E0.15934
G1 X168.194 Y125.086 F7200.000
G1 F5760
G1 X167.782 Y127.464 E-0.76000
G1 E-0.04000 F2100.00000
G1 X162.101 Y125.270 F7200.000
G1 E0.80000 F2100.00000
G1 F1260
G1 X162.101 Y165.050 E1.19658
G1 X156.744 Y165.050 E0.16114
G1 X156.744 Y125.270 E1.19658
G1 X162.041 Y125.270 E0.15934
G1 X162.456 Y125.086 F7200.000
G1 F5760
G1 X162.045 Y127.464 E-0.76000
G1 E-0.04000 F2100.00000
G1 X156.364 Y125.270 F7200.000
G1 E0.80000 F2100.00000
G1 F1260
G1 X156.364 Y165.050 E1.19658
G1 X151.007 Y165.050 E0.16114
G1 X151.007 Y125.270 E1.19658
G1 X156.304 Y125.270 E0.15934
G1 X156.719 Y125.086 F7200.000
G1 F5760
G1 X156.308 Y127.464 E-0.76000
G1 E-0.04000 F2100.00000
G1 X150.627 Y125.270 F7200.000
G1 E0.80000 F2100.00000
G1 F1260
G1 X150.627 Y165.050 E1.19658
G1 X145.270 Y165.050 E0.16114
G1 X145.270 Y125.270 E1.19658
G1 X150.567 Y125.270 E0.15934
G1 X150.982 Y125.086 F7200.000
G1 F5760
G1 X150.570 Y127.464 E-0.76000
G1 E-0.04000 F2100.00000
G1 X144.890 Y125.270 F7200.000
G1 E0.80000 F2100.00000
G1 F1260
G1 X144.890 Y165.050 E1.19658
G1 X139.533 Y165.050 E0.16114
G1 X139.533 Y125.270 E1.19658
G1 X144.830 Y125.270 E0.15934
G1 X145.245 Y125.086 F7200.000
G1 F5760
G1 X144.833 Y127.464 E-0.76000
G1 E-0.04000 F2100.00000
G1 X139.153 Y125.270 F7200.000
G1 E0.80000 F2100.00000
G1 F1260
G1 X139.153 Y165.050 E1.19658
G1 X133.796 Y165.050 E0.16114
G1 X133.796 Y125.270 E1.19658
G1 X139.093 Y125.270 E0.15934
G1 X139.508 Y125.086 F7200.000
G1 F5760
G1 X139.096 Y127.464 E-0.76000
G1 E-0.04000 F2100.00000
G1 X133.416 Y125.270 F7200.000
G1 E0.80000 F2100.00000
G1 F1260
G1 X133.416 Y165.050 E1.19658
G1 X128.059 Y165.050 E0.16114
G1 X128.059 Y125.270 E1.19658
G1 X133.356 Y125.270 E0.15934
G1 X133.771 Y125.086 F7200.000
G1 F5760
G1 X133.359 Y127.464 E-0.76000
G1 E-0.04000 F2100.00000
G1 X127.679 Y125.270 F7200.000
G1 E0.80000 F2100.00000
G1 F1260
G1 X127.679 Y165.050 E1.19658
G1 X122.321 Y165.050 E0.16114
G1 X122.321 Y125.270 E1.19658
G1 X127.619 Y125.270 E0.15934
G1 X128.034 Y125.086 F7200.000
G1 F5760
G1 X127.622 Y127.464 E-0.76000
G1 E-0.04000 F2100.00000
G1 X121.941 Y125.270 F7200.000
G1 E0.80000 F2100.00000
G1 F1260
G1 X121.941 Y165.050 E1.19658
G1 X116.584 Y165.050 E0.16114
G1 X116.584 Y125.270 E1.19658
G1 X121.881 Y125.270 E0.15934
G1 X122.296 Y125.086 F7200.000
G1 F5760
G1 X121.885 Y127.464 E-0.76000
G1 E-0.04000 F2100.00000
G1 X116.204 Y125.270 F7200.000
G1 E0.80000 F2100.00000
G1 F1260
G1 X116.204 Y165.050 E1.19658
G1 X110.847 Y165.050 E0.16114
G1 X110.847 Y125.270 E1.19658
G1 X116.144 Y125.270 E0.15934
G1 X116.559 Y125.086 F7200.000
G1 F5760
G1 X116.148 Y127.464 E-0.76000
G1 E-0.04000 F2100.00000
G1 X110.467 Y125.270 F7200.000
G1 E0.80000 F2100.00000
G1 F1260
G1 X110.467 Y165.050 E1.19658
G1 X105.110 Y165.050 E0.16114
G1 X105.110 Y125.270 E1.19658
G1 X110.407 Y125.270 E0.15934
G1 X110.822 Y125.086 F7200.000
G1 F5760
G1 X110.410 Y127.464 E-0.76000
G1 E-0.04000 F2100.00000
G1 X104.730 Y125.270 F7200.000
G1 E0.80000 F2100.00000
G1 F1260
G1 X104.730 Y165.050 E1.19658
G1 X99.373 Y165.050 E0.16114
G1 X99.373 Y125.270 E1.19658
G1 X104.670 Y125.270 E0.15934
G1 X105.085 Y125.086 F7200.000
G1 F5760
G1 X104.673 Y127.464 E-0.76000
G1 E-0.04000 F2100.00000
G1 X98.993 Y125.270 F7200.000
G1 E0.80000 F2100.00000
G1 F1260
G1 X98.993 Y165.050 E1.19658
G1 X93.636 Y165.050 E0.16114
G1 X93.636 Y125.270 E1.19658
G1 X98.933 Y125.270 E0.15934
G1 X99.348 Y125.086 F7200.000
G1 F5760
G1 X98.936 Y127.464 E-0.76000
G1 E-0.04000 F2100.00000
G1 X93.256 Y125.270 F7200.000
G1 E0.80000 F2100.00000
G1 F1260
G1 X93.256 Y165.050 E1.19658
G1 X87.899 Y165.050 E0.16114
G1 X87.899 Y125.270 E1.19658
G1 X93.196 Y125.270 E0.15934
G1 X93.611 Y125.086 F7200.000
G1 F5760
G1 X93.199 Y127.464 E-0.76000
G1 E-0.04000 F2100.00000
G1 X87.519 Y125.270 F7200.000
G1 E0.80000 F2100.00000
G1 F1260
G1 X87.519 Y165.050 E1.19658
G1 X82.161 Y165.050 E0.16114
G1 X82.161 Y125.270 E1.19658
G1 X87.459 Y125.270 E0.15934
G1 X87.874 Y125.086 F7200.000
G1 F5760
G1 X87.462 Y127.464 E-0.76000
G1 E-0.04000 F2100.00000
G1 X81.781 Y125.270 F7200.000
G1 E0.80000 F2100.00000
G1 F1260
G1 X81.781 Y165.050 E1.19658
G1 X76.424 Y165.050 E0.16114
G1 X76.424 Y125.270 E1.19658
G1 X81.721 Y125.270 E0.15934
G1 X82.136 Y125.086 F7200.000
G1 F5760
G1 X81.725 Y127.464 E-0.76000
G1 E-0.04000 F2100.00000
G1 X76.044 Y125.270 F7200.000
G1 E0.80000 F2100.00000
G1 F1260
G1 X76.044 Y165.050 E1.19658
G1 X70.687 Y165.050 E0.16114
G1 X70.687 Y125.270 E1.19658
G1 X75.984 Y125.270 E0.15934
G1 X76.399 Y125.086 F7200.000
G1 F5760
G1 X75.988 Y127.464 E-0.76000
G1 E-0.04000 F2100.00000
G1 X70.307 Y125.270 F7200.000
G1 E0.80000 F2100.00000
G1 F1260
G1 X70.307 Y165.050 E1.19658
G1 X64.950 Y165.050 E0.16114
G1 X64.950 Y125.270 E1.19658
G1 X70.247 Y125.270 E0.15934
G1 X70.662 Y125.086 F7200.000
G1 F5760
G1 X70.250 Y127.464 E-0.76000
G1 E-0.04000 F2100.00000
G1 X64.570 Y125.270 F7200.000
G1 E0.80000 F2100.00000
G1 F1260
G1 X64.570 Y165.050 E1.19658
G1 X61.283 Y165.050 E0.09888
G1 X59.213 Y162.980 E0.08805
G1 X59.213 Y125.270 E1.13431
G1 X64.510 Y125.270 E0.15934
G1 X64.925 Y125.087 F7200.000
G1 F5760
G1 X64.513 Y127.464 E-0.76000
G1 E-0.04000 F2100.00000
G1 X58.833 Y125.270 F7200.000
G1 E0.80000 F2100.00000
G1 F1260
G1 X58.833 Y162.600 E1.12288
G1 X53.476 Y157.243 E0.22789
G1 X53.476 Y125.270 E0.96174
G1 X58.773 Y125.270 E0.15934
G1 X59.190 Y125.089 F7200.000
G1 F5760
G1 X58.776 Y127.464 E-0.76000
G1 E-0.04000 F2100.00000
G1 X53.096 Y125.270 F7200.000
G1 E0.80000 F2100.00000
G1 F1260
G1 X53.096 Y156.863 E0.95031
G1 X47.739 Y151.506 E0.22789
G1 X47.739 Y125.270 E0.78917
G1 X53.036 Y125.270 E0.15934
G1 X53.455 Y125.094 F7200.000
G1 F5760
G1 X53.040 Y127.464 E-0.76000
G1 E-0.04000 F2100.00000
G1 X47.359 Y125.270 F7200.000
G1 E0.80000 F2100.00000
G1 F1260
G1 X47.359 Y151.126 E0.77774
G1 X42.001 Y145.769 E0.22789
G1 X42.001 Y125.270 E0.61659
G1 X47.299 Y125.270 E0.15934
G1 X47.721 Y125.100 F7200.000
G1 F5760
G1 X47.304 Y127.464 E-0.76000
G1 E-0.04000 F2100.00000
G1 X41.621 Y125.270 F7200.000
G1 E0.80000 F2100.00000
G1 F1260
G1 X41.621 Y145.389 E0.60516
G1 X37.483 Y141.251 E0.17603
G1 X37.483 Y125.270 E0.48069
G1 X41.561 Y125.270 E0.12267
G1 X41.983 Y125.100 F7200.000
G1 X41.561 Y124.890 F7200.000
G1 F1260
G1 X37.483 Y124.890 E0.12267
G1 X37.483 Y85.110 E1.19658
G1 X41.621 Y85.110 E0.12447
G1 X41.621 Y124.890 E1.19658
G1 X41.575 Y125.290 F7200.000
G1 X42.001 Y124.890 F7200.000
G1 F1260
G1 X42.001 Y85.110 E1.19658
G1 X47.359 Y85.110 E0.16114
G1 X47.359 Y124.890 E1.19658
G1 X42.061 Y124.890 E0.15934
G1 X41.646 Y125.074 F7200.000
G1 F5760
G1 X42.058 Y122.696 E-0.76000
G1 E-0.04000 F2100.00000
G1 X47.739 Y124.890 F7200.000
G1 E0.80000 F2100.00000
G1 F1260
G1 X47.739 Y85.110 E1.19658
G1 X53.096 Y85.110 E0.16114
G1 X53.096 Y124.890 E1.19658
G1 X47.799 Y124.890 E0.15934
G1 X47.384 Y125.074 F7200.000
G1 F5760
G1 X47.795 Y122.696 E-0.76000
G1 E-0.04000 F2100.00000
G1 X53.476 Y124.890 F7200.000
G1 E0.80000 F2100.00000
G1 F1260
G1 X53.476 Y85.110 E1.19658
G1 X58.833 Y85.110 E0.16114
G1 X58.833 Y124.890 E1.19658
G1 X53.536 Y124.890 E0.15934
G1 X53.121 Y125.074 F7200.000
G1 F5760
G1 X53.532 Y122.696 E-0.76000
G1 E-0.04000 F2100.00000
G1 X59.213 Y124.890 F7200.000
G1 E0.80000 F2100.00000
G1 F1260
G1 X59.213 Y85.110 E1.19658
G1 X64.570 Y85.110 E0.16114
G1 X64.570 Y124.890 E1.19658
G1 X59.273 Y124.890 E0.15934
G1 X58.858 Y125.074 F7200.000
G1 F5760
G1 X59.270 Y122.696 E-0.76000
G1 E-0.04000 F2100.00000
G1 X64.950 Y124.890 F7200.000
G1 E0.80000 F2100.00000
G1 F1260
G1 X64.950 Y85.110 E1.19658
G1 X70.307 Y85.110 E0.16114
G1 X70.307 Y124.890 E1.19658
G1 X65.010 Y124.890 E0.15934
G1 X64.595 Y125.074 F7200.000
G1 F5760
G1 X65.007 Y122.696 E-0.76000
G1 E-0.04000 F2100.00000
G1 X70.687 Y124.890 F7200.000
