; generated by Slic3r 1.33.8.devel on 2018-10-01 at 14:33:08

; 

; external perimeters extrusion width = 0.60mm
; perimeters extrusion width = 0.43mm
; infill extrusion width = 0.70mm
; solid infill extrusion width = 0.70mm
; top infill extrusion width = 0.43mm
; first layer extrusion width = 0.42mm

M107
M115 U3.0.12 ; tell printer latest fw version
M83  ; extruder relative mode
M104 S215 ; set extruder temp
M140 S55 ; set bed temp
M190 S55 ; wait for bed temp
M109 S215 ; wait for extruder temp
G28 W ; home all without mesh bed level
G80 ; mesh bed leveling
G1 Y-3.0 F1000.0 ; go outside pritn area
G1 X60.0 E9.0  F1000.0 ; intro line
G1 X100.0 E12.5  F1000.0 ; intro line
; Filament gcode

G21 ; set units to millimeters
G90 ; use absolute coordinates
M83 ; use relative distances for extrusion
G1 E-0.80000 F2100.00000
G1 Z0.200 F7200.000
G1 X31.944 Y66.468 F7200.000
G1 E0.80000 F2100.00000
M204 S1000
G1 F2100
G1 X32.464 Y65.686 E0.02824
G1 X85.688 Y12.461 E2.26414
G1 X86.450 Y11.951 E0.02755
G1 X87.362 Y11.768 E0.02800
G1 X162.637 Y11.768 E2.26427
G1 X163.536 Y11.945 E0.02755
G1 X164.303 Y12.453 E0.02767
G1 X217.539 Y65.688 E2.26461
G1 X218.047 Y66.446 E0.02744
G1 X218.232 Y67.366 E0.02824
G1 X218.232 Y142.637 E2.26414
G1 X218.056 Y143.532 E0.02744
G1 X217.536 Y144.314 E0.02824
G1 X164.312 Y197.539 E2.26414
G1 X163.543 Y198.051 E0.02778
G1 X162.634 Y198.232 E0.02791
G1 X87.363 Y198.232 E2.26414
G1 X86.468 Y198.056 E0.02744
G1 X85.686 Y197.536 E0.02824
G1 X32.461 Y144.312 E2.26414
G1 X31.949 Y143.543 E0.02778
G1 X31.768 Y142.634 E0.02791
G1 X31.768 Y67.363 E2.26414
G1 X31.932 Y66.526 E0.02564
G1 F5760
G1 X32.464 Y65.686 E-0.34451
G1 F5760
G1 X33.312 Y64.837 E-0.41549
G1 E-0.04000 F2100.00000
G1 X37.106 Y68.593 F7200.000
G1 E0.80000 F2100.00000
G1 F1680
G1 X61.127 Y44.573 E1.02181
G1 X61.704 Y44.573 E0.01738
G1 X61.704 Y43.995 E0.01738
G1 X88.593 Y17.106 E1.14384
G1 X161.407 Y17.106 E2.19022
G1 X188.296 Y43.995 E1.14384
G1 X188.296 Y44.573 E0.01738
G1 X188.873 Y44.573 E0.01738
G1 X212.894 Y68.593 E1.02181
G1 X212.894 Y141.407 E2.19022
G1 X188.873 Y165.427 E1.02181
G1 X188.296 Y165.427 E0.01738
G1 X188.296 Y166.005 E0.01738
G1 X161.407 Y192.894 E1.14384
G1 X88.593 Y192.894 E2.19022
G1 X61.704 Y166.005 E1.14384
G1 X61.704 Y165.427 E0.01738
G1 X61.127 Y165.427 E0.01738
G1 X37.106 Y141.407 E1.02181
G1 X37.106 Y68.653 E2.18842
G1 F5760
G1 X38.656 Y67.100 E-0.76000
G1 E-0.04000 F2100.00000
G1 X87.899 Y165.430 F7200.000
G1 E0.80000 F2100.00000
G1 F1260
G1 X90.387 Y165.430 E0.07485
G1 X90.387 Y192.517 E0.81476
G1 X88.749 Y192.517 E0.04926
G1 X87.899 Y191.666 E0.03619
G1 X87.899 Y165.490 E0.78736
G1 X87.894 Y165.030 F7200.000
G1 F5760
G1 X90.092 Y165.437 E-0.76000
G1 E-0.04000 F2100.00000
G1 X90.767 Y165.490 F7200.000
G1 E0.80000 F2100.00000
G1 F1260
G1 X90.767 Y165.430 E0.00180
G1 X93.256 Y165.430 E0.07486
G1 X93.256 Y192.517 E0.81476
G1 X90.767 Y192.517 E0.07486
G1 X90.767 Y165.550 E0.81115
G1 X90.714 Y165.462 F7200.000
G1 F5760
G1 X90.767 Y165.430 E-0.04156
G1 F5760
G1 X92.841 Y165.430 E-0.71844
G1 E-0.04000 F2100.00000
G1 X93.636 Y165.550 F7200.000
G1 E0.80000 F2100.00000
G1 F1260
G1 X93.636 Y165.430 E0.00361
G1 X96.124 Y165.430 E0.07486
G1 X96.124 Y192.517 E0.81476
G1 X93.636 Y192.517 E0.07486
G1 X93.636 Y165.610 E0.80935
G1 X93.530 Y165.493 F7200.000
G1 F5760
G1 X93.636 Y165.430 E-0.06234
G1 F5760
G1 X95.650 Y165.430 E-0.69766
G1 E-0.04000 F2100.00000
G1 X96.504 Y165.610 F7200.000
G1 E0.80000 F2100.00000
G1 F1260
G1 X96.504 Y165.430 E0.00541
G1 X98.993 Y165.430 E0.07486
G1 X98.993 Y192.517 E0.81476
G1 X96.504 Y192.517 E0.07486
G1 X96.504 Y165.670 E0.80754
G1 X96.346 Y165.525 F7200.000
G1 F5760
G1 X96.504 Y165.430 E-0.08312
G1 F5760
G1 X98.459 Y165.430 E-0.67687
G1 E-0.04000 F2100.00000
G1 X99.373 Y165.430 F7200.000
G1 E0.80000 F2100.00000
G1 F1260
G1 X101.861 Y165.430 E0.07485
G1 X101.861 Y192.517 E0.81476
G1 X99.373 Y192.517 E0.07485
G1 X99.373 Y165.490 E0.81296
G1 X99.361 Y165.030 F7200.000
G1 F5760
G1 X101.567 Y165.437 E-0.76000
G1 E-0.04000 F2100.00000
G1 X102.241 Y165.490 F7200.000
G1 E0.80000 F2100.00000
G1 F1260
G1 X102.241 Y165.430 E0.00180
G1 X104.730 Y165.430 E0.07486
G1 X104.730 Y192.517 E0.81476
G1 X102.241 Y192.517 E0.07486
G1 X102.241 Y165.550 E0.81115
G1 X102.189 Y165.462 F7200.000
G1 F5760
G1 X102.241 Y165.430 E-0.04156
G1 F5760
G1 X104.316 Y165.430 E-0.71844
G1 E-0.04000 F2100.00000
G1 X105.110 Y165.550 F7200.000
G1 E0.80000 F2100.00000
G1 F1260
G1 X105.110 Y165.430 E0.00361
G1 X107.599 Y165.430 E0.07486
G1 X107.599 Y192.517 E0.81476
G1 X105.110 Y192.517 E0.07486
G1 X105.110 Y165.610 E0.80935
G1 X105.004 Y165.493 F7200.000
G1 F5760
G1 X105.110 Y165.430 E-0.06234
G1 F5760
G1 X107.124 Y165.430 E-0.69766
G1 E-0.04000 F2100.00000
G1 X107.979 Y165.610 F7200.000
G1 E0.80000 F2100.00000
G1 F1260
G1 X107.979 Y165.430 E0.00541
G1 X110.467 Y165.430 E0.07485
G1 X110.467 Y192.517 E0.81476
G1 X107.979 Y192.517 E0.07485
G1 X107.979 Y165.670 E0.80754
G1 X107.820 Y165.525 F7200.000
G1 F5760
G1 X107.979 Y165.430 E-0.08312
G1 F5760
G1 X109.933 Y165.430 E-0.67687
G1 E-0.04000 F2100.00000
G1 X110.847 Y165.430 F7200.000
G1 E0.80000 F2100.00000
G1 F1260
G1 X113.336 Y165.430 E0.07486
G1 X113.336 Y192.517 E0.81476
G1 X110.847 Y192.517 E0.07486
G1 X110.847 Y165.490 E0.81296
G1 X110.835 Y165.030 F7200.000
G1 F5760
G1 X113.041 Y165.437 E-0.76000
G1 E-0.04000 F2100.00000
G1 X113.716 Y165.490 F7200.000
G1 E0.80000 F2100.00000
G1 F1260
G1 X113.716 Y165.430 E0.00180
G1 X116.204 Y165.430 E0.07486
G1 X116.204 Y192.517 E0.81476
G1 X113.716 Y192.517 E0.07486
G1 X113.716 Y165.550 E0.81115
G1 X113.663 Y165.462 F7200.000
G1 F5760
G1 X113.716 Y165.430 E-0.04156
G1 F5760
G1 X115.790 Y165.430 E-0.71844
G1 E-0.04000 F2100.00000
G1 X116.584 Y165.550 F7200.000
G1 E0.80000 F2100.00000
G1 F1260
G1 X116.584 Y165.430 E0.00361
G1 X119.073 Y165.430 E0.07486
G1 X119.073 Y192.517 E0.81476
G1 X116.584 Y192.517 E0.07486
G1 X116.584 Y165.610 E0.80935
G1 X116.479 Y165.493 F7200.000
G1 F5760
G1 X116.584 Y165.430 E-0.06234
G1 F5760
G1 X118.599 Y165.430 E-0.69766
G1 E-0.04000 F2100.00000
G1 X119.453 Y165.610 F7200.000
G1 E0.80000 F2100.00000
G1 F1260
G1 X119.453 Y165.430 E0.00541
G1 X121.941 Y165.430 E0.07486
G1 X121.941 Y192.517 E0.81476
G1 X119.453 Y192.517 E0.07486
G1 X119.453 Y165.670 E0.80754
G1 X119.294 Y165.525 F7200.000
G1 F5760
G1 X119.453 Y165.430 E-0.08312
G1 F5760
G1 X121.407 Y165.430 E-0.67687
G1 E-0.04000 F2100.00000
G1 X122.321 Y165.430 F7200.000
G1 E0.80000 F2100.00000
G1 F1260
G1 X124.810 Y165.430 E0.07486
G1 X124.810 Y192.517 E0.81476
G1 X122.321 Y192.517 E0.07486
G1 X122.321 Y165.490 E0.81296
G1 X122.309 Y165.030 F7200.000
G1 F5760
G1 X124.515 Y165.437 E-0.76000
G1 E-0.04000 F2100.00000
G1 X125.190 Y165.490 F7200.000
G1 E0.80000 F2100.00000
G1 F1260
G1 X125.190 Y165.430 E0.00180
G1 X127.679 Y165.430 E0.07486
G1 X127.679 Y192.517 E0.81476
G1 X125.190 Y192.517 E0.07486
G1 X125.190 Y165.550 E0.81115
G1 X125.137 Y165.462 F7200.000
G1 F5760
G1 X125.190 Y165.430 E-0.04156
G1 F5760
G1 X127.264 Y165.430 E-0.71844
G1 E-0.04000 F2100.00000
G1 X128.059 Y165.550 F7200.000
G1 E0.80000 F2100.00000
G1 F1260
G1 X128.059 Y165.430 E0.00361
G1 X130.547 Y165.430 E0.07486
G1 X130.547 Y192.517 E0.81476
G1 X128.059 Y192.517 E0.07486
G1 X128.059 Y165.610 E0.80935
G1 X127.953 Y165.493 F7200.000
G1 F5760
G1 X128.059 Y165.430 E-0.06234
G1 F5760
G1 X130.073 Y165.430 E-0.69766
G1 E-0.04000 F2100.00000
G1 X130.927 Y165.610 F7200.000
G1 E0.80000 F2100.00000
G1 F1260
G1 X130.927 Y165.430 E0.00541
G1 X133.416 Y165.430 E0.07486
G1 X133.416 Y192.517 E0.81476
G1 X130.927 Y192.517 E0.07486
G1 X130.927 Y165.670 E0.80754
G1 X130.769 Y165.525 F7200.000
G1 F5760
G1 X130.927 Y165.430 E-0.08312
G1 F5760
G1 X132.881 Y165.430 E-0.67687
G1 E-0.04000 F2100.00000
G1 X133.796 Y165.430 F7200.000
G1 E0.80000 F2100.00000
G1 F1260
G1 X136.284 Y165.430 E0.07486
G1 X136.284 Y192.517 E0.81476
G1 X133.796 Y192.517 E0.07486
G1 X133.796 Y165.490 E0.81296
G1 X133.783 Y165.030 F7200.000
G1 F5760
G1 X135.989 Y165.437 E-0.76000
G1 E-0.04000 F2100.00000
G1 X136.664 Y165.490 F7200.000
G1 E0.80000 F2100.00000
G1 F1260
G1 X136.664 Y165.430 E0.00180
G1 X139.153 Y165.430 E0.07486
G1 X139.153 Y192.517 E0.81476
G1 X136.664 Y192.517 E0.07486
G1 X136.664 Y165.550 E0.81115
G1 X136.611 Y165.462 F7200.000
G1 F5760
G1 X136.664 Y165.430 E-0.04156
G1 F5760
G1 X138.739 Y165.430 E-0.71844
G1 E-0.04000 F2100.00000
G1 X139.533 Y165.550 F7200.000
G1 E0.80000 F2100.00000
G1 F1260
G1 X139.533 Y165.430 E0.00361
G1 X142.021 Y165.430 E0.07485
G1 X142.021 Y192.517 E0.81476
G1 X139.533 Y192.517 E0.07485
G1 X139.533 Y165.610 E0.80935
G1 X139.427 Y165.493 F7200.000
G1 F5760
G1 X139.533 Y165.430 E-0.06234
G1 F5760
G1 X141.547 Y165.430 E-0.69766
G1 E-0.04000 F2100.00000
G1 X142.401 Y165.610 F7200.000
G1 E0.80000 F2100.00000
G1 F1260
G1 X142.401 Y165.430 E0.00541
G1 X144.890 Y165.430 E0.07486
G1 X144.890 Y192.517 E0.81476
G1 X142.401 Y192.517 E0.07486
G1 X142.401 Y165.670 E0.80754
G1 X142.243 Y165.525 F7200.000
G1 F5760
G1 X142.401 Y165.430 E-0.08312
G1 F5760
G1 X144.356 Y165.430 E-0.67687
G1 E-0.04000 F2100.00000
G1 X145.270 Y165.430 F7200.000
G1 E0.80000 F2100.00000
G1 F1260
G1 X147.759 Y165.430 E0.07486
G1 X147.759 Y192.517 E0.81476
G1 X145.270 Y192.517 E0.07486
G1 X145.270 Y165.490 E0.81296
G1 X145.258 Y165.030 F7200.000
G1 F5760
G1 X147.464 Y165.437 E-0.76000
G1 E-0.04000 F2100.00000
G1 X148.139 Y165.490 F7200.000
G1 E0.80000 F2100.00000
G1 F1260
G1 X148.139 Y165.430 E0.00180
G1 X150.627 Y165.430 E0.07485
G1 X150.627 Y192.517 E0.81476
G1 X148.139 Y192.517 E0.07485
G1 X148.139 Y165.550 E0.81115
G1 X148.086 Y165.462 F7200.000
G1 F5760
G1 X148.139 Y165.430 E-0.04156
G1 F5760
G1 X150.213 Y165.430 E-0.71844
G1 E-0.04000 F2100.00000
G1 X151.007 Y165.550 F7200.000
G1 E0.80000 F2100.00000
G1 F1260
G1 X151.007 Y165.430 E0.00361
G1 X153.496 Y165.430 E0.07486
G1 X153.496 Y192.517 E0.81476
G1 X151.007 Y192.517 E0.07486
G1 X151.007 Y165.610 E0.80935
G1 X150.901 Y165.493 F7200.000
G1 F5760
G1 X151.007 Y165.430 E-0.06234
G1 F5760
G1 X153.021 Y165.430 E-0.69766
G1 E-0.04000 F2100.00000
G1 X153.876 Y165.610 F7200.000
G1 E0.80000 F2100.00000
G1 F1260
G1 X153.876 Y165.430 E0.00541
G1 X156.364 Y165.430 E0.07486
G1 X156.364 Y192.517 E0.81476
G1 X153.876 Y192.517 E0.07486
G1 X153.876 Y165.670 E0.80754
G1 X153.717 Y165.525 F7200.000
G1 F5760
G1 X153.876 Y165.430 E-0.08312
G1 F5760
G1 X155.830 Y165.430 E-0.67687
G1 E-0.04000 F2100.00000
G1 X156.744 Y165.430 F7200.000
G1 E0.80000 F2100.00000
G1 F1260
G1 X159.233 Y165.430 E0.07486
G1 X159.233 Y192.517 E0.81476
G1 X156.744 Y192.517 E0.07486
G1 X156.744 Y165.490 E0.81296
G1 X156.732 Y165.030 F7200.000
G1 F5760
G1 X158.938 Y165.437 E-0.76000
G1 E-0.04000 F2100.00000
G1 X159.613 Y165.490 F7200.000
G1 E0.80000 F2100.00000
G1 F1260
G1 X159.613 Y165.430 E0.00180
G1 X162.101 Y165.430 E0.07485
G1 X162.101 Y191.666 E0.78917
G1 X161.251 Y192.517 E0.03619
G1 X159.613 Y192.517 E0.04926
G1 X159.613 Y165.550 E0.81115
G1 X159.560 Y165.461 F7200.000
G1 F5760
G1 X159.613 Y165.430 E-0.04156
G1 F5760
G1 X161.687 Y165.430 E-0.71844
G1 E-0.04000 F2100.00000
G1 X162.481 Y165.550 F7200.000
G1 E0.80000 F2100.00000
G1 F1260
G1 X162.481 Y165.430 E0.00361
G1 X164.970 Y165.430 E0.07486
G1 X164.970 Y188.797 E0.70288
G1 X162.481 Y191.286 E0.10586
G1 X162.481 Y165.610 E0.77232
G1 X162.375 Y165.494 F7200.000
G1 F5760
G1 X162.481 Y165.430 E-0.06234
G1 F5760
G1 X164.496 Y165.430 E-0.69766
G1 E-0.04000 F2100.00000
G1 X165.350 Y165.610 F7200.000
G1 E0.80000 F2100.00000
G1 F1260
G1 X165.350 Y165.430 E0.00541
G1 X167.839 Y165.430 E0.07486
G1 X167.839 Y185.929 E0.61659
G1 X165.350 Y188.417 E0.10586
G1 X165.350 Y165.670 E0.68423
G1 X165.191 Y165.526 F7200.000
G1 F5760
G1 X165.350 Y165.430 E-0.08312
G1 F5760
G1 X167.304 Y165.430 E-0.67687
G1 E-0.04000 F2100.00000
G1 X168.219 Y165.430 F7200.000
G1 E0.80000 F2100.00000
G1 F1260
G1 X170.707 Y165.430 E0.07485
G1 X170.707 Y183.060 E0.53031
G1 X168.219 Y185.549 E0.10586
G1 X168.219 Y165.490 E0.60336
G1 X168.200 Y165.030 F7200.000
G1 F5760
G1 X170.412 Y165.437 E-0.76000
G1 E-0.04000 F2100.00000
G1 X171.087 Y165.490 F7200.000
G1 E0.80000 F2100.00000
G1 F840
G1 X171.087 Y165.430 E0.00180
G1 X173.576 Y165.430 E0.07486
G1 X173.576 Y180.191 E0.44402
G1 X171.087 Y182.680 E0.10586
G1 X171.087 Y165.550 E0.51527
G1 X171.034 Y165.463 F7200.000
G1 F5760
G1 X171.087 Y165.430 E-0.04156
G1 F5760
G1 X173.161 Y165.430 E-0.71844
G1 E-0.04000 F2100.00000
G1 X173.956 Y165.550 F7200.000
G1 E0.80000 F2100.00000
G1 F840
G1 X173.956 Y165.430 E0.00361
G1 X176.444 Y165.430 E0.07486
G1 X176.444 Y177.323 E0.35774
G1 X173.956 Y179.811 E0.10586
G1 X173.956 Y165.610 E0.42718
G1 X173.848 Y165.497 F7200.000
G1 F5760
G1 X173.956 Y165.430 E-0.06234
G1 F5760
G1 X175.970 Y165.430 E-0.69766
G1 E-0.04000 F2100.00000
G1 X176.824 Y165.610 F7200.000
G1 E0.80000 F2100.00000
G1 F840
G1 X176.824 Y165.430 E0.00541
G1 X179.313 Y165.430 E0.07486
G1 X179.313 Y174.454 E0.27145
G1 X176.824 Y176.943 E0.10586
G1 X176.824 Y165.670 E0.33909
G1 X176.661 Y165.535 F7200.000
G1 F5760
G1 X176.824 Y165.430 E-0.08312
G1 F5760
G1 X178.779 Y165.430 E-0.67687
G1 E-0.04000 F2100.00000
G1 X179.693 Y165.430 F7200.000
G1 E0.80000 F2100.00000
G1 F840
G1 X182.181 Y165.430 E0.07485
G1 X182.181 Y171.586 E0.18517
G1 X179.693 Y174.074 E0.10586
G1 X179.693 Y165.490 E0.25821
G1 X179.642 Y165.033 F7200.000
G1 F5760
G1 X181.887 Y165.437 E-0.76000
G1 E-0.04000 F2100.00000
G1 X182.561 Y165.490 F7200.000
G1 E0.80000 F2100.00000
G1 F840
G1 X182.561 Y165.430 E0.00180
G1 X185.050 Y165.430 E0.07486
G1 X185.050 Y168.717 E0.09888
G1 X182.561 Y171.206 E0.10586
G1 X182.561 Y165.550 E0.17012
G1 X182.504 Y165.472 F7200.000
G1 F5760
G1 X182.561 Y165.430 E-0.04156
G1 F5760
G1 X184.636 Y165.430 E-0.71844
G1 E-0.04000 F2100.00000
G1 X185.430 Y165.550 F7200.000
G1 E0.80000 F2100.00000
G1 F840
G1 X185.430 Y165.430 E0.00361
G1 X187.919 Y165.430 E0.07486
G1 X187.919 Y165.849 E0.01259
G1 X185.430 Y168.337 E0.10586
G1 X185.430 Y165.610 E0.08203
G1 X185.310 Y165.545 F7200.000
G1 X185.430 Y165.050 F7200.000
G1 F1260
G1 X185.430 Y125.270 E1.19658
G1 X187.919 Y125.270 E0.07486
G1 X187.919 Y165.050 E1.19658
G1 X185.490 Y165.050 E0.07305
G1 X185.080 Y165.243 F7200.000
G1 F5760
G1 X185.487 Y162.856 E-0.76000
G1 E-0.04000 F2100.00000
G1 X188.299 Y165.050 F7200.000
G1 E0.80000 F2100.00000
G1 F1260
G1 X188.299 Y125.270 E1.19658
G1 X190.787 Y125.270 E0.07485
G1 X190.787 Y162.980 E1.13431
G1 X188.717 Y165.050 E0.08805
G1 X188.359 Y165.050 E0.01079
G1 X187.909 Y165.142 F7200.000
G1 F5760
G1 X188.355 Y162.856 E-0.76000
G1 E-0.04000 F2100.00000
G1 X191.167 Y162.600 F7200.000
G1 E0.80000 F2100.00000
G1 F1260
G1 X191.167 Y125.270 E1.12288
G1 X193.656 Y125.270 E0.07486
G1 X193.656 Y160.111 E1.04803
G1 X191.210 Y162.558 E0.10406
G1 X190.816 Y162.792 F7200.000
G1 F5760
G1 X191.207 Y160.363 E-0.76000
G1 E-0.04000 F2100.00000
G1 X194.036 Y159.731 F7200.000
G1 E0.80000 F2100.00000
G1 F1260
G1 X194.036 Y125.270 E1.03660
G1 X196.524 Y125.270 E0.07486
G1 X196.524 Y157.243 E0.96174
G1 X194.078 Y159.689 E0.10406
G1 X193.685 Y159.923 F7200.000
G1 F5760
G1 X194.075 Y157.495 E-0.76000
G1 E-0.04000 F2100.00000
G1 X196.904 Y156.863 F7200.000
G1 E0.80000 F2100.00000
G1 F1260
G1 X196.904 Y125.270 E0.95031
G1 X199.393 Y125.270 E0.07486
G1 X199.393 Y154.374 E0.87545
G1 X196.947 Y156.820 E0.10406
G1 X196.553 Y157.054 F7200.000
G1 F5760
G1 X196.944 Y154.626 E-0.76000
G1 E-0.04000 F2100.00000
G1 X199.773 Y153.994 F7200.000
G1 E0.80000 F2100.00000
G1 F1260
G1 X199.773 Y125.270 E0.86402
G1 X202.261 Y125.270 E0.07485
G1 X202.261 Y151.506 E0.78917
G1 X199.815 Y153.952 E0.10405
G1 X199.421 Y154.184 F7200.000
G1 F5760
G1 X199.812 Y151.758 E-0.76000
G1 E-0.04000 F2100.00000
G1 X202.641 Y151.126 F7200.000
G1 E0.80000 F2100.00000
G1 F1260
G1 X202.641 Y125.270 E0.77774
G1 X205.130 Y125.270 E0.07486
G1 X205.130 Y148.637 E0.70288
G1 X202.684 Y151.083 E0.10406
G1 X202.289 Y151.315 F7200.000
G1 F5760
G1 X202.680 Y148.889 E-0.76000
G1 E-0.04000 F2100.00000
G1 X205.510 Y148.257 F7200.000
G1 E0.80000 F2100.00000
G1 F1260
