; generated by Slic3r 1.33.8.devel on 2018-10-01 at 10:34:09

; 

; external perimeters extrusion width = 0.60mm
; perimeters extrusion width = 0.43mm
; infill extrusion width = 0.70mm
; solid infill extrusion width = 0.70mm
; top infill extrusion width = 0.43mm
; first layer extrusion width = 0.42mm

M107
M115 U3.0.12 ; tell printer latest fw version
M83  ; extruder relative mode
M104 S215 ; set extruder temp
M140 S55 ; set bed temp
M190 S55 ; wait for bed temp
M109 S215 ; wait for extruder temp
G28 W ; home all without mesh bed level
G80 ; mesh bed leveling
G1 Y-3.0 F1000.0 ; go outside pritn area
G1 X60.0 E9.0  F1000.0 ; intro line
G1 X100.0 E12.5  F1000.0 ; intro line
; Filament gcode

G21 ; set units to millimeters
G90 ; use absolute coordinates
M83 ; use relative distances for extrusion
G1 E-0.80000 F2100.00000
G1 Z0.200 F7200.000
G1 X31.772 Y66.396 F7200.000
G1 E0.80000 F2100.00000
M204 S1000
G1 F2100
G1 X32.292 Y65.614 E0.02824
G1 X85.617 Y12.289 E2.26842
G1 X86.378 Y11.780 E0.02755
G1 X87.287 Y11.596 E0.02789
G1 X162.709 Y11.596 E2.26867
G1 X163.607 Y11.774 E0.02755
G1 X164.374 Y12.281 E0.02767
G1 X217.711 Y65.617 E2.26890
G1 X218.219 Y66.375 E0.02744
G1 X218.404 Y67.295 E0.02824
G1 X218.404 Y142.709 E2.26842
G1 X218.228 Y143.604 E0.02744
G1 X217.708 Y144.386 E0.02824
G1 X164.383 Y197.711 E2.26842
G1 X163.615 Y198.223 E0.02778
G1 X162.705 Y198.404 E0.02791
G1 X87.291 Y198.404 E2.26842
G1 X86.396 Y198.228 E0.02744
G1 X85.614 Y197.708 E0.02824
G1 X32.289 Y144.383 E2.26842
G1 X31.777 Y143.615 E0.02778
G1 X31.596 Y142.705 E0.02791
G1 X31.596 Y67.291 E2.26842
G1 X31.760 Y66.455 E0.02564
G1 F5760
G1 X32.292 Y65.614 E-0.34451
G1 F5760
G1 X33.140 Y64.766 E-0.41549
G1 E-0.04000 F2100.00000
G1 X70.167 Y83.057 F7200.000
G1 E0.80000 F2100.00000
G1 F1680
G1 X71.764 Y79.363 E0.12105
G1 X74.031 Y75.109 E0.14499
G1 X76.637 Y71.054 E0.14499
G1 X79.565 Y67.225 E0.14499
G1 X82.795 Y63.647 E0.14499
G1 X86.306 Y60.345 E0.14499
G1 X90.075 Y57.339 E0.14499
G1 X94.075 Y54.651 E0.14499
G1 X98.282 Y52.298 E0.14499
G1 X102.667 Y50.296 E0.14499
G1 X107.200 Y48.657 E0.14499
G1 X111.852 Y47.394 E0.14499
G1 X116.591 Y46.514 E0.14499
G1 X121.386 Y46.023 E0.14499
G1 X126.205 Y45.925 E0.14499
G1 X131.016 Y46.220 E0.14499
G1 X135.788 Y46.906 E0.14499
G1 X140.487 Y47.978 E0.14499
G1 X145.083 Y49.430 E0.14499
G1 X149.546 Y51.252 E0.14499
G1 X153.845 Y53.432 E0.14499
G1 X157.952 Y55.954 E0.14499
G1 X161.841 Y58.804 E0.14499
G1 X165.483 Y61.960 E0.14499
G1 X168.857 Y65.403 E0.14499
G1 X171.938 Y69.110 E0.14499
G1 X174.708 Y73.055 E0.14499
G1 X177.146 Y77.213 E0.14499
G1 X179.237 Y81.556 E0.14499
G1 X180.968 Y86.055 E0.14499
G1 X182.326 Y90.679 E0.14499
G1 X183.302 Y95.400 E0.14499
G1 X183.891 Y100.184 E0.14499
G1 X184.088 Y105.000 E0.14499
G1 X183.891 Y109.816 E0.14499
G1 X183.302 Y114.600 E0.14499
G1 X182.326 Y119.321 E0.14499
G1 X180.968 Y123.945 E0.14499
G1 X179.237 Y128.444 E0.14499
G1 X177.146 Y132.787 E0.14499
G1 X174.708 Y136.945 E0.14499
G1 X171.938 Y140.890 E0.14499
G1 X168.857 Y144.597 E0.14499
G1 X165.483 Y148.040 E0.14499
G1 X161.841 Y151.196 E0.14499
G1 X157.952 Y154.046 E0.14499
G1 X153.845 Y156.568 E0.14499
G1 X149.546 Y158.748 E0.14499
G1 X145.083 Y160.570 E0.14499
G1 X140.487 Y162.022 E0.14499
G1 X135.788 Y163.094 E0.14499
G1 X131.016 Y163.780 E0.14499
G1 X126.205 Y164.075 E0.14499
G1 X121.386 Y163.977 E0.14499
G1 X116.591 Y163.486 E0.14499
G1 X111.852 Y162.606 E0.14499
G1 X107.200 Y161.343 E0.14499
G1 X102.667 Y159.704 E0.14499
G1 X98.282 Y157.702 E0.14499
G1 X94.075 Y155.349 E0.14499
G1 X90.075 Y152.661 E0.14499
G1 X86.306 Y149.655 E0.14499
G1 X82.795 Y146.353 E0.14499
G1 X79.565 Y142.775 E0.14499
G1 X76.637 Y138.946 E0.14499
G1 X74.031 Y134.891 E0.14499
G1 X71.764 Y130.637 E0.14499
G1 X69.851 Y126.213 E0.14499
G1 X68.306 Y121.647 E0.14499
G1 X67.138 Y116.970 E0.14499
G1 X66.355 Y112.214 E0.14499
G1 X65.962 Y107.410 E0.14499
G1 X65.962 Y102.590 E0.14499
G1 X66.355 Y97.786 E0.14499
G1 X67.138 Y93.030 E0.14499
G1 X68.306 Y88.353 E0.14499
G1 X69.851 Y83.787 E0.14499
G1 X70.143 Y83.112 E0.02213
G1 X70.489 Y83.262 F7200.000
G1 F1260
G1 X72.104 Y79.527 E0.12239
G1 X74.356 Y75.300 E0.14406
G1 X76.946 Y71.271 E0.14407
G1 X79.855 Y67.466 E0.14406
G1 X83.064 Y63.911 E0.14407
G1 X86.553 Y60.630 E0.14406
G1 X90.298 Y57.644 E0.14407
G1 X94.273 Y54.973 E0.14406
G1 X98.453 Y52.635 E0.14406
G1 X102.809 Y50.645 E0.14406
G1 X107.314 Y49.017 E0.14407
G1 X111.936 Y47.762 E0.14406
G1 X116.645 Y46.887 E0.14407
G1 X121.409 Y46.400 E0.14406
G1 X126.198 Y46.302 E0.14406
G1 X130.978 Y46.595 E0.14406
G1 X135.719 Y47.277 E0.14406
G1 X140.388 Y48.342 E0.14406
G1 X144.955 Y49.785 E0.14407
G1 X149.389 Y51.595 E0.14407
G1 X153.661 Y53.761 E0.14406
G1 X157.742 Y56.268 E0.14407
G1 X161.605 Y59.099 E0.14407
G1 X165.225 Y62.235 E0.14406
G1 X168.577 Y65.656 E0.14407
G1 X171.639 Y69.339 E0.14406
G1 X174.390 Y73.259 E0.14406
G1 X176.813 Y77.390 E0.14407
G1 X178.891 Y81.705 E0.14407
G1 X180.610 Y86.176 E0.14406
G1 X181.960 Y90.771 E0.14406
G1 X182.930 Y95.461 E0.14407
G1 X183.515 Y100.215 E0.14406
G1 X183.710 Y105.000 E0.14406
G1 X183.515 Y109.785 E0.14406
G1 X182.930 Y114.539 E0.14406
G1 X181.960 Y119.229 E0.14407
G1 X180.610 Y123.824 E0.14406
G1 X178.891 Y128.295 E0.14406
G1 X176.813 Y132.610 E0.14407
G1 X174.390 Y136.741 E0.14407
G1 X171.639 Y140.661 E0.14406
G1 X168.577 Y144.344 E0.14406
G1 X165.225 Y147.765 E0.14407
G1 X161.605 Y150.901 E0.14406
G1 X157.742 Y153.732 E0.14407
G1 X153.661 Y156.239 E0.14407
G1 X149.389 Y158.405 E0.14406
G1 X144.955 Y160.215 E0.14407
G1 X140.388 Y161.658 E0.14407
G1 X135.719 Y162.723 E0.14406
G1 X130.978 Y163.405 E0.14406
G1 X126.198 Y163.698 E0.14406
G1 X121.409 Y163.600 E0.14406
G1 X116.645 Y163.113 E0.14406
G1 X111.936 Y162.238 E0.14407
G1 X107.314 Y160.983 E0.14406
G1 X102.809 Y159.355 E0.14407
G1 X98.453 Y157.365 E0.14406
G1 X94.273 Y155.027 E0.14406
G1 X90.298 Y152.356 E0.14406
G1 X86.553 Y149.370 E0.14407
G1 X83.064 Y146.089 E0.14406
G1 X79.855 Y142.534 E0.14407
G1 X76.946 Y138.729 E0.14406
G1 X74.356 Y134.700 E0.14407
G1 X72.104 Y130.473 E0.14406
G1 X70.204 Y126.077 E0.14406
G1 X68.668 Y121.541 E0.14406
G1 X67.507 Y116.894 E0.14407
G1 X66.729 Y112.168 E0.14407
G1 X66.339 Y107.395 E0.14406
G1 X66.339 Y102.605 E0.14406
G1 X66.729 Y97.832 E0.14406
G1 X67.507 Y93.106 E0.14407
G1 X68.668 Y88.459 E0.14407
G1 X70.204 Y83.923 E0.14406
G1 X70.466 Y83.317 E0.01987
G1 X70.243 Y82.946 F7200.000
G1 F5760
G1 X71.336 Y81.302 E-0.76000
G1 E-0.04000 F2100.00000
G1 X174.987 Y52.688 F7200.000
G1 E0.80000 F2100.00000
G1 F840
G1 X174.909 Y52.000 E0.02082
G1 X174.987 Y51.312 E0.02082
G1 X175.215 Y50.659 E0.02082
G1 X175.583 Y50.073 E0.02082
G1 X176.073 Y49.583 E0.02082
G1 X176.659 Y49.215 E0.02082
G1 X177.312 Y48.987 E0.02082
G1 X177.944 Y48.916 E0.01912
G1 X178.683 Y48.985 E0.02232
G1 X179.341 Y49.215 E0.02098
G1 X179.927 Y49.583 E0.02082
G1 X180.417 Y50.073 E0.02082
G1 X180.785 Y50.659 E0.02082
G1 X181.013 Y51.312 E0.02082
G1 X181.091 Y52.000 E0.02082
G1 X181.013 Y52.688 E0.02082
G1 X180.783 Y53.346 E0.02098
G1 X180.377 Y53.967 E0.02231
G1 X179.927 Y54.417 E0.01912
G1 X179.341 Y54.785 E0.02082
G1 X178.688 Y55.013 E0.02082
G1 X178.000 Y55.091 E0.02082
G1 X177.312 Y55.013 E0.02082
G1 X176.659 Y54.785 E0.02082
G1 X176.073 Y54.417 E0.02082
G1 X175.580 Y53.923 E0.02099
G1 X175.197 Y53.288 E0.02231
G1 X175.007 Y52.744 E0.01732
G1 X175.362 Y52.620 F7200.000
G1 F840
G1 X175.289 Y52.000 E0.01878
G1 X175.357 Y51.397 E0.01826
G1 X175.557 Y50.824 E0.01826
G1 X175.880 Y50.310 E0.01826
G1 X176.310 Y49.880 E0.01827
G1 X176.824 Y49.557 E0.01826
G1 X177.397 Y49.357 E0.01826
G1 X177.947 Y49.295 E0.01667
G1 X178.601 Y49.356 E0.01976
G1 X179.176 Y49.557 E0.01832
G1 X179.690 Y49.880 E0.01826
G1 X180.120 Y50.310 E0.01827
G1 X180.443 Y50.824 E0.01826
G1 X180.643 Y51.397 E0.01826
G1 X180.711 Y52.000 E0.01826
G1 X180.643 Y52.603 E0.01826
G1 X180.442 Y53.178 E0.01832
G1 X180.082 Y53.728 E0.01976
G1 X179.690 Y54.120 E0.01667
G1 X179.176 Y54.443 E0.01826
G1 X178.603 Y54.643 E0.01826
G1 X178.000 Y54.711 E0.01826
G1 X177.397 Y54.643 E0.01826
G1 X176.824 Y54.443 E0.01826
G1 X176.310 Y54.120 E0.01826
G1 X175.879 Y53.689 E0.01832
G1 X175.540 Y53.126 E0.01976
G1 X175.382 Y52.677 E0.01434
G1 X174.980 Y52.504 F7200.000
G1 F5760
G1 X175.289 Y52.000 E-0.23654
G1 F5760
G1 X175.357 Y51.397 E-0.21029
G1 F5760
G1 X175.557 Y50.824 E-0.21028
G1 F5760
G1 X175.715 Y50.572 E-0.10289
G1 E-0.04000 F2100.00000
G1 X75.091 Y52.000 F7200.000
G1 E0.80000 F2100.00000
G1 F840
G1 X75.013 Y52.688 E0.02082
G1 X74.785 Y53.341 E0.02082
G1 X74.417 Y53.927 E0.02082
G1 X73.927 Y54.417 E0.02082
G1 X73.341 Y54.785 E0.02082
G1 X72.741 Y54.995 E0.01912
G1 X72.005 Y55.091 E0.02232
G1 X71.312 Y55.013 E0.02099
G1 X70.659 Y54.785 E0.02082
G1 X70.073 Y54.417 E0.02082
G1 X69.583 Y53.927 E0.02082
G1 X69.215 Y53.341 E0.02082
G1 X68.987 Y52.688 E0.02082
G1 X68.909 Y51.995 E0.02099
G1 X69.005 Y51.259 E0.02232
G1 X69.215 Y50.659 E0.01912
G1 X69.583 Y50.073 E0.02082
G1 X70.073 Y49.583 E0.02082
G1 X70.659 Y49.215 E0.02082
G1 X71.312 Y48.987 E0.02082
G1 X71.944 Y48.916 E0.01912
G1 X72.683 Y48.985 E0.02232
G1 X73.341 Y49.215 E0.02098
G1 X73.927 Y49.583 E0.02082
G1 X74.417 Y50.073 E0.02082
G1 X74.785 Y50.659 E0.02082
G1 X75.013 Y51.312 E0.02082
G1 X75.084 Y51.940 E0.01901
G1 X74.709 Y51.983 F7200.000
G1 F840
G1 X74.643 Y52.603 E0.01878
G1 X74.443 Y53.176 E0.01826
G1 X74.120 Y53.690 E0.01826
G1 X73.690 Y54.120 E0.01827
G1 X73.176 Y54.443 E0.01826
G1 X72.653 Y54.626 E0.01667
G1 X72.002 Y54.712 E0.01976
G1 X71.397 Y54.643 E0.01832
G1 X70.824 Y54.443 E0.01826
G1 X70.310 Y54.120 E0.01826
G1 X69.880 Y53.690 E0.01827
G1 X69.557 Y53.176 E0.01826
G1 X69.357 Y52.603 E0.01826
G1 X69.288 Y51.998 E0.01832
G1 X69.374 Y51.347 E0.01976
G1 X69.557 Y50.824 E0.01667
G1 X69.880 Y50.310 E0.01826
G1 X70.310 Y49.880 E0.01827
G1 X70.824 Y49.557 E0.01826
G1 X71.397 Y49.357 E0.01826
G1 X71.947 Y49.295 E0.01667
G1 X72.601 Y49.356 E0.01976
G1 X73.176 Y49.557 E0.01832
G1 X73.690 Y49.880 E0.01826
G1 X74.120 Y50.310 E0.01827
G1 X74.443 Y50.824 E0.01826
G1 X74.643 Y51.397 E0.01826
G1 X74.703 Y51.923 E0.01593
G1 X75.057 Y52.181 F7200.000
G1 F5760
G1 X74.643 Y52.603 E-0.23653
G1 F5760
G1 X74.443 Y53.176 E-0.21028
G1 F5760
G1 X74.120 Y53.690 E-0.21027
G1 F5760
G1 X73.910 Y53.901 E-0.10291
G1 E-0.04000 F2100.00000
G1 X72.683 Y154.985 F7200.000
G1 E0.80000 F2100.00000
G1 F840
G1 X73.341 Y155.215 E0.02098
G1 X73.927 Y155.583 E0.02082
G1 X74.417 Y156.073 E0.02082
G1 X74.785 Y156.659 E0.02082
G1 X75.013 Y157.312 E0.02082
G1 X75.091 Y158.000 E0.02082
G1 X75.013 Y158.688 E0.02082
G1 X74.785 Y159.341 E0.02082
G1 X74.417 Y159.927 E0.02082
G1 X73.927 Y160.417 E0.02082
G1 X73.341 Y160.785 E0.02082
G1 X72.688 Y161.013 E0.02082
G1 X72.000 Y161.091 E0.02082
G1 X71.312 Y161.013 E0.02082
G1 X70.654 Y160.783 E0.02098
G1 X70.033 Y160.377 E0.02231
G1 X69.583 Y159.927 E0.01913
G1 X69.215 Y159.341 E0.02082
G1 X68.987 Y158.688 E0.02082
G1 X68.909 Y158.000 E0.02082
G1 X68.987 Y157.312 E0.02082
G1 X69.215 Y156.659 E0.02082
G1 X69.583 Y156.073 E0.02082
G1 X70.073 Y155.583 E0.02082
G1 X70.659 Y155.215 E0.02082
G1 X71.312 Y154.987 E0.02082
G1 X71.944 Y154.916 E0.01912
G1 X72.623 Y154.979 E0.02051
G1 X72.588 Y155.355 F7200.000
G1 F840
G1 X73.176 Y155.557 E0.01873
G1 X73.690 Y155.880 E0.01826
G1 X74.120 Y156.310 E0.01827
G1 X74.443 Y156.824 E0.01826
G1 X74.643 Y157.397 E0.01826
G1 X74.711 Y158.000 E0.01826
G1 X74.643 Y158.603 E0.01826
G1 X74.443 Y159.176 E0.01826
G1 X74.120 Y159.690 E0.01826
G1 X73.690 Y160.120 E0.01827
G1 X73.176 Y160.443 E0.01826
G1 X72.603 Y160.643 E0.01826
G1 X72.000 Y160.711 E0.01826
G1 X71.397 Y160.643 E0.01826
G1 X70.822 Y160.442 E0.01832
G1 X70.272 Y160.082 E0.01976
G1 X69.880 Y159.690 E0.01667
G1 X69.557 Y159.176 E0.01826
G1 X69.357 Y158.603 E0.01826
G1 X69.289 Y158.000 E0.01826
G1 X69.357 Y157.397 E0.01826
G1 X69.557 Y156.824 E0.01826
G1 X69.880 Y156.310 E0.01826
G1 X70.310 Y155.880 E0.01827
G1 X70.824 Y155.557 E0.01826
G1 X71.397 Y155.357 E0.01826
G1 X71.947 Y155.295 E0.01667
G1 X72.528 Y155.349 E0.01753
G1 X72.858 Y155.060 F7200.000
G1 F5760
G1 X73.176 Y155.557 E-0.23592
G1 F5760
G1 X73.690 Y155.880 E-0.21027
G1 F5760
G1 X74.120 Y156.310 E-0.21031
G1 F5760
G1 X74.279 Y156.563 E-0.10350
G1 E-0.04000 F2100.00000
G1 X174.909 Y158.000 F7200.000
G1 E0.80000 F2100.00000
G1 F840
G1 X174.987 Y157.312 E0.02082
G1 X175.215 Y156.659 E0.02082
G1 X175.583 Y156.073 E0.02082
G1 X176.073 Y155.583 E0.02082
G1 X176.659 Y155.215 E0.02082
G1 X177.312 Y154.987 E0.02082
G1 X177.944 Y154.916 E0.01912
G1 X178.683 Y154.985 E0.02232
G1 X179.341 Y155.215 E0.02098
G1 X179.927 Y155.583 E0.02082
G1 X180.417 Y156.073 E0.02082
G1 X180.785 Y156.659 E0.02082
G1 X181.013 Y157.312 E0.02082
G1 X181.091 Y158.000 E0.02082
G1 X181.013 Y158.688 E0.02082
G1 X180.785 Y159.341 E0.02082
G1 X180.417 Y159.927 E0.02082
G1 X179.927 Y160.417 E0.02082
G1 X179.341 Y160.785 E0.02082
G1 X178.688 Y161.013 E0.02082
G1 X178.000 Y161.091 E0.02082
G1 X177.312 Y161.013 E0.02082
G1 X176.659 Y160.785 E0.02082
G1 X176.073 Y160.417 E0.02082
G1 X175.580 Y159.923 E0.02099
G1 X175.197 Y159.288 E0.02231
G1 X174.987 Y158.688 E0.01912
G1 X174.916 Y158.060 E0.01901
G1 X175.291 Y158.017 F7200.000
G1 F840
G1 X175.357 Y157.397 E0.01878
G1 X175.557 Y156.824 E0.01826
G1 X175.880 Y156.310 E0.01826
G1 X176.310 Y155.880 E0.01827
G1 X176.824 Y155.557 E0.01826
G1 X177.397 Y155.357 E0.01826
G1 X177.947 Y155.295 E0.01667
G1 X178.601 Y155.356 E0.01976
G1 X179.176 Y155.557 E0.01832
G1 X179.690 Y155.880 E0.01826
G1 X180.120 Y156.310 E0.01827
G1 X180.443 Y156.824 E0.01826
G1 X180.643 Y157.397 E0.01826
G1 X180.711 Y158.000 E0.01826
G1 X180.643 Y158.603 E0.01826
G1 X180.443 Y159.176 E0.01826
G1 X180.120 Y159.690 E0.01826
G1 X179.690 Y160.120 E0.01827
G1 X179.176 Y160.443 E0.01826
G1 X178.603 Y160.643 E0.01826
G1 X178.000 Y160.711 E0.01826
G1 X177.397 Y160.643 E0.01826
G1 X176.824 Y160.443 E0.01826
G1 X176.310 Y160.120 E0.01826
G1 X175.879 Y159.689 E0.01832
G1 X175.540 Y159.126 E0.01976
G1 X175.357 Y158.603 E0.01667
G1 X175.297 Y158.077 E0.01593
G1 X174.944 Y157.818 F7200.000
G1 F5760
G1 X175.357 Y157.397 E-0.23653
G1 F5760
G1 X175.557 Y156.824 E-0.21028
G1 F5760
G1 X175.880 Y156.310 E-0.21027
G1 F5760
G1 X176.090 Y156.099 E-0.10291
G1 E-0.04000 F2100.00000
G1 X162.288 Y195.020 F7200.000
G1 E0.80000 F2100.00000
G1 F1680
G1 X87.712 Y195.020 E2.24321
G1 X34.980 Y142.288 E2.24321
G1 X34.980 Y67.712 E2.24321
G1 X87.712 Y14.980 E2.24321
G1 X162.288 Y14.980 E2.24321
G1 X215.020 Y67.712 E2.24321
G1 X215.020 Y142.288 E2.24321
G1 X162.330 Y194.978 E2.24141
G1 X162.444 Y195.397 F7200.000
G1 F1260
G1 X87.556 Y195.397 E2.25261
G1 X34.603 Y142.444 E2.25261
G1 X34.603 Y67.556 E2.25261
G1 X87.556 Y14.603 E2.25261
G1 X162.444 Y14.603 E2.25261
G1 X215.397 Y67.556 E2.25261
G1 X215.397 Y142.444 E2.25261
G1 X162.486 Y195.355 E2.25080
G1 X162.126 Y195.154 F7200.000
G1 F5760
G1 X160.292 Y195.356 E-0.76000
G1 E-0.04000 F2100.00000
G1 X134.488 Y194.907 F7200.000
G1 E0.80000 F2100.00000
G1 F2520
G1 X96.309 Y156.728 E1.62754
G1 F5760
G1 X97.860 Y158.279 E-0.76000
G1 E-0.04000 F2100.00000
G1 X95.096 Y156.049 F7200.000
G1 E0.80000 F2100.00000
G1 F2520
G1 X133.954 Y194.907 E1.65646
G1 X133.419 Y194.907 F7200.000
G1 F2520
G1 X93.838 Y155.325 E1.68733
G1 F5760
G1 X95.389 Y156.877 E-0.76000
G1 E-0.04000 F2100.00000
G1 X92.209 Y154.231 F7200.000
G1 E0.80000 F2100.00000
G1 F2520
G1 X132.885 Y194.907 E1.73397
G1 X132.351 Y194.907 F7200.000
G1 F2520
G1 X90.581 Y153.137 E1.78061
G1 F5760
G1 X92.132 Y154.689 E-0.76000
G1 E-0.04000 F2100.00000
G1 X88.298 Y151.389 F7200.000
G1 E0.80000 F2100.00000
G1 F2520
G1 X131.816 Y194.907 E1.85514
G1 F5760
G1 X130.265 Y193.356 E-0.76000
G1 E-0.04000 F2100.00000
G1 X113.114 Y194.907 F7200.000
G1 E0.80000 F2100.00000
G1 F2520
G1 X75.202 Y156.995 E1.61617
G1 X75.291 Y157.249 E0.00812
G1 X75.338 Y157.665 E0.01262
G1 X112.410 Y194.738 E1.58036
G1 X111.876 Y194.738 E0.01611
G1 X75.351 Y158.213 E1.55700
G1 X75.297 Y158.693 E0.01457
G1 X111.342 Y194.738 E1.53653
G1 X110.807 Y194.738 E0.01611
G1 X75.169 Y159.099 E1.51922
