; generated by Slic3r 1.33.8.devel on 2017-10-23 at 19:33:12

; 

; external perimeters extrusion width = 0.45mm
; perimeters extrusion width = 0.45mm
; infill extrusion width = 0.45mm
; solid infill extrusion width = 0.45mm
; top infill extrusion width = 0.40mm
; first layer extrusion width = 0.42mm

M107
M115 U3.0.12 ; tell printer latest fw version
M83  ; extruder relative mode
M104 S215 ; set extruder temp
M140 S55 ; set bed temp
M190 S55 ; wait for bed temp
M109 S215 ; wait for extruder temp
G28 W ; home all without mesh bed level
G80 ; mesh bed leveling
G1 Y-3.0 F1000.0 ; go outside pritn area
G1 X60.0 E9.0  F1000.0 ; intro line
G1 X100.0 E12.5  F1000.0 ; intro line
; Filament gcode

G21 ; set units to millimeters
G90 ; use absolute coordinates
M83 ; use relative distances for extrusion
G1 E-0.80000 F2100.00000
G1 Z0.200 F7200.000
G1 X102.938 Y98.874 F7200.000
G1 E0.80000 F2100.00000
M204 S1000
G1 F2100
G1 X103.534 Y98.369 E0.02348
G1 X104.246 Y98.051 E0.02348
G1 X104.991 Y97.946 E0.02262
G1 X145.004 Y97.946 E1.20359
G1 X146.021 Y98.142 E0.03114
G1 X146.896 Y98.702 E0.03126
G1 X147.499 Y99.543 E0.03114
G1 X147.750 Y100.552 E0.03126
G1 X147.712 Y109.777 E0.27750
G1 X147.475 Y110.508 E0.02311
G1 X147.045 Y111.145 E0.02311
G1 X146.456 Y111.638 E0.02311
G1 X145.754 Y111.949 E0.02311
G1 X145.009 Y112.054 E0.02262
G1 X104.881 Y112.052 E1.20704
G1 X104.041 Y111.882 E0.02579
G1 X103.293 Y111.461 E0.02579
G1 X102.711 Y110.832 E0.02579
G1 X102.351 Y110.054 E0.02579
G1 X102.246 Y109.321 E0.02225
G1 X102.279 Y100.271 E0.27222
G1 X102.509 Y99.525 E0.02348
G1 X102.905 Y98.924 E0.02167
G1 X103.217 Y99.128 F7200.000
G1 F2100
G1 X103.741 Y98.684 E0.02067
G1 X104.370 Y98.408 E0.02067
G1 X104.995 Y98.323 E0.01896
G1 X145.004 Y98.323 E1.20346
G1 X145.888 Y98.495 E0.02710
G1 X146.642 Y98.981 E0.02699
G1 X147.162 Y99.713 E0.02699
G1 X147.374 Y100.588 E0.02710
G1 X147.348 Y109.672 E0.27322
G1 X147.148 Y110.317 E0.02033
G1 X146.773 Y110.884 E0.02044
G1 X146.252 Y111.320 E0.02044
G1 X145.630 Y111.592 E0.02044
G1 X145.005 Y111.677 E0.01896
G1 X104.909 Y111.675 E1.20609
G1 X104.176 Y111.530 E0.02248
G1 X103.524 Y111.164 E0.02248
G1 X103.017 Y110.610 E0.02259
G1 X102.708 Y109.930 E0.02248
G1 X102.623 Y109.316 E0.01862
G1 X102.647 Y100.362 E0.26934
G1 X102.842 Y99.703 E0.02067
G1 X103.184 Y99.178 E0.01886
G1 F5760
G1 X103.741 Y98.684 E-0.25793
G1 F5760
G1 X104.370 Y98.408 E-0.23795
G1 F5760
G1 X104.995 Y98.323 E-0.21835
G1 F5760
G1 X105.127 Y98.323 E-0.04576
G1 E-0.04000 F2100.00000
G1 X105.587 Y101.287 F7200.000
G1 E0.80000 F2100.00000
G1 F1680
G1 X144.413 Y101.287 E1.16788
G1 X144.413 Y108.713 E0.22337
G1 X105.587 Y108.713 E1.16788
G1 X105.587 Y101.347 E0.22156
G1 X105.210 Y100.910 F7200.000
G1 F1260
G1 X144.790 Y100.910 E1.19056
G1 X144.790 Y109.090 E0.24605
G1 X105.210 Y109.090 E1.19056
G1 X105.210 Y100.970 E0.24425
G1 X105.609 Y100.937 F7200.000
G1 F5760
G1 X107.404 Y100.967 E-0.76000
G1 E-0.04000 F2100.00000
G1 X106.463 Y108.600 F7200.000
G1 E0.80000 F2100.00000
G1 F1680
G1 X105.870 Y108.007 E0.02522
G1 X105.870 Y107.474 E0.01605
G1 X106.826 Y108.430 E0.04070
G1 X107.360 Y108.430 E0.01605
G1 X105.870 Y106.940 E0.06340
G1 X105.870 Y106.407 E0.01605
G1 X107.893 Y108.430 E0.08610
G1 X108.427 Y108.430 E0.01605
G1 X105.870 Y105.873 E0.10880
G1 X105.870 Y105.340 E0.01605
G1 X108.960 Y108.430 E0.13149
G1 X109.493 Y108.430 E0.01605
G1 X105.870 Y104.807 E0.15419
G1 X105.870 Y104.273 E0.01605
G1 X110.027 Y108.430 E0.17689
G1 X110.560 Y108.430 E0.01605
G1 X105.870 Y103.740 E0.19959
G1 X105.870 Y103.206 E0.01605
G1 X111.094 Y108.430 E0.22229
G1 X111.627 Y108.430 E0.01605
G1 X105.870 Y102.673 E0.24499
G1 X105.870 Y102.139 E0.01605
G1 X112.161 Y108.430 E0.26769
G1 X112.694 Y108.430 E0.01605
G1 X105.870 Y101.606 E0.29038
G1 X105.870 Y101.570 E0.00109
G1 X106.367 Y101.570 E0.01496
G1 X113.227 Y108.430 E0.29192
G1 X113.761 Y108.430 E0.01605
G1 X106.901 Y101.570 E0.29192
G1 X107.434 Y101.570 E0.01605
G1 X114.294 Y108.430 E0.29192
G1 X114.828 Y108.430 E0.01605
G1 X107.967 Y101.570 E0.29192
G1 X108.501 Y101.570 E0.01605
G1 X115.361 Y108.430 E0.29192
G1 X115.895 Y108.430 E0.01605
G1 X109.034 Y101.570 E0.29192
G1 X109.568 Y101.570 E0.01605
G1 X116.428 Y108.430 E0.29192
G1 X116.961 Y108.430 E0.01605
G1 X110.101 Y101.570 E0.29192
G1 X110.635 Y101.570 E0.01605
G1 X117.495 Y108.430 E0.29192
G1 X118.028 Y108.430 E0.01605
G1 X111.168 Y101.570 E0.29192
G1 X111.701 Y101.570 E0.01605
G1 X118.562 Y108.430 E0.29192
G1 X119.095 Y108.430 E0.01605
G1 X112.235 Y101.570 E0.29192
G1 X112.768 Y101.570 E0.01605
G1 X119.629 Y108.430 E0.29192
G1 X120.162 Y108.430 E0.01605
G1 X113.302 Y101.570 E0.29192
G1 X113.835 Y101.570 E0.01605
G1 X120.695 Y108.430 E0.29192
G1 X121.229 Y108.430 E0.01605
G1 X114.369 Y101.570 E0.29192
G1 X114.902 Y101.570 E0.01605
G1 X121.762 Y108.430 E0.29192
G1 X122.296 Y108.430 E0.01605
G1 X115.435 Y101.570 E0.29192
G1 X115.969 Y101.570 E0.01605
G1 X122.829 Y108.430 E0.29192
G1 X123.363 Y108.430 E0.01605
G1 X116.502 Y101.570 E0.29192
G1 X117.036 Y101.570 E0.01605
G1 X123.896 Y108.430 E0.29192
G1 X124.429 Y108.430 E0.01605
G1 X117.569 Y101.570 E0.29192
G1 X118.103 Y101.570 E0.01605
G1 X124.963 Y108.430 E0.29192
G1 X125.496 Y108.430 E0.01605
G1 X118.636 Y101.570 E0.29192
G1 X119.169 Y101.570 E0.01605
G1 X126.030 Y108.430 E0.29192
G1 X126.563 Y108.430 E0.01605
G1 X119.703 Y101.570 E0.29192
G1 X120.236 Y101.570 E0.01605
G1 X127.097 Y108.430 E0.29192
G1 X127.630 Y108.430 E0.01605
G1 X120.770 Y101.570 E0.29192
G1 X121.303 Y101.570 E0.01605
G1 X128.163 Y108.430 E0.29192
G1 X128.697 Y108.430 E0.01605
G1 X121.837 Y101.570 E0.29192
G1 X122.370 Y101.570 E0.01605
G1 X129.230 Y108.430 E0.29192
G1 X129.764 Y108.430 E0.01605
G1 X122.903 Y101.570 E0.29192
G1 X123.437 Y101.570 E0.01605
G1 X130.297 Y108.430 E0.29192
G1 X130.831 Y108.430 E0.01605
G1 X123.970 Y101.570 E0.29192
G1 X124.504 Y101.570 E0.01605
G1 X131.364 Y108.430 E0.29192
G1 X131.897 Y108.430 E0.01605
G1 X125.037 Y101.570 E0.29192
G1 X125.571 Y101.570 E0.01605
G1 X132.431 Y108.430 E0.29192
G1 X132.964 Y108.430 E0.01605
G1 X126.104 Y101.570 E0.29192
G1 X126.637 Y101.570 E0.01605
G1 X133.498 Y108.430 E0.29192
G1 X134.031 Y108.430 E0.01605
G1 X127.171 Y101.570 E0.29192
G1 X127.704 Y101.570 E0.01605
G1 X134.564 Y108.430 E0.29192
G1 X135.098 Y108.430 E0.01605
G1 X128.238 Y101.570 E0.29192
G1 X128.771 Y101.570 E0.01605
G1 X135.631 Y108.430 E0.29192
G1 X136.165 Y108.430 E0.01605
G1 X129.305 Y101.570 E0.29192
G1 X129.838 Y101.570 E0.01605
G1 X136.698 Y108.430 E0.29192
G1 X137.232 Y108.430 E0.01605
G1 X130.371 Y101.570 E0.29192
G1 X130.905 Y101.570 E0.01605
G1 X137.765 Y108.430 E0.29192
G1 X138.298 Y108.430 E0.01605
G1 X131.438 Y101.570 E0.29192
G1 X131.972 Y101.570 E0.01605
G1 X138.832 Y108.430 E0.29192
G1 X139.365 Y108.430 E0.01605
G1 X132.505 Y101.570 E0.29192
G1 X133.038 Y101.570 E0.01605
G1 X139.899 Y108.430 E0.29192
G1 X140.432 Y108.430 E0.01605
G1 X133.572 Y101.570 E0.29192
G1 X134.105 Y101.570 E0.01605
G1 X140.966 Y108.430 E0.29192
G1 X141.499 Y108.430 E0.01605
G1 X134.639 Y101.570 E0.29192
G1 X135.172 Y101.570 E0.01605
G1 X142.032 Y108.430 E0.29192
G1 X142.566 Y108.430 E0.01605
G1 X135.706 Y101.570 E0.29192
G1 X136.239 Y101.570 E0.01605
G1 X143.099 Y108.430 E0.29192
G1 X143.633 Y108.430 E0.01605
G1 X136.772 Y101.570 E0.29192
G1 X137.306 Y101.570 E0.01605
G1 X144.130 Y108.394 E0.29039
G1 X144.130 Y107.861 E0.01605
G1 X137.839 Y101.570 E0.26769
G1 X138.373 Y101.570 E0.01605
G1 X144.130 Y107.327 E0.24499
G1 X144.130 Y106.794 E0.01605
G1 X138.906 Y101.570 E0.22229
G1 X139.440 Y101.570 E0.01605
G1 X144.130 Y106.260 E0.19959
G1 X144.130 Y105.727 E0.01605
G1 X139.973 Y101.570 E0.17689
G1 X140.506 Y101.570 E0.01605
G1 X144.130 Y105.194 E0.15420
G1 X144.130 Y104.660 E0.01605
G1 X141.040 Y101.570 E0.13150
G1 X141.573 Y101.570 E0.01605
G1 X144.130 Y104.127 E0.10880
G1 X144.130 Y103.593 E0.01605
G1 X142.107 Y101.570 E0.08610
G1 X142.640 Y101.570 E0.01605
G1 X144.130 Y103.060 E0.06340
G1 X144.130 Y102.526 E0.01605
G1 X143.174 Y101.570 E0.04070
G1 X143.707 Y101.570 E0.01605
G1 X144.300 Y102.163 E0.02523
M106 S252.45
G1 F5760
G1 X143.707 Y101.570 E-0.29037
G1 F5760
G1 X143.174 Y101.570 E-0.18475
G1 F5760
G1 X143.755 Y102.151 E-0.28487
G1 E-0.04000 F2100.00000
G1 Z0.400 F7200.000
M104 S210 ; set temperature
G1 X147.499 Y99.543 F7200.000
G1 E0.80000 F2100.00000
G1 F2989
G1 X147.750 Y100.552 E0.03126
G1 X147.712 Y109.777 E0.27750
G1 X147.475 Y110.508 E0.02311
G1 X147.045 Y111.145 E0.02311
G1 X146.456 Y111.638 E0.02311
G1 X145.754 Y111.949 E0.02311
G1 X145.009 Y112.054 E0.02262
G1 X104.881 Y112.052 E1.20704
G1 X104.041 Y111.882 E0.02579
G1 X103.293 Y111.461 E0.02579
G1 X102.711 Y110.832 E0.02579
G1 X102.351 Y110.054 E0.02579
G1 X102.246 Y109.321 E0.02225
G1 X102.279 Y100.271 E0.27222
G1 X102.509 Y99.525 E0.02348
G1 X102.938 Y98.874 E0.02348
G1 X103.534 Y98.369 E0.02348
G1 X104.246 Y98.051 E0.02348
G1 X104.991 Y97.946 E0.02262
G1 X145.004 Y97.946 E1.20359
G1 X146.021 Y98.142 E0.03114
G1 X146.896 Y98.702 E0.03126
G1 X147.464 Y99.494 E0.02933
G1 F5760
G1 X147.750 Y100.552 E-0.37933
G1 F5760
G1 X147.746 Y101.651 E-0.38067
G1 E-0.04000 F2100.00000
G1 X144.368 Y101.332 F7200.000
G1 E0.80000 F2100.00000
M204 S800
G1 F2391
G1 X144.368 Y108.668 E0.23896
G1 X105.632 Y108.668 E1.26180
G1 X105.632 Y101.332 E0.23896
G1 X144.308 Y101.332 E1.25984
M204 S1000
G1 X144.775 Y100.925 F7200.000
M204 S800
G1 F1800
G1 X144.775 Y109.075 E0.26548
G1 X105.225 Y109.075 E1.28832
G1 X105.225 Y100.925 E0.26548
G1 X144.715 Y100.925 E1.28636
M204 S1000
G1 X144.599 Y101.284 F7200.000
G1 F5760
G1 X144.731 Y103.119 E-0.76000
G1 E-0.04000 F2100.00000
G1 X143.419 Y108.546 F7200.000
G1 E0.80000 F2100.00000
M204 S2000
G1 F2391
G1 X144.063 Y107.903 E0.02976
G1 X144.063 Y107.325 E0.01891
G1 X143.025 Y108.363 E0.04802
G1 X142.447 Y108.363 E0.01891
G1 X144.063 Y106.747 E0.07476
G1 X144.063 Y106.168 E0.01891
G1 X141.868 Y108.363 E0.10150
G1 X141.290 Y108.363 E0.01891
G1 X144.063 Y105.590 E0.12824
G1 X144.063 Y105.012 E0.01891
G1 X140.712 Y108.363 E0.15498
G1 X140.134 Y108.363 E0.01891
G1 X144.063 Y104.434 E0.18173
G1 X144.063 Y103.856 E0.01891
G1 X139.556 Y108.363 E0.20847
G1 X138.978 Y108.363 E0.01891
G1 X144.063 Y103.278 E0.23521
G1 X144.063 Y102.700 E0.01891
G1 X138.400 Y108.363 E0.26195
G1 X137.822 Y108.363 E0.01891
G1 X144.063 Y102.122 E0.28869
G1 X144.063 Y101.637 E0.01586
G1 X143.969 Y101.637 E0.00305
G1 X137.244 Y108.363 E0.31112
G1 X136.666 Y108.363 E0.01891
G1 X143.391 Y101.637 E0.31112
G1 X142.813 Y101.637 E0.01891
G1 X136.088 Y108.363 E0.31112
G1 X135.510 Y108.363 E0.01891
G1 X142.235 Y101.637 E0.31112
G1 X141.657 Y101.637 E0.01891
G1 X134.932 Y108.363 E0.31112
G1 X134.354 Y108.363 E0.01891
G1 X141.079 Y101.637 E0.31112
G1 X140.501 Y101.637 E0.01891
G1 X133.776 Y108.363 E0.31112
G1 X133.198 Y108.363 E0.01891
G1 X139.923 Y101.637 E0.31112
G1 X139.345 Y101.637 E0.01891
G1 X132.620 Y108.363 E0.31112
G1 X132.042 Y108.363 E0.01891
G1 X138.767 Y101.637 E0.31112
G1 X138.189 Y101.637 E0.01891
G1 X131.464 Y108.363 E0.31112
G1 X130.886 Y108.363 E0.01891
G1 X137.611 Y101.637 E0.31112
G1 X137.033 Y101.637 E0.01891
G1 X130.308 Y108.363 E0.31112
G1 X129.730 Y108.363 E0.01891
G1 X136.455 Y101.637 E0.31112
G1 X135.877 Y101.637 E0.01891
G1 X129.152 Y108.363 E0.31112
G1 X128.574 Y108.363 E0.01891
G1 X135.299 Y101.637 E0.31112
G1 X134.721 Y101.637 E0.01891
G1 X127.996 Y108.363 E0.31112
G1 X127.418 Y108.363 E0.01891
G1 X134.143 Y101.637 E0.31112
G1 X133.565 Y101.637 E0.01891
G1 X126.840 Y108.363 E0.31112
G1 X126.262 Y108.363 E0.01891
G1 X132.987 Y101.637 E0.31112
G1 X132.409 Y101.637 E0.01891
G1 X125.684 Y108.363 E0.31112
G1 X125.106 Y108.363 E0.01891
G1 X131.831 Y101.637 E0.31112
G1 X131.253 Y101.637 E0.01891
G1 X124.527 Y108.363 E0.31112
G1 X123.949 Y108.363 E0.01891
G1 X130.675 Y101.637 E0.31112
G1 X130.097 Y101.637 E0.01891
G1 X123.371 Y108.363 E0.31112
G1 X122.793 Y108.363 E0.01891
G1 X129.519 Y101.637 E0.31112
G1 X128.941 Y101.637 E0.01891
G1 X122.215 Y108.363 E0.31112
G1 X121.637 Y108.363 E0.01891
G1 X128.363 Y101.637 E0.31112
G1 X127.785 Y101.637 E0.01891
G1 X121.059 Y108.363 E0.31112
G1 X120.481 Y108.363 E0.01891
G1 X127.207 Y101.637 E0.31112
G1 X126.628 Y101.637 E0.01891
G1 X119.903 Y108.363 E0.31112
G1 X119.325 Y108.363 E0.01891
G1 X126.050 Y101.637 E0.31112
G1 X125.472 Y101.637 E0.01891
G1 X118.747 Y108.363 E0.31112
G1 X118.169 Y108.363 E0.01891
G1 X124.894 Y101.637 E0.31112
G1 X124.316 Y101.637 E0.01891
G1 X117.591 Y108.363 E0.31112
G1 X117.013 Y108.363 E0.01891
G1 X123.738 Y101.637 E0.31112
G1 X123.160 Y101.637 E0.01891
G1 X116.435 Y108.363 E0.31112
G1 X115.857 Y108.363 E0.01891
G1 X122.582 Y101.637 E0.31112
G1 X122.004 Y101.637 E0.01891
G1 X115.279 Y108.363 E0.31112
G1 X114.701 Y108.363 E0.01891
G1 X121.426 Y101.637 E0.31112
G1 X120.848 Y101.637 E0.01891
G1 X114.123 Y108.363 E0.31112
G1 X113.545 Y108.363 E0.01891
G1 X120.270 Y101.637 E0.31112
G1 X119.692 Y101.637 E0.01891
G1 X112.967 Y108.363 E0.31112
G1 X112.389 Y108.363 E0.01891
G1 X119.114 Y101.637 E0.31112
G1 X118.536 Y101.637 E0.01891
G1 X111.811 Y108.363 E0.31112
G1 X111.233 Y108.363 E0.01891
G1 X117.958 Y101.637 E0.31112
G1 X117.380 Y101.637 E0.01891
G1 X110.655 Y108.363 E0.31112
G1 X110.077 Y108.363 E0.01891
G1 X116.802 Y101.637 E0.31112
G1 X116.224 Y101.637 E0.01891
G1 X109.499 Y108.363 E0.31112
G1 X108.921 Y108.363 E0.01891
G1 X115.646 Y101.637 E0.31112
G1 X115.068 Y101.637 E0.01891
G1 X108.343 Y108.363 E0.31112
G1 X107.765 Y108.363 E0.01891
G1 X114.490 Y101.637 E0.31112
G1 X113.912 Y101.637 E0.01891
G1 X107.187 Y108.363 E0.31112
G1 X106.608 Y108.363 E0.01891
G1 X113.334 Y101.637 E0.31112
G1 X112.756 Y101.637 E0.01891
G1 X106.030 Y108.363 E0.31112
G1 X105.937 Y108.363 E0.00304
G1 X105.937 Y107.878 E0.01586
G1 X112.178 Y101.637 E0.28868
G1 X111.600 Y101.637 E0.01891
G1 X105.937 Y107.300 E0.26194
G1 X105.937 Y106.722 E0.01891
G1 X111.022 Y101.637 E0.23520
G1 X110.444 Y101.637 E0.01891
G1 X105.937 Y106.144 E0.20846
G1 X105.937 Y105.566 E0.01891
G1 X109.866 Y101.637 E0.18172
G1 X109.287 Y101.637 E0.01891
G1 X105.937 Y104.987 E0.15498
G1 X105.937 Y104.409 E0.01891
G1 X108.709 Y101.637 E0.12824
G1 X108.131 Y101.637 E0.01891
G1 X105.937 Y103.831 E0.10150
G1 X105.937 Y103.253 E0.01891
G1 X107.553 Y101.637 E0.07476
G1 X106.975 Y101.637 E0.01891
G1 X105.937 Y102.675 E0.04802
G1 X105.937 Y102.097 E0.01891
G1 X106.581 Y101.454 E0.02975
M204 S1000
G1 F5760
G1 X105.937 Y102.097 E-0.31502
G1 F5760
G1 X105.937 Y102.675 E-0.20020
G1 F5760
G1 X106.437 Y102.176 E-0.24478
G1 E-0.04000 F2100.00000
G1 Z0.600 F7200.000
G1 X103.534 Y98.369 F7200.000
G1 E0.80000 F2100.00000
G1 F2985
G1 X104.246 Y98.051 E0.02348
G1 X104.991 Y97.946 E0.02262
G1 X145.004 Y97.946 E1.20359
G1 X146.021 Y98.142 E0.03114
G1 X146.896 Y98.702 E0.03126
G1 X147.499 Y99.543 E0.03114
G1 X147.750 Y100.552 E0.03126
G1 X147.712 Y109.777 E0.27750
G1 X147.475 Y110.508 E0.02311
G1 X147.045 Y111.145 E0.02311
G1 X146.456 Y111.638 E0.02311
G1 X145.754 Y111.949 E0.02311
G1 X145.009 Y112.054 E0.02262
G1 X104.881 Y112.052 E1.20704
G1 X104.041 Y111.882 E0.02579
G1 X103.293 Y111.461 E0.02579
G1 X102.711 Y110.832 E0.02579
G1 X102.351 Y110.054 E0.02579
G1 X102.246 Y109.321 E0.02225
G1 X102.279 Y100.271 E0.27222
G1 X102.509 Y99.525 E0.02348
G1 X102.938 Y98.874 E0.02348
G1 X103.488 Y98.408 E0.02167
G1 F5760
G1 X104.246 Y98.051 E-0.29032
G1 F5760
G1 X104.991 Y97.946 E-0.26047
G1 F5760
G1 X105.595 Y97.946 E-0.20920
G1 E-0.04000 F2100.00000
G1 X105.632 Y101.332 F7200.000
G1 E0.80000 F2100.00000
M204 S800
G1 F2388
G1 X144.368 Y101.332 E1.26180
G1 X144.368 Y108.668 E0.23896
G1 X105.632 Y108.668 E1.26180
G1 X105.632 Y101.392 E0.23701
M204 S1000
G1 X105.225 Y100.925 F7200.000
M204 S800
G1 F1800
G1 X144.775 Y100.925 E1.28832
G1 X144.775 Y109.075 E0.26548
G1 X105.225 Y109.075 E1.28832
G1 X105.225 Y100.985 E0.26353
M204 S1000
G1 X105.624 Y100.952 F7200.000
G1 F5760
G1 X107.419 Y100.982 E-0.76000
G1 E-0.04000 F2100.00000
G1 X105.754 Y107.719 F7200.000
G1 E0.80000 F2100.00000
M204 S2000
G1 F2388
G1 X106.397 Y108.363 E0.02975
G1 X106.975 Y108.363 E0.01891
