; generated by Slic3r 1.1.7 on 2017-01-12 at 12:49:45

; perimeters extrusion width = 0.45mm
; infill extrusion width = 0.45mm
; solid infill extrusion width = 0.45mm
; top infill extrusion width = 0.40mm

G21 ; set units to millimeters
M107
M115 U3.0.8 ; tell printer latest fw version
M83  ; extruder relative mode
M104 S210 ; set extruder temp
M140 S55 ; set bed temp
M190 S55 ; wait for bed temp
M109 S210 ; wait for extruder temp
G28 W ; home all without mesh bed level
G80 ; mesh bed leveling
G1 Y-3.0 F1000.0 ; go outside pritn area
G1 X60.0 E9.0  F1000.0 ; intro line
G1 X100.0 E12.5  F1000.0 ; intro line
G90 ; use absolute coordinates
M83 ; use relative distances for extrusion
M204 S1000
G1 F2100.000 E-0.80000
G1 Z0.150 F7200.000
G1 X62.599 Y94.015 F7200.000
G1 E0.80000 F2100.000
G1 X63.575 Y93.809 E0.02586 F1800.000
G1 X186.425 Y93.809 E3.18485
G1 X187.744 Y94.201 E0.03566
G1 X188.635 Y95.249 E0.03566
G1 X188.841 Y96.225 E0.02586
G1 X188.841 Y113.775 E0.45498
G1 X188.449 Y115.094 E0.03566
G1 X187.401 Y115.985 E0.03566
G1 X186.425 Y116.191 E0.02586
G1 X63.575 Y116.191 E3.18485
G1 X62.256 Y115.799 E0.03566
G1 X61.365 Y114.751 E0.03566
G1 X61.159 Y113.775 E0.02586
G1 X61.159 Y96.225 E0.45498
G1 X61.551 Y94.906 E0.03566
G1 X62.553 Y94.054 E0.03411
G1 X63.575 Y93.809 F5760.000 E-0.36384
G1 X64.719 Y93.809 F5760.000 E-0.39616
G1 F2100.000 E-0.04000
G1 X185.799 Y113.149 F7200.000
G1 E0.80000 F2100.000
G1 X64.201 Y113.149 E3.15241 F1440.000
G1 X64.201 Y96.851 E0.42254
G1 X185.799 Y96.851 E3.15241
G1 X185.799 Y113.089 E0.42098
G1 X186.215 Y113.565 F7200.000
G1 X63.785 Y113.565 E3.17396 F1080.000
G1 X63.785 Y96.435 E0.44409
G1 X186.215 Y96.435 E3.17396
G1 X186.215 Y113.505 E0.44253
G1 X185.869 Y113.365 F7200.000
G1 X183.674 Y113.369 F5760.000 E-0.76000
G1 F2100.000 E-0.04000
G1 X185.478 Y97.132 F7200.000
G1 E0.80000 F2100.000
G1 X185.518 Y97.172 E0.00147 F1440.000
G1 X185.518 Y97.761 E0.01527
G1 X184.889 Y97.132 E0.02307
G1 X184.300 Y97.132 E0.01527
G1 X185.518 Y98.350 E0.04467
G1 X185.518 Y98.940 E0.01527
G1 X183.710 Y97.132 E0.06627
G1 X183.121 Y97.132 E0.01527
G1 X185.518 Y99.529 E0.08787
G1 X185.518 Y100.118 E0.01527
G1 X182.532 Y97.132 E0.10947
G1 X181.943 Y97.132 E0.01527
G1 X185.518 Y100.707 E0.13108
G1 X185.518 Y101.296 E0.01527
G1 X181.354 Y97.132 E0.15268
G1 X180.764 Y97.132 E0.01527
G1 X185.518 Y101.886 E0.17428
G1 X185.518 Y102.475 E0.01527
G1 X180.175 Y97.132 E0.19588
G1 X179.586 Y97.132 E0.01527
G1 X185.518 Y103.064 E0.21748
G1 X185.518 Y103.653 E0.01527
G1 X178.997 Y97.132 E0.23908
G1 X178.408 Y97.132 E0.01527
G1 X185.518 Y104.242 E0.26068
G1 X185.518 Y104.832 E0.01527
G1 X177.818 Y97.132 E0.28229
G1 X177.229 Y97.132 E0.01527
G1 X185.518 Y105.421 E0.30389
G1 X185.518 Y106.010 E0.01527
G1 X176.640 Y97.132 E0.32549
G1 X176.051 Y97.132 E0.01527
G1 X185.518 Y106.599 E0.34709
G1 X185.518 Y107.188 E0.01527
G1 X175.462 Y97.132 E0.36869
G1 X174.873 Y97.132 E0.01527
G1 X185.518 Y107.777 E0.39029
G1 X185.518 Y108.367 E0.01527
G1 X174.283 Y97.132 E0.41189
G1 X173.694 Y97.132 E0.01527
G1 X185.518 Y108.956 E0.43350
G1 X185.518 Y109.545 E0.01527
G1 X173.105 Y97.132 E0.45510
G1 X172.516 Y97.132 E0.01527
G1 X185.518 Y110.134 E0.47670
G1 X185.518 Y110.723 E0.01527
G1 X171.927 Y97.132 E0.49830
G1 X171.337 Y97.132 E0.01527
G1 X185.518 Y111.313 E0.51990
G1 X185.518 Y111.902 E0.01527
G1 X170.748 Y97.132 E0.54150
G1 X170.159 Y97.132 E0.01527
G1 X185.518 Y112.491 E0.56310
G1 X185.306 Y112.868 E0.01121
G1 X169.570 Y97.132 E0.57692
G1 X168.981 Y97.132 E0.01527
G1 X184.717 Y112.868 E0.57692
G1 X184.127 Y112.868 E0.01527
G1 X168.391 Y97.132 E0.57692
G1 X167.802 Y97.132 E0.01527
G1 X183.538 Y112.868 E0.57692
G1 X182.949 Y112.868 E0.01527
G1 X167.213 Y97.132 E0.57692
G1 X166.624 Y97.132 E0.01527
G1 X182.360 Y112.868 E0.57692
G1 X181.771 Y112.868 E0.01527
G1 X166.035 Y97.132 E0.57692
G1 X165.446 Y97.132 E0.01527
G1 X181.181 Y112.868 E0.57692
G1 X180.592 Y112.868 E0.01527
G1 X164.856 Y97.132 E0.57692
G1 X164.267 Y97.132 E0.01527
G1 X180.003 Y112.868 E0.57692
G1 X179.414 Y112.868 E0.01527
G1 X163.678 Y97.132 E0.57692
G1 X163.089 Y97.132 E0.01527
G1 X178.825 Y112.868 E0.57692
G1 X178.235 Y112.868 E0.01527
G1 X162.500 Y97.132 E0.57692
G1 X161.910 Y97.132 E0.01527
G1 X177.646 Y112.868 E0.57692
G1 X177.057 Y112.868 E0.01527
G1 X161.321 Y97.132 E0.57692
G1 X160.732 Y97.132 E0.01527
G1 X176.468 Y112.868 E0.57692
G1 X175.879 Y112.868 E0.01527
G1 X160.143 Y97.132 E0.57692
G1 X159.554 Y97.132 E0.01527
G1 X175.289 Y112.868 E0.57692
G1 X174.700 Y112.868 E0.01527
G1 X158.964 Y97.132 E0.57692
G1 X158.375 Y97.132 E0.01527
G1 X174.111 Y112.868 E0.57692
G1 X173.522 Y112.868 E0.01527
G1 X157.786 Y97.132 E0.57692
G1 X157.197 Y97.132 E0.01527
G1 X172.933 Y112.868 E0.57692
G1 X172.344 Y112.868 E0.01527
G1 X156.608 Y97.132 E0.57692
G1 X156.019 Y97.132 E0.01527
G1 X171.754 Y112.868 E0.57692
G1 X171.165 Y112.868 E0.01527
G1 X155.429 Y97.132 E0.57692
G1 X154.840 Y97.132 E0.01527
G1 X170.576 Y112.868 E0.57692
G1 X169.987 Y112.868 E0.01527
G1 X154.251 Y97.132 E0.57692
G1 X153.662 Y97.132 E0.01527
G1 X169.398 Y112.868 E0.57692
G1 X168.808 Y112.868 E0.01527
G1 X153.073 Y97.132 E0.57692
G1 X152.483 Y97.132 E0.01527
G1 X168.219 Y112.868 E0.57692
G1 X167.630 Y112.868 E0.01527
G1 X151.894 Y97.132 E0.57692
G1 X151.305 Y97.132 E0.01527
G1 X167.041 Y112.868 E0.57692
G1 X166.452 Y112.868 E0.01527
G1 X150.716 Y97.132 E0.57692
G1 X150.127 Y97.132 E0.01527
G1 X165.862 Y112.868 E0.57692
G1 X165.273 Y112.868 E0.01527
G1 X149.537 Y97.132 E0.57692
G1 X148.948 Y97.132 E0.01527
G1 X164.684 Y112.868 E0.57692
G1 X164.095 Y112.868 E0.01527
G1 X148.359 Y97.132 E0.57692
G1 X147.770 Y97.132 E0.01527
G1 X163.506 Y112.868 E0.57692
G1 X162.917 Y112.868 E0.01527
G1 X147.181 Y97.132 E0.57692
G1 X146.591 Y97.132 E0.01527
G1 X162.327 Y112.868 E0.57692
G1 X161.738 Y112.868 E0.01527
G1 X146.002 Y97.132 E0.57692
G1 X145.413 Y97.132 E0.01527
G1 X161.149 Y112.868 E0.57692
G1 X160.560 Y112.868 E0.01527
G1 X144.824 Y97.132 E0.57692
G1 X144.235 Y97.132 E0.01527
G1 X159.971 Y112.868 E0.57692
G1 X159.381 Y112.868 E0.01527
G1 X143.646 Y97.132 E0.57692
G1 X143.056 Y97.132 E0.01527
G1 X158.792 Y112.868 E0.57692
G1 X158.203 Y112.868 E0.01527
G1 X142.467 Y97.132 E0.57692
G1 X141.878 Y97.132 E0.01527
G1 X157.614 Y112.868 E0.57692
G1 X157.025 Y112.868 E0.01527
G1 X141.289 Y97.132 E0.57692
G1 X140.700 Y97.132 E0.01527
G1 X156.435 Y112.868 E0.57692
G1 X155.846 Y112.868 E0.01527
G1 X140.110 Y97.132 E0.57692
G1 X139.521 Y97.132 E0.01527
G1 X155.257 Y112.868 E0.57692
G1 X154.668 Y112.868 E0.01527
G1 X138.932 Y97.132 E0.57692
G1 X138.343 Y97.132 E0.01527
G1 X154.079 Y112.868 E0.57692
G1 X153.490 Y112.868 E0.01527
G1 X137.754 Y97.132 E0.57692
G1 X137.164 Y97.132 E0.01527
G1 X152.900 Y112.868 E0.57692
G1 X152.311 Y112.868 E0.01527
G1 X136.575 Y97.132 E0.57692
G1 X135.986 Y97.132 E0.01527
G1 X151.722 Y112.868 E0.57692
G1 X151.133 Y112.868 E0.01527
G1 X135.397 Y97.132 E0.57692
G1 X134.808 Y97.132 E0.01527
G1 X150.544 Y112.868 E0.57692
G1 X149.954 Y112.868 E0.01527
G1 X134.219 Y97.132 E0.57692
G1 X133.629 Y97.132 E0.01527
G1 X149.365 Y112.868 E0.57692
G1 X148.776 Y112.868 E0.01527
G1 X133.040 Y97.132 E0.57692
G1 X132.451 Y97.132 E0.01527
G1 X148.187 Y112.868 E0.57692
G1 X147.598 Y112.868 E0.01527
G1 X131.862 Y97.132 E0.57692
G1 X131.273 Y97.132 E0.01527
G1 X147.008 Y112.868 E0.57692
G1 X146.419 Y112.868 E0.01527
G1 X130.683 Y97.132 E0.57692
G1 X130.094 Y97.132 E0.01527
G1 X145.830 Y112.868 E0.57692
G1 X145.241 Y112.868 E0.01527
G1 X129.505 Y97.132 E0.57692
G1 X128.916 Y97.132 E0.01527
G1 X144.652 Y112.868 E0.57692
G1 X144.063 Y112.868 E0.01527
G1 X128.327 Y97.132 E0.57692
G1 X127.737 Y97.132 E0.01527
G1 X143.473 Y112.868 E0.57692
G1 X142.884 Y112.868 E0.01527
G1 X127.148 Y97.132 E0.57692
G1 X126.559 Y97.132 E0.01527
G1 X142.295 Y112.868 E0.57692
G1 X141.706 Y112.868 E0.01527
G1 X125.970 Y97.132 E0.57692
G1 X125.381 Y97.132 E0.01527
G1 X141.117 Y112.868 E0.57692
G1 X140.527 Y112.868 E0.01527
G1 X124.792 Y97.132 E0.57692
G1 X124.202 Y97.132 E0.01527
G1 X139.938 Y112.868 E0.57692
G1 X139.349 Y112.868 E0.01527
G1 X123.613 Y97.132 E0.57692
G1 X123.024 Y97.132 E0.01527
G1 X138.760 Y112.868 E0.57692
G1 X138.171 Y112.868 E0.01527
G1 X122.435 Y97.132 E0.57692
G1 X121.846 Y97.132 E0.01527
G1 X137.581 Y112.868 E0.57692
G1 X136.992 Y112.868 E0.01527
G1 X121.256 Y97.132 E0.57692
G1 X120.667 Y97.132 E0.01527
G1 X136.403 Y112.868 E0.57692
G1 X135.814 Y112.868 E0.01527
G1 X120.078 Y97.132 E0.57692
G1 X119.489 Y97.132 E0.01527
G1 X135.225 Y112.868 E0.57692
G1 X134.635 Y112.868 E0.01527
G1 X118.900 Y97.132 E0.57692
G1 X118.310 Y97.132 E0.01527
G1 X134.046 Y112.868 E0.57692
G1 X133.457 Y112.868 E0.01527
G1 X117.721 Y97.132 E0.57692
G1 X117.132 Y97.132 E0.01527
G1 X132.868 Y112.868 E0.57692
G1 X132.279 Y112.868 E0.01527
G1 X116.543 Y97.132 E0.57692
G1 X115.954 Y97.132 E0.01527
G1 X131.690 Y112.868 E0.57692
G1 X131.100 Y112.868 E0.01527
G1 X115.365 Y97.132 E0.57692
G1 X114.775 Y97.132 E0.01527
G1 X130.511 Y112.868 E0.57692
G1 X129.922 Y112.868 E0.01527
G1 X114.186 Y97.132 E0.57692
G1 X113.597 Y97.132 E0.01527
G1 X129.333 Y112.868 E0.57692
G1 X128.744 Y112.868 E0.01527
G1 X113.008 Y97.132 E0.57692
G1 X112.419 Y97.132 E0.01527
G1 X128.154 Y112.868 E0.57692
G1 X127.565 Y112.868 E0.01527
G1 X111.829 Y97.132 E0.57692
G1 X111.240 Y97.132 E0.01527
G1 X126.976 Y112.868 E0.57692
G1 X126.387 Y112.868 E0.01527
G1 X110.651 Y97.132 E0.57692
G1 X110.062 Y97.132 E0.01527
G1 X125.798 Y112.868 E0.57692
G1 X125.208 Y112.868 E0.01527
G1 X109.473 Y97.132 E0.57692
G1 X108.883 Y97.132 E0.01527
G1 X124.619 Y112.868 E0.57692
G1 X124.030 Y112.868 E0.01527
G1 X108.294 Y97.132 E0.57692
G1 X107.705 Y97.132 E0.01527
G1 X123.441 Y112.868 E0.57692
G1 X122.852 Y112.868 E0.01527
G1 X107.116 Y97.132 E0.57692
G1 X106.527 Y97.132 E0.01527
G1 X122.263 Y112.868 E0.57692
G1 X121.673 Y112.868 E0.01527
G1 X105.937 Y97.132 E0.57692
G1 X105.348 Y97.132 E0.01527
G1 X121.084 Y112.868 E0.57692
G1 X120.495 Y112.868 E0.01527
G1 X104.759 Y97.132 E0.57692
G1 X104.170 Y97.132 E0.01527
G1 X119.906 Y112.868 E0.57692
G1 X119.317 Y112.868 E0.01527
G1 X103.581 Y97.132 E0.57692
G1 X102.992 Y97.132 E0.01527
G1 X118.727 Y112.868 E0.57692
G1 X118.138 Y112.868 E0.01527
G1 X102.402 Y97.132 E0.57692
G1 X101.813 Y97.132 E0.01527
G1 X117.549 Y112.868 E0.57692
G1 X116.960 Y112.868 E0.01527
G1 X101.224 Y97.132 E0.57692
G1 X100.635 Y97.132 E0.01527
G1 X116.371 Y112.868 E0.57692
G1 X115.781 Y112.868 E0.01527
G1 X100.046 Y97.132 E0.57692
G1 X99.456 Y97.132 E0.01527
G1 X115.192 Y112.868 E0.57692
G1 X114.603 Y112.868 E0.01527
G1 X98.867 Y97.132 E0.57692
G1 X98.278 Y97.132 E0.01527
G1 X114.014 Y112.868 E0.57692
G1 X113.425 Y112.868 E0.01527
G1 X97.689 Y97.132 E0.57692
G1 X97.100 Y97.132 E0.01527
G1 X112.836 Y112.868 E0.57692
G1 X112.246 Y112.868 E0.01527
G1 X96.510 Y97.132 E0.57692
G1 X95.921 Y97.132 E0.01527
G1 X111.657 Y112.868 E0.57692
G1 X111.068 Y112.868 E0.01527
G1 X95.332 Y97.132 E0.57692
G1 X94.743 Y97.132 E0.01527
G1 X110.479 Y112.868 E0.57692
G1 X109.890 Y112.868 E0.01527
G1 X94.154 Y97.132 E0.57692
G1 X93.565 Y97.132 E0.01527
G1 X109.300 Y112.868 E0.57692
G1 X108.711 Y112.868 E0.01527
G1 X92.975 Y97.132 E0.57692
G1 X92.386 Y97.132 E0.01527
G1 X108.122 Y112.868 E0.57692
G1 X107.533 Y112.868 E0.01527
G1 X91.797 Y97.132 E0.57692
G1 X91.208 Y97.132 E0.01527
G1 X106.944 Y112.868 E0.57692
G1 X106.354 Y112.868 E0.01527
G1 X90.619 Y97.132 E0.57692
G1 X90.029 Y97.132 E0.01527
G1 X105.765 Y112.868 E0.57692
G1 X105.176 Y112.868 E0.01527
G1 X89.440 Y97.132 E0.57692
G1 X88.851 Y97.132 E0.01527
G1 X104.587 Y112.868 E0.57692
G1 X103.998 Y112.868 E0.01527
G1 X88.262 Y97.132 E0.57692
G1 X87.673 Y97.132 E0.01527
G1 X103.409 Y112.868 E0.57692
G1 X102.819 Y112.868 E0.01527
G1 X87.083 Y97.132 E0.57692
G1 X86.494 Y97.132 E0.01527
G1 X102.230 Y112.868 E0.57692
G1 X101.641 Y112.868 E0.01527
G1 X85.905 Y97.132 E0.57692
G1 X85.316 Y97.132 E0.01527
G1 X101.052 Y112.868 E0.57692
G1 X100.463 Y112.868 E0.01527
G1 X84.727 Y97.132 E0.57692
G1 X84.138 Y97.132 E0.01527
G1 X99.873 Y112.868 E0.57692
G1 X99.284 Y112.868 E0.01527
G1 X83.548 Y97.132 E0.57692
G1 X82.959 Y97.132 E0.01527
G1 X98.695 Y112.868 E0.57692
G1 X98.106 Y112.868 E0.01527
G1 X82.370 Y97.132 E0.57692
G1 X81.781 Y97.132 E0.01527
G1 X97.517 Y112.868 E0.57692
G1 X96.927 Y112.868 E0.01527
G1 X81.192 Y97.132 E0.57692
G1 X80.602 Y97.132 E0.01527
G1 X96.338 Y112.868 E0.57692
G1 X95.749 Y112.868 E0.01527
G1 X80.013 Y97.132 E0.57692
G1 X79.424 Y97.132 E0.01527
G1 X95.160 Y112.868 E0.57692
G1 X94.571 Y112.868 E0.01527
G1 X78.835 Y97.132 E0.57692
G1 X78.246 Y97.132 E0.01527
G1 X93.981 Y112.868 E0.57692
G1 X93.392 Y112.868 E0.01527
G1 X77.656 Y97.132 E0.57692
G1 X77.067 Y97.132 E0.01527
G1 X92.803 Y112.868 E0.57692
G1 X92.214 Y112.868 E0.01527
G1 X76.478 Y97.132 E0.57692
G1 X75.889 Y97.132 E0.01527
G1 X91.625 Y112.868 E0.57692
G1 X91.036 Y112.868 E0.01527
G1 X75.300 Y97.132 E0.57692
G1 X74.711 Y97.132 E0.01527
G1 X90.446 Y112.868 E0.57692
G1 X89.857 Y112.868 E0.01527
G1 X74.121 Y97.132 E0.57692
G1 X73.532 Y97.132 E0.01527
G1 X89.268 Y112.868 E0.57692
G1 X88.679 Y112.868 E0.01527
G1 X72.943 Y97.132 E0.57692
G1 X72.354 Y97.132 E0.01527
G1 X88.090 Y112.868 E0.57692
G1 X87.500 Y112.868 E0.01527
G1 X71.765 Y97.132 E0.57692
G1 X71.175 Y97.132 E0.01527
G1 X86.911 Y112.868 E0.57692
G1 X86.322 Y112.868 E0.01527
G1 X70.586 Y97.132 E0.57692
G1 X69.997 Y97.132 E0.01527
G1 X85.733 Y112.868 E0.57692
G1 X85.144 Y112.868 E0.01527
G1 X69.408 Y97.132 E0.57692
G1 X68.819 Y97.132 E0.01527
G1 X84.554 Y112.868 E0.57692
G1 X83.965 Y112.868 E0.01527
G1 X68.229 Y97.132 E0.57692
G1 X67.640 Y97.132 E0.01527
G1 X83.376 Y112.868 E0.57692
G1 X82.787 Y112.868 E0.01527
G1 X67.051 Y97.132 E0.57692
G1 X66.462 Y97.132 E0.01527
G1 X82.198 Y112.868 E0.57692
G1 X81.609 Y112.868 E0.01527
G1 X65.873 Y97.132 E0.57692
G1 X65.284 Y97.132 E0.01527
G1 X81.019 Y112.868 E0.57692
G1 X80.430 Y112.868 E0.01527
G1 X64.694 Y97.132 E0.57692
G1 X64.482 Y97.509 E0.01121
G1 X79.841 Y112.868 E0.56310
G1 X79.252 Y112.868 E0.01527
G1 X64.482 Y98.098 E0.54150
G1 X64.482 Y98.687 E0.01527
G1 X78.663 Y112.868 E0.51990
G1 X78.073 Y112.868 E0.01527
G1 X64.482 Y99.277 E0.49830
G1 X64.482 Y99.866 E0.01527
G1 X77.484 Y112.868 E0.47670
G1 X76.895 Y112.868 E0.01527
G1 X64.482 Y100.455 E0.45510
G1 X64.482 Y101.044 E0.01527
G1 X76.306 Y112.868 E0.43350
G1 X75.717 Y112.868 E0.01527
G1 X64.482 Y101.633 E0.41189
G1 X64.482 Y102.223 E0.01527
G1 X75.127 Y112.868 E0.39029
G1 X74.538 Y112.868 E0.01527
G1 X64.482 Y102.812 E0.36869
G1 X64.482 Y103.401 E0.01527
G1 X73.949 Y112.868 E0.34709
G1 X73.360 Y112.868 E0.01527
G1 X64.482 Y103.990 E0.32549
G1 X64.482 Y104.579 E0.01527
G1 X72.771 Y112.868 E0.30389
G1 X72.182 Y112.868 E0.01527
G1 X64.482 Y105.168 E0.28229
G1 X64.482 Y105.758 E0.01527
G1 X71.592 Y112.868 E0.26068
G1 X71.003 Y112.868 E0.01527
G1 X64.482 Y106.347 E0.23908
G1 X64.482 Y106.936 E0.01527
G1 X70.414 Y112.868 E0.21748
G1 X69.825 Y112.868 E0.01527
G1 X64.482 Y107.525 E0.19588
G1 X64.482 Y108.114 E0.01527
G1 X69.236 Y112.868 E0.17428
G1 X68.646 Y112.868 E0.01527
G1 X64.482 Y108.704 E0.15268
G1 X64.482 Y109.293 E0.01527
G1 X68.057 Y112.868 E0.13108
G1 X67.468 Y112.868 E0.01527
G1 X64.482 Y109.882 E0.10947
G1 X64.482 Y110.471 E0.01527
G1 X66.879 Y112.868 E0.08787
G1 X66.290 Y112.868 E0.01527
G1 X64.482 Y111.060 E0.06627
G1 X64.482 Y111.650 E0.01527
G1 X65.700 Y112.868 E0.04467
G1 X65.111 Y112.868 E0.01527
G1 X64.482 Y112.239 E0.02307
G1 X64.482 Y112.828 E0.01527
G1 X64.522 Y112.868 E0.00147
M106 S216
M204 S1000
G1 X64.482 Y112.828 F5760.000 E-0.01959
G1 X64.482 Y112.239 F5760.000 E-0.20407
G1 X65.111 Y112.868 F5760.000 E-0.30819
G1 X65.700 Y112.868 F5760.000 E-0.20407
G1 X65.651 Y112.819 F5760.000 E-0.02408
G1 F2100.000 E-0.04000
G1 Z0.350 F7200.000
G1 X185.761 Y113.111 F7200.000
G1 E0.80000 F2100.000
M204 S800
G1 X64.239 Y113.111 E4.43862 F2400.000
G1 X64.239 Y96.889 E0.59250
G1 X185.761 Y96.889 E4.43862
G1 X185.761 Y113.051 E0.59030
M204 S1000
G1 X186.200 Y113.550 F7200.000
M204 S800
G1 X63.800 Y113.550 E4.47071 F1800.000
