; generated by Slic3r 1.1.7 on 2017-01-12 at 12:37:31

; perimeters extrusion width = 0.45mm
; infill extrusion width = 0.45mm
; solid infill extrusion width = 0.45mm
; top infill extrusion width = 0.40mm

G21 ; set units to millimeters
M107
M115 U3.0.8 ; tell printer latest fw version
M83  ; extruder relative mode
M104 S210 ; set extruder temp
M140 S55 ; set bed temp
M190 S55 ; wait for bed temp
M109 S210 ; wait for extruder temp
G28 W ; home all without mesh bed level
G80 ; mesh bed leveling
G1 Y-3.0 F1000.0 ; go outside pritn area
G1 X60.0 E9.0  F1000.0 ; intro line
G1 X100.0 E12.5  F1000.0 ; intro line
G90 ; use absolute coordinates
M83 ; use relative distances for extrusion
M204 S1000
G1 F2100.000 E-0.80000
G1 Z0.150 F7200.000
G1 X87.201 Y97.719 F7200.000
G1 E0.80000 F2100.000
G1 X88.249 Y96.828 E0.03566 F1800.000
G1 X89.225 Y96.622 E0.02586
G1 X160.775 Y96.622 E1.85491
G1 X162.094 Y97.014 E0.03566
G1 X162.985 Y98.062 E0.03566
G1 X163.191 Y99.037 E0.02586
G1 X163.191 Y110.962 E0.30915
G1 X162.799 Y112.281 E0.03566
G1 X161.751 Y113.172 E0.03566
G1 X160.775 Y113.378 E0.02586
G1 X89.225 Y113.378 E1.85491
G1 X87.906 Y112.986 E0.03566
G1 X87.015 Y111.938 E0.03566
G1 X86.809 Y110.962 E0.02586
G1 X86.809 Y99.037 E0.30915
G1 X87.184 Y97.776 E0.03411
G1 X88.249 Y96.828 F5760.000 E-0.49402
G1 X89.001 Y96.669 F5760.000 E-0.26598
G1 F2100.000 E-0.04000
G1 X98.541 Y108.150 F7200.000
G1 E0.80000 F2100.000
G1 X98.318 Y108.371 E0.00816 F1440.000
G1 X97.892 Y108.722 E0.01430
G1 X97.653 Y108.885 E0.00750
G1 X97.147 Y109.163 E0.01497
G1 X96.881 Y109.278 E0.00750
G1 X96.332 Y109.456 E0.01498
G1 X95.764 Y109.565 E0.01498
G1 X95.476 Y109.592 E0.00749
G1 X94.899 Y109.592 E0.01497
G1 X94.325 Y109.520 E0.01498
G1 X94.043 Y109.456 E0.00750
G1 X93.494 Y109.278 E0.01498
G1 X92.971 Y109.032 E0.01497
G1 X92.722 Y108.885 E0.00750
G1 X92.255 Y108.545 E0.01498
G1 X92.038 Y108.354 E0.00749
G1 X91.816 Y108.130 E0.00816
G1 X91.465 Y107.705 E0.01430
G1 X91.303 Y107.465 E0.00750
G1 X91.024 Y106.959 E0.01497
G1 X90.910 Y106.694 E0.00750
G1 X90.731 Y106.144 E0.01498
G1 X90.668 Y105.862 E0.00749
G1 X90.596 Y105.289 E0.01498
G1 X90.596 Y104.711 E0.01497
G1 X90.623 Y104.424 E0.00749
G1 X90.668 Y104.138 E0.00750
G1 X90.812 Y103.578 E0.01499
G1 X90.910 Y103.306 E0.00749
G1 X91.156 Y102.783 E0.01498
G1 X91.465 Y102.295 E0.01499
G1 X91.816 Y101.870 E0.01430
G1 X92.038 Y101.646 E0.00816
G1 X92.483 Y101.278 E0.01498
G1 X92.949 Y100.981 E0.01431
G1 X93.228 Y100.837 E0.00816
G1 X93.494 Y100.722 E0.00749
G1 X94.043 Y100.544 E0.01498
G1 X94.325 Y100.480 E0.00750
G1 X94.899 Y100.408 E0.01498
G1 X95.476 Y100.408 E0.01497
G1 X96.050 Y100.480 E0.01498
G1 X96.332 Y100.544 E0.00749
G1 X96.881 Y100.722 E0.01498
G1 X97.404 Y100.968 E0.01498
G1 X97.653 Y101.115 E0.00749
G1 X98.120 Y101.455 E0.01498
G1 X98.337 Y101.646 E0.00750
G1 X98.733 Y102.067 E0.01497
G1 X98.910 Y102.296 E0.00750
G1 X99.206 Y102.761 E0.01431
G1 X99.351 Y103.041 E0.00816
G1 X99.465 Y103.306 E0.00749
G1 X99.644 Y103.856 E0.01498
G1 X99.748 Y104.398 E0.01431
G1 X99.779 Y104.711 E0.00817
G1 X99.789 Y105.000 E0.00749
G1 X99.752 Y105.577 E0.01498
G1 X99.701 Y105.887 E0.00816
G1 X99.563 Y106.422 E0.01431
G1 X99.465 Y106.694 E0.00750
G1 X99.219 Y107.216 E0.01497
G1 X98.910 Y107.704 E0.01498
G1 X98.581 Y108.105 E0.01343
G1 X98.238 Y107.865 F7200.000
G1 X98.043 Y108.059 E0.00715 F1080.000
G1 X97.648 Y108.386 E0.01329
G1 X97.204 Y108.667 E0.01363
G1 X96.969 Y108.787 E0.00682
G1 X96.728 Y108.891 E0.00682
G1 X96.228 Y109.054 E0.01363
G1 X95.712 Y109.152 E0.01363
G1 X95.450 Y109.177 E0.00682
G1 X94.925 Y109.177 E0.01362
G1 X94.663 Y109.152 E0.00682
G1 X94.147 Y109.054 E0.01363
G1 X93.882 Y108.976 E0.00715
G1 X93.406 Y108.787 E0.01329
G1 X92.945 Y108.534 E0.01363
G1 X92.717 Y108.378 E0.00714
G1 X92.323 Y108.051 E0.01329
G1 X92.128 Y107.855 E0.00715
G1 X91.802 Y107.460 E0.01329
G1 X91.654 Y107.242 E0.00682
G1 X91.401 Y106.782 E0.01362
G1 X91.296 Y106.541 E0.00682
G1 X91.134 Y106.041 E0.01363
G1 X91.077 Y105.784 E0.00682
G1 X91.011 Y105.263 E0.01363
G1 X91.011 Y104.737 E0.01362
G1 X91.035 Y104.476 E0.00682
G1 X91.077 Y104.216 E0.00682
G1 X91.207 Y103.707 E0.01363
G1 X91.296 Y103.459 E0.00681
G1 X91.520 Y102.984 E0.01363
G1 X91.802 Y102.540 E0.01363
G1 X92.128 Y102.145 E0.01329
G1 X92.323 Y101.949 E0.00715
G1 X92.728 Y101.614 E0.01363
G1 X93.160 Y101.339 E0.01329
G1 X93.406 Y101.213 E0.00715
G1 X93.647 Y101.109 E0.00682
G1 X94.147 Y100.946 E0.01362
G1 X94.403 Y100.889 E0.00682
G1 X94.925 Y100.823 E0.01363
G1 X95.450 Y100.823 E0.01362
G1 X95.972 Y100.889 E0.01363
G1 X96.228 Y100.946 E0.00682
G1 X96.728 Y101.109 E0.01363
G1 X97.204 Y101.333 E0.01363
G1 X97.430 Y101.466 E0.00681
G1 X97.648 Y101.614 E0.00682
G1 X98.052 Y101.949 E0.01362
G1 X98.412 Y102.332 E0.01362
G1 X98.573 Y102.540 E0.00682
G1 X98.848 Y102.973 E0.01329
G1 X98.974 Y103.218 E0.00715
G1 X99.079 Y103.459 E0.00681
G1 X99.241 Y103.959 E0.01362
G1 X99.338 Y104.463 E0.01329
G1 X99.364 Y104.737 E0.00715
G1 X99.373 Y105.000 E0.00681
G1 X99.340 Y105.525 E0.01363
G1 X99.296 Y105.797 E0.00715
G1 X99.168 Y106.293 E0.01329
G1 X99.079 Y106.541 E0.00682
G1 X98.855 Y107.016 E0.01362
G1 X98.573 Y107.460 E0.01363
G1 X98.278 Y107.820 E0.01207
G1 X98.317 Y108.129 F7200.000
G1 X98.043 Y108.059 F5760.000 E-0.09816
G1 X97.648 Y108.386 F5760.000 E-0.17757
G1 X97.204 Y108.667 F5760.000 E-0.18207
G1 X96.969 Y108.787 F5760.000 E-0.09105
G1 X96.728 Y108.891 F5760.000 E-0.09107
G1 X96.398 Y108.998 F5760.000 E-0.12008
G1 F2100.000 E-0.04000
G1 X102.713 Y106.430 F7200.000
G1 E0.80000 F2100.000
G1 X102.632 Y106.150 E0.00754 F1440.000
G1 X102.523 Y105.580 E0.01506
G1 X102.486 Y105.000 E0.01506
G1 X102.496 Y104.709 E0.00754
G1 X102.523 Y104.420 E0.00753
G1 X102.632 Y103.850 E0.01506
G1 X102.713 Y103.571 E0.00754
G1 X102.927 Y103.030 E0.01506
G1 X103.059 Y102.772 E0.00753
G1 X103.370 Y102.281 E0.01507
G1 X103.548 Y102.051 E0.00754
G1 X103.946 Y101.628 E0.01506
G1 X104.373 Y101.273 E0.01439
G1 X104.634 Y101.094 E0.00820
G1 X105.143 Y100.814 E0.01506
G1 X105.659 Y100.609 E0.01439
G1 X105.962 Y100.519 E0.00820
G1 X106.533 Y100.410 E0.01506
G1 X107.112 Y100.374 E0.01506
G1 X107.403 Y100.383 E0.00754
G1 X107.692 Y100.410 E0.00753
G1 X108.263 Y100.519 E0.01506
G1 X108.542 Y100.600 E0.00754
G1 X109.082 Y100.814 E0.01506
G1 X109.569 Y101.081 E0.01439
G1 X109.832 Y101.257 E0.00820
G1 X110.061 Y101.435 E0.00753
G1 X110.485 Y101.833 E0.01507
G1 X110.677 Y102.051 E0.00754
G1 X111.018 Y102.521 E0.01506
G1 X111.298 Y103.030 E0.01506
G1 X111.414 Y103.297 E0.00754
G1 X111.593 Y103.850 E0.01506
G1 X111.657 Y104.133 E0.00753
G1 X111.702 Y104.420 E0.00753
G1 X111.739 Y105.000 E0.01506
G1 X111.702 Y105.580 E0.01506
G1 X111.593 Y106.150 E0.01506
G1 X111.414 Y106.703 E0.01506
G1 X111.298 Y106.970 E0.00754
G1 X111.018 Y107.479 E0.01506
G1 X110.855 Y107.719 E0.00753
G1 X110.660 Y107.968 E0.00820
G1 X110.279 Y108.372 E0.01439
G1 X110.061 Y108.565 E0.00754
G1 X109.591 Y108.906 E0.01505
G1 X109.341 Y109.054 E0.00754
G1 X108.815 Y109.301 E0.01506
G1 X108.263 Y109.481 E0.01506
G1 X107.979 Y109.544 E0.00753
G1 X107.403 Y109.617 E0.01506
G1 X107.112 Y109.626 E0.00754
G1 X106.533 Y109.590 E0.01506
G1 X105.962 Y109.481 E0.01506
G1 X105.659 Y109.391 E0.00821
G1 X105.143 Y109.186 E0.01438
G1 X104.884 Y109.054 E0.00754
G1 X104.394 Y108.743 E0.01505
G1 X104.144 Y108.547 E0.00821
G1 X103.740 Y108.167 E0.01439
G1 X103.370 Y107.719 E0.01506
G1 X103.207 Y107.479 E0.00753
G1 X102.927 Y106.970 E0.01506
G1 X102.733 Y106.486 E0.01351
G1 X103.108 Y106.301 F7200.000
G1 X103.035 Y106.047 E0.00686 F1080.000
G1 X102.936 Y105.528 E0.01371
G1 X102.902 Y105.000 E0.01371
G1 X102.911 Y104.736 E0.00686
G1 X102.936 Y104.472 E0.00686
G1 X103.035 Y103.953 E0.01371
G1 X103.108 Y103.699 E0.00686
G1 X103.303 Y103.207 E0.01371
G1 X103.423 Y102.972 E0.00685
G1 X103.706 Y102.525 E0.01371
G1 X103.869 Y102.316 E0.00686
G1 X104.230 Y101.931 E0.01371
G1 X104.628 Y101.602 E0.01337
G1 X104.857 Y101.445 E0.00719
G1 X105.320 Y101.191 E0.01371
G1 X105.799 Y101.000 E0.01337
G1 X106.065 Y100.922 E0.00719
G1 X106.585 Y100.823 E0.01371
G1 X106.848 Y100.798 E0.00686
G1 X107.377 Y100.798 E0.01371
G1 X107.889 Y100.862 E0.01337
G1 X108.159 Y100.922 E0.00719
G1 X108.414 Y100.996 E0.00686
G1 X108.905 Y101.191 E0.01371
G1 X109.357 Y101.439 E0.01337
G1 X109.587 Y101.594 E0.00719
G1 X109.796 Y101.756 E0.00686
G1 X110.182 Y102.118 E0.01371
G1 X110.357 Y102.316 E0.00686
G1 X110.667 Y102.744 E0.01371
G1 X110.922 Y103.207 E0.01371
G1 X111.027 Y103.450 E0.00686
G1 X111.187 Y103.941 E0.01337
G1 X111.248 Y104.211 E0.00719
G1 X111.289 Y104.472 E0.00686
G1 X111.323 Y105.000 E0.01371
G1 X111.289 Y105.528 E0.01371
G1 X111.190 Y106.047 E0.01371
G1 X111.027 Y106.550 E0.01371
G1 X110.922 Y106.793 E0.00686
G1 X110.667 Y107.256 E0.01371
G1 X110.519 Y107.475 E0.00686
G1 X110.348 Y107.693 E0.00719
G1 X109.995 Y108.069 E0.01337
G1 X109.796 Y108.244 E0.00686
G1 X109.368 Y108.555 E0.01370
G1 X109.141 Y108.689 E0.00686
G1 X108.662 Y108.914 E0.01370
G1 X108.159 Y109.078 E0.01371
G1 X107.889 Y109.138 E0.00719
G1 X107.377 Y109.202 E0.01337
G1 X106.848 Y109.202 E0.01371
G1 X106.324 Y109.136 E0.01370
G1 X106.065 Y109.078 E0.00686
G1 X105.799 Y109.000 E0.00719
G1 X105.320 Y108.809 E0.01337
G1 X105.084 Y108.689 E0.00686
G1 X104.638 Y108.406 E0.01370
G1 X104.230 Y108.069 E0.01371
G1 X104.043 Y107.882 E0.00686
G1 X103.706 Y107.475 E0.01371
G1 X103.558 Y107.256 E0.00686
G1 X103.303 Y106.793 E0.01371
G1 X103.129 Y106.357 E0.01215
G1 X102.850 Y106.246 F7200.000
G1 X103.035 Y106.047 F5760.000 E-0.09410
G1 X102.936 Y105.528 F5760.000 E-0.18311
G1 X102.902 Y105.000 F5760.000 E-0.18312
G1 X102.911 Y104.736 F5760.000 E-0.09162
G1 X102.936 Y104.472 F5760.000 E-0.09159
G1 X102.999 Y104.142 F5760.000 E-0.11646
G1 F2100.000 E-0.04000
G1 X114.396 Y105.292 F7200.000
G1 E0.80000 F2100.000
G1 X114.395 Y104.734 E0.01447 F1440.000
G1 X114.423 Y104.417 E0.00824
G1 X114.533 Y103.843 E0.01514
G1 X114.704 Y103.312 E0.01447
G1 X114.829 Y103.020 E0.00825
G1 X115.110 Y102.508 E0.01514
G1 X115.275 Y102.266 E0.00757
G1 X115.647 Y101.816 E0.01514
G1 X115.854 Y101.610 E0.00758
G1 X116.304 Y101.237 E0.01514
G1 X116.774 Y100.937 E0.01447
G1 X117.057 Y100.792 E0.00824
G1 X117.600 Y100.577 E0.01514
G1 X117.881 Y100.495 E0.00758
G1 X118.454 Y100.386 E0.01513
G1 X118.746 Y100.358 E0.00759
G1 X119.304 Y100.357 E0.01446
G1 X119.620 Y100.386 E0.00824
G1 X120.194 Y100.495 E0.01514
G1 X120.475 Y100.577 E0.00757
G1 X120.994 Y100.781 E0.01448
G1 X121.278 Y100.924 E0.00825
G1 X121.530 Y101.073 E0.00757
G1 X122.002 Y101.416 E0.01514
G1 X122.221 Y101.610 E0.00758
G1 X122.621 Y102.035 E0.01514
G1 X122.800 Y102.266 E0.00758
G1 X123.113 Y102.759 E0.01514
G1 X123.246 Y103.020 E0.00757
G1 X123.461 Y103.563 E0.01514
G1 X123.606 Y104.128 E0.01514
G1 X123.677 Y104.682 E0.01448
G1 X123.689 Y105.000 E0.00824
G1 X123.652 Y105.583 E0.01515
G1 X123.606 Y105.872 E0.00758
G1 X123.461 Y106.437 E0.01514
G1 X123.246 Y106.980 E0.01514
G1 X123.113 Y107.241 E0.00757
G1 X122.800 Y107.734 E0.01514
G1 X122.621 Y107.965 E0.00758
G1 X122.221 Y108.390 E0.01514
G1 X121.982 Y108.600 E0.00825
G1 X121.530 Y108.927 E0.01447
G1 X121.018 Y109.208 E0.01514
G1 X120.725 Y109.333 E0.00825
G1 X120.194 Y109.505 E0.01448
G1 X119.620 Y109.614 E0.01514
G1 X119.330 Y109.642 E0.00757
G1 X119.037 Y109.651 E0.00758
G1 X118.454 Y109.614 E0.01515
G1 X117.881 Y109.505 E0.01513
G1 X117.600 Y109.423 E0.00759
G1 X117.057 Y109.208 E0.01514
G1 X116.797 Y109.076 E0.00757
G1 X116.545 Y108.927 E0.00758
G1 X116.073 Y108.584 E0.01514
G1 X115.647 Y108.184 E0.01515
G1 X115.454 Y107.965 E0.00757
G1 X115.275 Y107.734 E0.00758
G1 X114.962 Y107.241 E0.01514
G1 X114.713 Y106.712 E0.01514
G1 X114.614 Y106.437 E0.00759
G1 X114.469 Y105.872 E0.01513
G1 X114.401 Y105.352 E0.01359
G1 X114.811 Y105.266 F7200.000
G1 X114.810 Y104.747 E0.01345 F1080.000
G1 X114.836 Y104.469 E0.00723
G1 X114.935 Y103.947 E0.01379
G1 X115.095 Y103.453 E0.01345
G1 X115.206 Y103.197 E0.00723
G1 X115.462 Y102.731 E0.01379
G1 X115.611 Y102.511 E0.00690
G1 X115.950 Y102.101 E0.01379
G1 X116.138 Y101.913 E0.00690
G1 X116.548 Y101.574 E0.01379
G1 X116.986 Y101.295 E0.01345
G1 X117.234 Y101.168 E0.00723
G1 X117.729 Y100.972 E0.01379
G1 X117.984 Y100.898 E0.00690
G1 X118.507 Y100.798 E0.01378
G1 X118.772 Y100.773 E0.00690
G1 X119.290 Y100.773 E0.01345
G1 X119.568 Y100.798 E0.00723
G1 X120.091 Y100.898 E0.01379
G1 X120.346 Y100.972 E0.00690
G1 X120.829 Y101.163 E0.01346
G1 X121.078 Y101.289 E0.00723
G1 X121.307 Y101.424 E0.00690
G1 X121.737 Y101.737 E0.01379
G1 X122.116 Y102.092 E0.01345
G1 X122.301 Y102.300 E0.00723
G1 X122.464 Y102.511 E0.00690
G1 X122.749 Y102.960 E0.01379
G1 X122.869 Y103.197 E0.00690
G1 X123.065 Y103.691 E0.01379
G1 X123.198 Y104.206 E0.01379
G1 X123.263 Y104.721 E0.01346
G1 X123.273 Y105.000 E0.00723
G1 X123.239 Y105.531 E0.01379
G1 X123.198 Y105.794 E0.00690
G1 X123.065 Y106.309 E0.01379
G1 X122.869 Y106.803 E0.01379
G1 X122.749 Y107.040 E0.00690
G1 X122.464 Y107.489 E0.01379
G1 X122.301 Y107.700 E0.00690
G1 X121.937 Y108.087 E0.01379
G1 X121.727 Y108.271 E0.00723
G1 X121.307 Y108.576 E0.01345
G1 X120.841 Y108.832 E0.01379
G1 X120.584 Y108.942 E0.00723
G1 X120.091 Y109.102 E0.01346
G1 X119.568 Y109.202 E0.01379
G1 X119.303 Y109.227 E0.00690
G1 X119.037 Y109.235 E0.00690
G1 X118.507 Y109.202 E0.01379
G1 X117.984 Y109.102 E0.01378
G1 X117.729 Y109.028 E0.00690
G1 X117.234 Y108.832 E0.01379
G1 X116.997 Y108.711 E0.00690
G1 X116.768 Y108.576 E0.00690
G1 X116.338 Y108.263 E0.01379
G1 X115.950 Y107.899 E0.01379
G1 X115.774 Y107.700 E0.00690
G1 X115.611 Y107.489 E0.00690
G1 X115.326 Y107.040 E0.01379
G1 X115.100 Y106.559 E0.01379
G1 X115.010 Y106.309 E0.00690
G1 X114.877 Y105.794 E0.01378
G1 X114.816 Y105.326 E0.01224
G1 X114.456 Y105.081 F7200.000
G1 X114.810 Y104.747 F5760.000 E-0.16857
G1 X114.836 Y104.469 F5760.000 E-0.09660
G1 X114.935 Y103.947 F5760.000 E-0.18421
G1 X115.095 Y103.453 F5760.000 E-0.17975
G1 X115.206 Y103.197 F5760.000 E-0.09663
G1 X115.253 Y103.110 F5760.000 E-0.03424
G1 F2100.000 E-0.04000
G1 X126.286 Y105.000 F7200.000
G1 E0.80000 F2100.000
G1 X126.321 Y104.440 E0.01455 F1440.000
G1 X126.369 Y104.124 E0.00828
G1 X126.433 Y103.837 E0.00761
G1 X126.615 Y103.279 E0.01523
G1 X126.853 Y102.770 E0.01455
G1 X127.015 Y102.494 E0.00829
G1 X127.360 Y102.019 E0.01522
G1 X127.554 Y101.799 E0.00762
G1 X127.982 Y101.397 E0.01521
G1 X128.214 Y101.217 E0.00762
G1 X128.457 Y101.052 E0.00761
G1 X128.971 Y100.769 E0.01523
G1 X129.518 Y100.553 E0.01523
G1 X130.061 Y100.412 E0.01455
G1 X130.377 Y100.361 E0.00829
G1 X130.963 Y100.324 E0.01522
G1 X131.256 Y100.333 E0.00762
G1 X131.839 Y100.407 E0.01522
G1 X132.125 Y100.471 E0.00761
G1 X132.684 Y100.652 E0.01522
G1 X133.192 Y100.891 E0.01455
G1 X133.468 Y101.052 E0.00829
G1 X133.943 Y101.397 E0.01522
G1 X134.164 Y101.591 E0.00762
G1 X134.565 Y102.019 E0.01522
G1 X134.745 Y102.252 E0.00762
G1 X134.911 Y102.495 E0.00762
G1 X135.194 Y103.009 E0.01522
G1 X135.401 Y103.531 E0.01455
G1 X135.492 Y103.837 E0.00829
G1 X135.598 Y104.388 E0.01456
G1 X135.629 Y104.706 E0.00828
G1 X135.638 Y105.026 E0.00829
G1 X135.602 Y105.586 E0.01454
G1 X135.550 Y105.901 E0.00829
G1 X135.410 Y106.445 E0.01455
G1 X135.194 Y106.991 E0.01523
G1 X135.060 Y107.253 E0.00762
G1 X134.896 Y107.527 E0.00828
G1 X134.565 Y107.981 E0.01455
G1 X134.371 Y108.201 E0.00761
G1 X133.943 Y108.603 E0.01522
G1 X133.468 Y108.948 E0.01522
G1 X132.953 Y109.231 E0.01523
G1 X132.408 Y109.447 E0.01522
G1 X132.125 Y109.529 E0.00762
G1 X131.839 Y109.593 E0.00761
G1 X131.256 Y109.667 E0.01522
G1 X130.962 Y109.676 E0.00762
G1 X130.377 Y109.639 E0.01522
G1 X129.799 Y109.529 E0.01523
G1 X129.493 Y109.438 E0.00828
G1 X128.971 Y109.231 E0.01455
G1 X128.457 Y108.948 E0.01523
G1 X127.982 Y108.603 E0.01522
G1 X127.762 Y108.409 E0.00761
G1 X127.360 Y107.981 E0.01522
G1 X127.179 Y107.748 E0.00762
G1 X127.001 Y107.483 E0.00828
G1 X126.732 Y106.991 E0.01455
G1 X126.615 Y106.721 E0.00762
G1 X126.433 Y106.163 E0.01523
G1 X126.323 Y105.586 E0.01522
G1 X126.288 Y105.060 E0.01367
G1 X126.702 Y105.000 F7200.000
