; generated by Slic3r 1.1.7 on 2017-01-12 at 13:24:33

; perimeters extrusion width = 0.45mm
; infill extrusion width = 0.45mm
; solid infill extrusion width = 0.45mm
; top infill extrusion width = 0.40mm

G21 ; set units to millimeters
M107
M115 U3.0.8 ; tell printer latest fw version
M83  ; extruder relative mode
M104 S210 ; set extruder temp
M140 S55 ; set bed temp
M190 S55 ; wait for bed temp
M109 S210 ; wait for extruder temp
G28 W ; home all without mesh bed level
G80 ; mesh bed leveling
G1 Y-3.0 F1000.0 ; go outside pritn area
G1 X60.0 E9.0  F1000.0 ; intro line
G1 X100.0 E12.5  F1000.0 ; intro line
G90 ; use absolute coordinates
M83 ; use relative distances for extrusion
M204 S1000
G1 F2100.000 E-0.80000
G1 Z0.150 F7200.000
G1 X87.426 Y97.756 F7200.000
G1 E0.80000 F2100.000
G1 X88.474 Y96.865 E0.03566 F1800.000
G1 X89.450 Y96.659 E0.02586
G1 X160.550 Y96.659 E1.84325
G1 X161.869 Y97.051 E0.03566
G1 X162.760 Y98.099 E0.03566
G1 X162.966 Y99.075 E0.02586
G1 X162.966 Y110.925 E0.30721
G1 X162.574 Y112.244 E0.03566
G1 X161.526 Y113.135 E0.03566
G1 X160.550 Y113.341 E0.02586
G1 X89.450 Y113.341 E1.84325
G1 X88.131 Y112.949 E0.03566
G1 X87.240 Y111.901 E0.03566
G1 X87.034 Y110.925 E0.02586
G1 X87.034 Y99.075 E0.30721
G1 X87.409 Y97.814 E0.03411
G1 X88.474 Y96.865 F5760.000 E-0.49402
G1 X89.226 Y96.707 F5760.000 E-0.26598
G1 F2100.000 E-0.04000
G1 X100.048 Y105.000 F7200.000
G1 E0.80000 F2100.000
G1 X97.711 Y109.047 E0.12113 F1440.000
G1 X93.039 Y109.047 E0.12113
G1 X92.809 Y108.648 E0.01193
G1 X90.703 Y105.000 E0.10921
G1 X93.039 Y100.953 E0.12113
G1 X97.711 Y100.953 E0.12113
G1 X100.018 Y104.948 E0.11958
G1 X99.567 Y105.000 F7200.000
G1 X97.471 Y108.631 E0.10869 F1080.000
G1 X93.279 Y108.631 E0.10869
G1 X93.169 Y108.440 E0.00570
G1 X91.183 Y105.000 E0.10299
G1 X93.279 Y101.369 E0.10869
G1 X97.471 Y101.369 E0.10869
G1 X99.537 Y104.948 E0.10713
G1 X99.874 Y105.257 F7200.000
G1 X98.601 Y107.044 F5760.000 E-0.76000
G1 F2100.000 E-0.04000
G1 X102.502 Y105.000 F7200.000
G1 E0.80000 F2100.000
G1 X104.864 Y100.910 E0.12243 F1440.000
G1 X109.586 Y100.910 E0.12243
G1 X111.948 Y105.000 E0.12243
G1 X109.586 Y109.090 E0.12243
G1 X104.864 Y109.090 E0.12243
G1 X102.532 Y105.052 E0.12087
G1 X102.983 Y105.000 F7200.000
G1 X105.104 Y101.326 E0.10999 F1080.000
G1 X109.346 Y101.326 E0.10999
G1 X111.467 Y105.000 E0.10999
G1 X109.346 Y108.674 E0.10999
G1 X105.104 Y108.674 E0.10999
G1 X103.013 Y105.052 E0.10843
G1 X102.676 Y104.743 F7200.000
G1 X103.947 Y102.954 F5760.000 E-0.76000
G1 F2100.000 E-0.04000
G1 X116.689 Y100.867 F7200.000
G1 E0.80000 F2100.000
G1 X121.461 Y100.867 E0.12373 F1440.000
G1 X123.847 Y105.000 E0.12373
G1 X121.461 Y109.133 E0.12373
G1 X116.689 Y109.133 E0.12373
G1 X114.302 Y105.000 E0.12373
G1 X116.659 Y100.919 E0.12217
G1 X116.929 Y101.283 F7200.000
G1 X121.221 Y101.283 E0.11128 F1080.000
G1 X123.367 Y105.000 E0.11128
G1 X121.221 Y108.717 E0.11128
G1 X116.929 Y108.717 E0.11128
G1 X114.783 Y105.000 E0.11128
G1 X116.899 Y101.335 E0.10973
G1 X116.998 Y100.889 F7200.000
G1 X119.183 Y101.092 F5760.000 E-0.76000
G1 F2100.000 E-0.04000
G1 X128.514 Y100.824 F7200.000
G1 E0.80000 F2100.000
G1 X133.336 Y100.824 E0.12502 F1440.000
G1 X135.748 Y105.000 E0.12502
G1 X133.336 Y109.176 E0.12502
G1 X128.514 Y109.176 E0.12502
G1 X126.102 Y105.000 E0.12502
G1 X128.484 Y100.876 E0.12347
G1 X128.754 Y101.239 F7200.000
G1 X133.096 Y101.239 E0.11258 F1080.000
G1 X135.267 Y105.000 E0.11258
G1 X133.096 Y108.761 E0.11258
G1 X128.754 Y108.761 E0.11258
G1 X126.583 Y105.000 E0.11258
G1 X128.724 Y101.291 E0.11102
G1 X128.823 Y100.845 F7200.000
G1 X131.008 Y101.047 F5760.000 E-0.76000
G1 F2100.000 E-0.04000
G1 X140.339 Y100.780 F7200.000
G1 E0.80000 F2100.000
G1 X145.211 Y100.780 E0.12632 F1440.000
G1 X147.647 Y105.000 E0.12632
G1 X145.211 Y109.220 E0.12632
G1 X140.339 Y109.220 E0.12632
G1 X137.902 Y105.000 E0.12632
G1 X140.309 Y100.832 E0.12476
G1 X140.579 Y101.196 F7200.000
G1 X144.971 Y101.196 E0.11387 F1080.000
G1 X147.167 Y105.000 E0.11387
G1 X144.971 Y108.804 E0.11387
G1 X140.579 Y108.804 E0.11387
G1 X138.383 Y105.000 E0.11387
G1 X140.549 Y101.248 E0.11232
G1 X140.648 Y100.802 F7200.000
G1 X142.833 Y101.001 F5760.000 E-0.76000
G1 F2100.000 E-0.04000
G1 X152.164 Y100.737 F7200.000
G1 E0.80000 F2100.000
G1 X157.086 Y100.737 E0.12761 F1440.000
G1 X159.547 Y105.000 E0.12761
G1 X157.086 Y109.263 E0.12761
G1 X152.164 Y109.263 E0.12761
G1 X149.702 Y105.000 E0.12761
G1 X152.134 Y100.789 E0.12606
G1 X152.404 Y101.153 F7200.000
G1 X156.846 Y101.153 E0.11517 F1080.000
G1 X159.067 Y105.000 E0.11517
G1 X156.846 Y108.847 E0.11517
G1 X152.404 Y108.847 E0.11517
G1 X150.183 Y105.000 E0.11517
G1 X152.374 Y101.205 E0.11361
G1 X152.473 Y100.759 F7200.000
G1 X154.659 Y100.956 F5760.000 E-0.76000
G1 F2100.000 E-0.04000
G1 X159.924 Y99.701 F7200.000
G1 E0.80000 F2100.000
G1 X159.924 Y110.299 E0.27477 F1440.000
G1 X90.076 Y110.299 E1.81080
G1 X90.076 Y99.701 E0.27477
G1 X159.864 Y99.701 E1.80925
G1 X160.340 Y99.285 F7200.000
G1 X160.340 Y110.715 E0.29632 F1080.000
G1 X89.660 Y110.715 E1.83236
G1 X89.660 Y99.285 E0.29632
G1 X160.280 Y99.285 E1.83080
G1 X160.140 Y99.631 F7200.000
G1 X160.180 Y101.825 F5760.000 E-0.76000
G1 F2100.000 E-0.04000
G1 X128.277 Y99.982 F7200.000
G1 E0.80000 F2100.000
G1 X128.317 Y100.022 E0.00147 F1440.000
G1 X128.312 Y100.610 E0.01523
G1 X127.685 Y99.982 E0.02300
G1 X127.093 Y99.982 E0.01534
G1 X128.096 Y100.985 E0.03675
G1 X127.879 Y101.360 E0.01123
G1 X126.502 Y99.982 E0.05050
G1 X125.910 Y99.982 E0.01534
G1 X127.663 Y101.735 E0.06425
G1 X127.446 Y102.110 E0.01123
G1 X125.319 Y99.982 E0.07800
G1 X124.727 Y99.982 E0.01534
G1 X127.230 Y102.485 E0.09175
G1 X127.013 Y102.860 E0.01123
G1 X124.136 Y99.982 E0.10550
G1 X123.544 Y99.982 E0.01534
G1 X126.797 Y103.235 E0.11925
G1 X126.580 Y103.610 E0.01123
G1 X122.953 Y99.982 E0.13300
G1 X122.361 Y99.982 E0.01534
G1 X126.364 Y103.985 E0.14675
G1 X126.147 Y104.360 E0.01123
G1 X121.769 Y99.982 E0.16050
G1 X121.178 Y99.982 E0.01534
G1 X125.931 Y104.735 E0.17425
G1 X126.014 Y105.410 E0.01764
G1 X122.216 Y101.612 E0.13924
G1 X123.768 Y103.164 F5760.000 E-0.76000
G1 F2100.000 E-0.04000
G1 X121.190 Y100.586 F7200.000
G1 E0.80000 F2100.000
G1 X120.586 Y99.982 E0.02212 F1440.000
G1 X119.995 Y99.982 E0.01534
G1 X120.598 Y100.586 E0.02212
G1 X120.007 Y100.586 E0.01534
G1 X119.403 Y99.982 E0.02212
G1 X118.812 Y99.982 E0.01534
G1 X119.415 Y100.586 E0.02212
G1 X118.824 Y100.586 E0.01534
G1 X118.220 Y99.982 E0.02212
G1 X117.629 Y99.982 E0.01534
G1 X118.232 Y100.586 E0.02212
G1 X117.641 Y100.586 E0.01534
G1 X117.037 Y99.982 E0.02212
G1 X116.446 Y99.982 E0.01534
G1 X117.049 Y100.586 E0.02212
G1 X116.501 Y100.629 E0.01425
G1 X115.854 Y99.982 E0.02372
G1 X115.262 Y99.982 E0.01534
G1 X116.285 Y101.004 E0.03747
G1 X116.068 Y101.379 E0.01123
G1 X114.671 Y99.982 E0.05122
G1 X114.079 Y99.982 E0.01534
G1 X115.852 Y101.754 E0.06497
G1 X115.635 Y102.129 E0.01123
G1 X113.488 Y99.982 E0.07872
G1 X112.896 Y99.982 E0.01534
G1 X115.418 Y102.504 E0.09247
G1 X115.202 Y102.879 E0.01123
G1 X112.305 Y99.982 E0.10622
G1 X111.713 Y99.982 E0.01534
G1 X114.985 Y103.254 E0.11997
G1 X114.769 Y103.629 E0.01123
G1 X111.122 Y99.982 E0.13372
G1 X110.530 Y99.982 E0.01534
G1 X114.552 Y104.004 E0.14747
G1 X114.336 Y104.379 E0.01123
G1 X109.939 Y99.982 E0.16122
G1 X109.347 Y99.982 E0.01534
G1 X114.119 Y104.754 E0.17497
G1 X114.257 Y105.483 E0.01922
G1 X110.222 Y101.449 E0.14792
G1 X111.774 Y103.000 F5760.000 E-0.76000
G1 F2100.000 E-0.04000
G1 X109.402 Y100.629 F7200.000
G1 E0.80000 F2100.000
G1 X108.755 Y99.982 E0.02371 F1440.000
G1 X108.164 Y99.982 E0.01534
G1 X108.811 Y100.629 E0.02371
G1 X108.219 Y100.629 E0.01534
G1 X107.572 Y99.982 E0.02371
G1 X106.981 Y99.982 E0.01534
G1 X107.628 Y100.629 E0.02371
G1 X107.036 Y100.629 E0.01534
G1 X106.389 Y99.982 E0.02371
G1 X105.798 Y99.982 E0.01534
G1 X106.444 Y100.629 E0.02371
G1 X105.853 Y100.629 E0.01534
G1 X105.206 Y99.982 E0.02371
G1 X104.615 Y99.982 E0.01534
G1 X105.261 Y100.629 E0.02371
G1 X104.690 Y100.649 E0.01483
G1 X104.023 Y99.982 E0.02444
G1 X103.432 Y99.982 E0.01534
G1 X104.473 Y101.024 E0.03819
G1 X104.257 Y101.399 E0.01123
G1 X102.840 Y99.982 E0.05194
G1 X102.248 Y99.982 E0.01534
G1 X104.040 Y101.774 E0.06569
G1 X103.824 Y102.149 E0.01123
G1 X101.657 Y99.982 E0.07944
G1 X101.065 Y99.982 E0.01534
G1 X103.607 Y102.524 E0.09319
G1 X103.391 Y102.899 E0.01123
G1 X100.474 Y99.982 E0.10694
G1 X99.882 Y99.982 E0.01534
G1 X103.174 Y103.274 E0.12069
G1 X102.958 Y103.649 E0.01123
G1 X99.291 Y99.982 E0.13444
G1 X98.699 Y99.982 E0.01534
G1 X102.741 Y104.024 E0.14819
G1 X102.525 Y104.399 E0.01123
G1 X98.108 Y99.982 E0.16194
G1 X97.516 Y99.982 E0.01534
G1 X102.308 Y104.774 E0.17569
G1 X102.499 Y105.556 E0.02088
G1 X98.228 Y101.285 E0.15659
G1 X97.615 Y100.672 F7200.000
G1 X96.925 Y99.982 E0.02530 F1440.000
G1 X96.333 Y99.982 E0.01534
G1 X97.023 Y100.672 E0.02530
G1 X96.431 Y100.672 E0.01534
G1 X95.741 Y99.982 E0.02530
G1 X95.150 Y99.982 E0.01534
G1 X95.840 Y100.672 E0.02530
G1 X95.248 Y100.672 E0.01534
G1 X94.558 Y99.982 E0.02530
G1 X93.967 Y99.982 E0.01534
G1 X94.657 Y100.672 E0.02530
G1 X94.065 Y100.672 E0.01534
G1 X93.375 Y99.982 E0.02530
G1 X92.784 Y99.982 E0.01534
G1 X93.474 Y100.672 E0.02530
G1 X92.882 Y100.672 E0.01534
G1 X92.192 Y99.982 E0.02530
G1 X91.601 Y99.982 E0.01534
G1 X92.662 Y101.043 E0.03891
G1 X92.445 Y101.418 E0.01123
G1 X91.009 Y99.982 E0.05266
G1 X90.418 Y99.982 E0.01534
G1 X92.229 Y101.793 E0.06641
G1 X92.012 Y102.168 E0.01123
G1 X90.357 Y100.513 E0.06069
G1 X90.357 Y101.105 E0.01534
G1 X91.796 Y102.544 E0.05275
G1 X91.579 Y102.919 E0.01123
G1 X90.357 Y101.696 E0.04481
G1 X90.357 Y102.288 E0.01534
G1 X91.363 Y103.294 E0.03687
G1 X91.146 Y103.669 E0.01123
G1 X90.357 Y102.879 E0.02894
G1 X90.357 Y103.471 E0.01534
G1 X90.930 Y104.044 E0.02100
G1 X90.713 Y104.419 E0.01123
G1 X90.357 Y104.062 E0.01306
G1 X90.357 Y104.654 E0.01534
G1 X90.497 Y104.794 E0.00512
G1 X90.357 Y105.246 F7200.000
G1 X90.741 Y105.630 E0.01408 F1440.000
G1 X90.357 Y105.837 E0.01132
G1 X91.549 Y107.029 E0.04371
G1 X90.357 Y105.837 F5760.000 E-0.58391
G1 X90.741 Y105.630 F5760.000 E-0.15119
G1 X90.690 Y105.579 F5760.000 E-0.02491
G1 F2100.000 E-0.04000
G1 X90.357 Y107.020 F7200.000
G1 E0.80000 F2100.000
G1 X93.355 Y110.018 E0.10991 F1440.000
G1 X93.946 Y110.018 E0.01534
G1 X93.256 Y109.328 E0.02530
G1 X93.848 Y109.328 E0.01534
G1 X94.538 Y110.018 E0.02530
G1 X95.129 Y110.018 E0.01534
G1 X94.439 Y109.328 E0.02530
G1 X95.031 Y109.328 E0.01534
G1 X95.721 Y110.018 E0.02530
G1 X96.313 Y110.018 E0.01534
G1 X95.622 Y109.328 E0.02530
G1 X96.214 Y109.328 E0.01534
G1 X96.904 Y110.018 E0.02530
G1 X97.496 Y110.018 E0.01534
G1 X96.806 Y109.328 E0.02530
G1 X97.397 Y109.328 E0.01534
G1 X98.087 Y110.018 E0.02530
G1 X98.679 Y110.018 E0.01534
G1 X97.916 Y109.255 E0.02797
G1 X98.132 Y108.880 E0.01123
G1 X99.270 Y110.018 E0.04172
G1 X99.862 Y110.018 E0.01534
G1 X98.349 Y108.505 E0.05547
G1 X98.565 Y108.130 E0.01123
G1 X100.453 Y110.018 E0.06922
G1 X101.045 Y110.018 E0.01534
G1 X98.782 Y107.755 E0.08297
G1 X98.998 Y107.380 E0.01123
G1 X101.636 Y110.018 E0.09672
G1 X102.228 Y110.018 E0.01534
G1 X99.215 Y107.005 E0.11047
G1 X99.431 Y106.630 E0.01123
G1 X102.820 Y110.018 E0.12422
G1 X103.411 Y110.018 E0.01534
G1 X99.648 Y106.255 E0.13797
G1 X99.864 Y105.880 E0.01123
G1 X104.003 Y110.018 E0.15172
G1 X104.594 Y110.018 E0.01534
G1 X100.081 Y105.505 E0.16547
G1 X100.298 Y105.130 E0.01123
G1 X105.186 Y110.018 E0.17922
G1 X105.777 Y110.018 E0.01534
G1 X105.131 Y109.371 E0.02371
G1 X105.722 Y109.371 E0.01534
G1 X106.369 Y110.018 E0.02371
G1 X106.960 Y110.018 E0.01534
G1 X106.314 Y109.371 E0.02371
G1 X106.905 Y109.371 E0.01534
G1 X107.552 Y110.018 E0.02371
G1 X108.143 Y110.018 E0.01534
G1 X107.497 Y109.371 E0.02371
G1 X108.088 Y109.371 E0.01534
G1 X108.735 Y110.018 E0.02371
G1 X109.327 Y110.018 E0.01534
G1 X108.680 Y109.371 E0.02371
G1 X109.271 Y109.371 E0.01534
G1 X109.918 Y110.018 E0.02371
G1 X110.510 Y110.018 E0.01534
G1 X109.791 Y109.299 E0.02637
G1 X110.007 Y108.924 E0.01123
G1 X111.101 Y110.018 E0.04012
G1 X111.693 Y110.018 E0.01534
G1 X110.224 Y108.549 E0.05387
G1 X110.440 Y108.174 E0.01123
G1 X112.284 Y110.018 E0.06762
G1 X112.876 Y110.018 E0.01534
G1 X110.657 Y107.799 E0.08137
G1 X110.873 Y107.424 E0.01123
G1 X113.467 Y110.018 E0.09511
G1 X114.059 Y110.018 E0.01534
G1 X111.090 Y107.049 E0.10886
G1 X111.306 Y106.674 E0.01123
G1 X114.650 Y110.018 E0.12261
G1 X115.242 Y110.018 E0.01534
G1 X111.523 Y106.299 E0.13636
G1 X111.739 Y105.924 E0.01123
G1 X115.834 Y110.018 E0.15011
G1 X116.425 Y110.018 E0.01534
G1 X111.956 Y105.549 E0.16386
G1 X112.172 Y105.173 E0.01123
G1 X117.017 Y110.018 E0.17761
G1 X117.608 Y110.018 E0.01534
G1 X117.005 Y109.414 E0.02212
G1 X117.596 Y109.414 E0.01534
G1 X118.200 Y110.018 E0.02212
G1 X118.791 Y110.018 E0.01534
G1 X118.188 Y109.414 E0.02212
G1 X118.779 Y109.414 E0.01534
G1 X119.383 Y110.018 E0.02212
G1 X119.974 Y110.018 E0.01534
G1 X119.371 Y109.414 E0.02212
G1 X119.962 Y109.414 E0.01534
G1 X120.566 Y110.018 E0.02212
G1 X121.158 Y110.018 E0.01534
G1 X120.554 Y109.414 E0.02212
G1 X121.146 Y109.414 E0.01534
G1 X121.749 Y110.018 E0.02212
G1 X122.341 Y110.018 E0.01534
G1 X121.665 Y109.343 E0.02476
G1 X121.882 Y108.968 E0.01123
G1 X122.932 Y110.018 E0.03851
G1 X123.524 Y110.018 E0.01534
G1 X122.098 Y108.593 E0.05226
G1 X122.315 Y108.217 E0.01123
G1 X124.115 Y110.018 E0.06601
G1 X124.707 Y110.018 E0.01534
G1 X122.531 Y107.842 E0.07976
G1 X122.748 Y107.467 E0.01123
G1 X125.298 Y110.018 E0.09351
G1 X125.890 Y110.018 E0.01534
G1 X122.964 Y107.092 E0.10726
G1 X123.181 Y106.717 E0.01123
G1 X126.481 Y110.018 E0.12101
G1 X127.073 Y110.018 E0.01534
G1 X123.397 Y106.342 E0.13476
G1 X123.614 Y105.967 E0.01123
G1 X127.665 Y110.018 E0.14851
G1 X128.256 Y110.018 E0.01534
G1 X123.830 Y105.592 E0.16226
G1 X124.047 Y105.217 E0.01123
G1 X128.317 Y109.487 E0.15654
G1 X126.765 Y107.935 F5760.000 E-0.76000
G1 F2100.000 E-0.04000
G1 X127.630 Y108.209 F7200.000
G1 E0.80000 F2100.000
G1 X123.832 Y104.411 E0.13924 F1440.000
G1 X125.384 Y105.963 F5760.000 E-0.76000
G1 F2100.000 E-0.04000
G1 X123.024 Y103.012 F7200.000
G1 E0.80000 F2100.000
G1 X126.822 Y106.810 E0.13924 F1440.000
G1 X125.271 Y105.258 F5760.000 E-0.76000
G1 F2100.000 E-0.04000
G1 X115.873 Y108.282 F7200.000
G1 E0.80000 F2100.000
G1 X111.838 Y104.248 E0.14792 F1440.000
G1 X113.390 Y105.799 F5760.000 E-0.76000
G1 F2100.000 E-0.04000
G1 X111.030 Y102.848 F7200.000
G1 E0.80000 F2100.000
G1 X115.065 Y106.883 E0.14792 F1440.000
G1 X113.513 Y105.331 F5760.000 E-0.76000
G1 F2100.000 E-0.04000
G1 X104.115 Y108.356 F7200.000
G1 E0.80000 F2100.000
G1 X99.844 Y104.084 E0.15659 F1440.000
G1 X101.395 Y105.636 F5760.000 E-0.76000
G1 F2100.000 E-0.04000
G1 X99.036 Y102.685 F7200.000
G1 E0.80000 F2100.000
G1 X103.307 Y106.956 E0.15659 F1440.000
G1 X101.755 Y105.404 F5760.000 E-0.76000
G1 F2100.000 E-0.04000
G1 X92.763 Y110.018 F7200.000
G1 E0.80000 F2100.000
G1 X90.357 Y107.612 E0.08822 F1440.000
G1 X90.357 Y108.203 E0.01534
G1 X92.172 Y110.018 E0.06653
G1 X91.580 Y110.018 E0.01534
G1 X90.357 Y108.795 E0.04484
G1 X90.357 Y109.386 E0.01534
G1 X90.989 Y110.018 E0.02315
G1 X90.397 Y110.018 E0.01534
G1 X90.357 Y109.978 E0.00147
G1 X90.397 Y110.018 F5760.000 E-0.01959
G1 X90.989 Y110.018 F5760.000 E-0.20488
G1 X90.357 Y109.386 F5760.000 E-0.30934
G1 X90.357 Y108.795 F5760.000 E-0.20488
G1 X90.401 Y108.838 F5760.000 E-0.02129
G1 F2100.000 E-0.04000
G1 X92.357 Y108.429 F7200.000
G1 E0.80000 F2100.000
G1 X90.357 Y106.429 E0.07333 F1440.000
G1 X91.909 Y107.980 F5760.000 E-0.76000
G1 F2100.000 E-0.04000
G1 X128.598 Y100.262 F7200.000
G1 E0.80000 F2100.000
G1 X133.252 Y100.262 E0.18803 F1440.000
G1 X131.058 Y100.262 F5760.000 E-0.76000
G1 F2100.000 E-0.04000
G1 X134.228 Y101.806 F7200.000
G1 E0.80000 F2100.000
G1 X137.790 Y105.367 E0.13057 F1440.000
G1 X137.737 Y104.724 E0.01674
G1 X133.533 Y100.520 E0.15412
G1 X133.587 Y99.982 E0.01401
G1 X137.954 Y104.349 E0.16010
G1 X138.170 Y103.974 E0.01122
G1 X134.178 Y99.982 E0.14636
G1 X134.769 Y99.982 E0.01532
