; generated by Slic3r 1.1.7 on 2017-01-12 at 14:55:14

; perimeters extrusion width = 0.45mm
; infill extrusion width = 0.45mm
; solid infill extrusion width = 0.45mm
; top infill extrusion width = 0.40mm

G21 ; set units to millimeters
M107
M115 U3.0.8 ; tell printer latest fw version
M83  ; extruder relative mode
M104 S210 ; set extruder temp
M140 S55 ; set bed temp
M190 S55 ; wait for bed temp
M109 S210 ; wait for extruder temp
G28 W ; home all without mesh bed level
G80 ; mesh bed leveling
G1 Y-3.0 F1000.0 ; go outside pritn area
G1 X60.0 E9.0  F1000.0 ; intro line
G1 X100.0 E12.5  F1000.0 ; intro line
G90 ; use absolute coordinates
M83 ; use relative distances for extrusion
M204 S1000
G1 F2100.000 E-0.80000
G1 Z0.150 F7200.000
G1 X102.562 Y92.561 F7200.000
G1 E0.80000 F2100.000
G1 X103.631 Y91.521 E0.03867 F1800.000
G1 X105.000 Y91.169 E0.03664
G1 X145.000 Y91.169 E1.03699
G1 X146.439 Y91.562 E0.03867
G1 X147.479 Y92.631 E0.03867
G1 X147.831 Y94.000 E0.03664
G1 X147.831 Y116.000 E0.57034
G1 X147.438 Y117.439 E0.03867
G1 X146.369 Y118.479 E0.03867
G1 X145.000 Y118.831 E0.03664
G1 X105.000 Y118.831 E1.03699
G1 X103.561 Y118.438 E0.03867
G1 X102.521 Y117.369 E0.03867
G1 X102.169 Y116.000 E0.03664
G1 X102.169 Y94.000 E0.57034
G1 X102.546 Y92.619 E0.03712
G1 X102.976 Y92.681 F7200.000
G1 X104.024 Y91.790 E0.03566 F1800.000
G1 X105.000 Y91.584 E0.02586
G1 X145.000 Y91.584 E1.03699
G1 X146.319 Y91.976 E0.03566
G1 X147.210 Y93.024 E0.03566
G1 X147.416 Y94.000 E0.02586
G1 X147.416 Y116.000 E0.57034
G1 X147.024 Y117.319 E0.03566
G1 X145.976 Y118.210 E0.03566
G1 X145.000 Y118.416 E0.02586
G1 X105.000 Y118.416 E1.03699
G1 X103.681 Y118.024 E0.03566
G1 X102.790 Y116.976 E0.03566
G1 X102.584 Y116.000 E0.02586
G1 X102.584 Y94.000 E0.57034
G1 X102.959 Y92.739 E0.03411
G1 X104.024 Y91.790 F5760.000 E-0.49402
G1 X104.776 Y91.632 F5760.000 E-0.26598
G1 F2100.000 E-0.04000
G1 X144.374 Y115.374 F7200.000
G1 E0.80000 F2100.000
G1 X105.626 Y115.374 E1.00455 F1440.000
G1 X105.626 Y110.626 E0.12311
G1 X144.374 Y110.626 E1.00455
G1 X144.374 Y115.314 E0.12155
G1 X144.790 Y115.790 F7200.000
G1 X105.210 Y115.790 E1.02610 F1080.000
G1 X105.210 Y110.210 E0.14466
G1 X144.790 Y110.210 E1.02610
G1 X144.790 Y115.730 E0.14310
G1 X144.444 Y115.590 F7200.000
G1 X142.249 Y115.601 F5760.000 E-0.76000
G1 F2100.000 E-0.04000
G1 X144.053 Y110.907 F7200.000
G1 E0.80000 F2100.000
G1 X144.093 Y110.947 E0.00147 F1440.000
G1 X144.093 Y111.543 E0.01544
G1 X143.457 Y110.907 E0.02331
G1 X142.862 Y110.907 E0.01544
G1 X144.093 Y112.138 E0.04514
G1 X144.093 Y112.734 E0.01544
G1 X142.266 Y110.907 E0.06698
G1 X141.670 Y110.907 E0.01544
G1 X144.093 Y113.330 E0.08882
G1 X144.093 Y113.925 E0.01544
G1 X141.075 Y110.907 E0.11066
G1 X140.479 Y110.907 E0.01544
G1 X144.093 Y114.521 E0.13250
G1 X144.061 Y115.085 E0.01464
G1 X139.883 Y110.907 E0.15317
G1 X139.288 Y110.907 E0.01544
G1 X143.474 Y115.093 E0.15347
G1 X142.878 Y115.093 E0.01544
G1 X138.692 Y110.907 E0.15347
G1 X138.096 Y110.907 E0.01544
G1 X142.282 Y115.093 E0.15347
G1 X141.687 Y115.093 E0.01544
G1 X137.501 Y110.907 E0.15347
G1 X136.905 Y110.907 E0.01544
G1 X141.091 Y115.093 E0.15347
G1 X140.495 Y115.093 E0.01544
G1 X136.309 Y110.907 E0.15347
G1 X135.714 Y110.907 E0.01544
G1 X139.900 Y115.093 E0.15347
G1 X139.304 Y115.093 E0.01544
G1 X135.118 Y110.907 E0.15347
G1 X134.522 Y110.907 E0.01544
G1 X138.708 Y115.093 E0.15347
G1 X138.113 Y115.093 E0.01544
G1 X133.927 Y110.907 E0.15347
G1 X133.331 Y110.907 E0.01544
G1 X137.517 Y115.093 E0.15347
G1 X136.921 Y115.093 E0.01544
G1 X132.735 Y110.907 E0.15347
G1 X132.140 Y110.907 E0.01544
G1 X136.326 Y115.093 E0.15347
G1 X135.730 Y115.093 E0.01544
G1 X131.544 Y110.907 E0.15347
G1 X130.948 Y110.907 E0.01544
G1 X135.134 Y115.093 E0.15347
G1 X134.539 Y115.093 E0.01544
G1 X130.353 Y110.907 E0.15347
G1 X129.757 Y110.907 E0.01544
G1 X133.943 Y115.093 E0.15347
G1 X133.347 Y115.093 E0.01544
G1 X129.161 Y110.907 E0.15347
G1 X128.566 Y110.907 E0.01544
G1 X132.752 Y115.093 E0.15347
G1 X132.156 Y115.093 E0.01544
G1 X127.970 Y110.907 E0.15347
G1 X127.375 Y110.907 E0.01544
G1 X131.560 Y115.093 E0.15347
G1 X130.965 Y115.093 E0.01544
G1 X126.779 Y110.907 E0.15347
G1 X126.183 Y110.907 E0.01544
G1 X130.369 Y115.093 E0.15347
G1 X129.773 Y115.093 E0.01544
G1 X125.588 Y110.907 E0.15347
G1 X124.992 Y110.907 E0.01544
G1 X129.178 Y115.093 E0.15347
G1 X128.582 Y115.093 E0.01544
G1 X124.396 Y110.907 E0.15347
G1 X123.801 Y110.907 E0.01544
G1 X127.986 Y115.093 E0.15347
G1 X127.391 Y115.093 E0.01544
G1 X123.205 Y110.907 E0.15347
G1 X122.609 Y110.907 E0.01544
G1 X126.795 Y115.093 E0.15347
G1 X126.199 Y115.093 E0.01544
G1 X122.014 Y110.907 E0.15347
G1 X121.418 Y110.907 E0.01544
G1 X125.604 Y115.093 E0.15347
G1 X125.008 Y115.093 E0.01544
G1 X120.822 Y110.907 E0.15347
G1 X120.227 Y110.907 E0.01544
G1 X124.412 Y115.093 E0.15347
G1 X123.817 Y115.093 E0.01544
G1 X119.631 Y110.907 E0.15347
G1 X119.035 Y110.907 E0.01544
G1 X123.221 Y115.093 E0.15347
G1 X122.625 Y115.093 E0.01544
G1 X118.440 Y110.907 E0.15347
G1 X117.844 Y110.907 E0.01544
G1 X122.030 Y115.093 E0.15347
G1 X121.434 Y115.093 E0.01544
G1 X117.248 Y110.907 E0.15347
G1 X116.653 Y110.907 E0.01544
G1 X120.839 Y115.093 E0.15347
G1 X120.243 Y115.093 E0.01544
G1 X116.057 Y110.907 E0.15347
G1 X115.461 Y110.907 E0.01544
G1 X119.647 Y115.093 E0.15347
G1 X119.052 Y115.093 E0.01544
G1 X114.866 Y110.907 E0.15347
G1 X114.270 Y110.907 E0.01544
G1 X118.456 Y115.093 E0.15347
G1 X117.860 Y115.093 E0.01544
G1 X113.674 Y110.907 E0.15347
G1 X113.079 Y110.907 E0.01544
G1 X117.265 Y115.093 E0.15347
G1 X116.669 Y115.093 E0.01544
G1 X112.483 Y110.907 E0.15347
G1 X111.887 Y110.907 E0.01544
G1 X116.073 Y115.093 E0.15347
G1 X115.478 Y115.093 E0.01544
G1 X111.292 Y110.907 E0.15347
G1 X110.696 Y110.907 E0.01544
G1 X114.882 Y115.093 E0.15347
G1 X114.286 Y115.093 E0.01544
G1 X110.100 Y110.907 E0.15347
G1 X109.505 Y110.907 E0.01544
G1 X113.691 Y115.093 E0.15347
G1 X113.095 Y115.093 E0.01544
G1 X108.909 Y110.907 E0.15347
G1 X108.313 Y110.907 E0.01544
G1 X112.499 Y115.093 E0.15347
G1 X111.904 Y115.093 E0.01544
G1 X107.718 Y110.907 E0.15347
G1 X107.122 Y110.907 E0.01544
G1 X111.308 Y115.093 E0.15347
G1 X110.712 Y115.093 E0.01544
G1 X106.526 Y110.907 E0.15347
G1 X105.939 Y110.915 E0.01523
G1 X110.117 Y115.093 E0.15317
G1 X109.521 Y115.093 E0.01544
G1 X105.907 Y111.479 E0.13250
G1 X105.907 Y112.075 E0.01544
G1 X108.925 Y115.093 E0.11066
G1 X108.330 Y115.093 E0.01544
G1 X105.907 Y112.670 E0.08882
G1 X105.907 Y113.266 E0.01544
G1 X107.734 Y115.093 E0.06698
G1 X107.138 Y115.093 E0.01544
G1 X105.907 Y113.862 E0.04514
G1 X105.907 Y114.457 E0.01544
G1 X106.543 Y115.093 E0.02331
G1 X105.947 Y115.093 E0.01544
G1 X105.907 Y115.053 E0.00147
G1 X105.947 Y115.093 F5760.000 E-0.01959
G1 X106.543 Y115.093 F5760.000 E-0.20631
G1 X105.907 Y114.457 F5760.000 E-0.31136
G1 X105.907 Y113.862 F5760.000 E-0.20631
G1 X105.941 Y113.895 F5760.000 E-0.01643
G1 F2100.000 E-0.04000
G1 X144.374 Y99.374 F7200.000
G1 E0.80000 F2100.000
G1 X105.626 Y99.374 E1.00455 F1440.000
G1 X105.626 Y94.626 E0.12311
G1 X144.374 Y94.626 E1.00455
G1 X144.374 Y99.314 E0.12155
G1 X144.790 Y99.790 F7200.000
G1 X105.210 Y99.790 E1.02610 F1080.000
G1 X105.210 Y94.210 E0.14466
G1 X144.790 Y94.210 E1.02610
G1 X144.790 Y99.730 E0.14310
G1 X144.444 Y99.590 F7200.000
G1 X142.249 Y99.601 F5760.000 E-0.76000
G1 F2100.000 E-0.04000
G1 X144.053 Y94.907 F7200.000
G1 E0.80000 F2100.000
G1 X144.093 Y94.947 E0.00147 F1440.000
G1 X144.093 Y95.543 E0.01544
G1 X143.457 Y94.907 E0.02331
G1 X142.862 Y94.907 E0.01544
G1 X144.093 Y96.138 E0.04514
G1 X144.093 Y96.734 E0.01544
G1 X142.266 Y94.907 E0.06698
G1 X141.670 Y94.907 E0.01544
G1 X144.093 Y97.330 E0.08882
G1 X144.093 Y97.925 E0.01544
G1 X141.075 Y94.907 E0.11066
G1 X140.479 Y94.907 E0.01544
G1 X144.093 Y98.521 E0.13250
G1 X144.061 Y99.085 E0.01464
G1 X139.883 Y94.907 E0.15317
G1 X139.288 Y94.907 E0.01544
G1 X143.474 Y99.093 E0.15347
G1 X142.878 Y99.093 E0.01544
G1 X138.692 Y94.907 E0.15347
G1 X138.096 Y94.907 E0.01544
G1 X142.282 Y99.093 E0.15347
G1 X141.687 Y99.093 E0.01544
G1 X137.501 Y94.907 E0.15347
G1 X136.905 Y94.907 E0.01544
G1 X141.091 Y99.093 E0.15347
G1 X140.495 Y99.093 E0.01544
G1 X136.309 Y94.907 E0.15347
G1 X135.714 Y94.907 E0.01544
G1 X139.900 Y99.093 E0.15347
G1 X139.304 Y99.093 E0.01544
G1 X135.118 Y94.907 E0.15347
G1 X134.522 Y94.907 E0.01544
G1 X138.708 Y99.093 E0.15347
G1 X138.113 Y99.093 E0.01544
G1 X133.927 Y94.907 E0.15347
G1 X133.331 Y94.907 E0.01544
G1 X137.517 Y99.093 E0.15347
G1 X136.921 Y99.093 E0.01544
G1 X132.735 Y94.907 E0.15347
G1 X132.140 Y94.907 E0.01544
G1 X136.326 Y99.093 E0.15347
G1 X135.730 Y99.093 E0.01544
G1 X131.544 Y94.907 E0.15347
G1 X130.948 Y94.907 E0.01544
G1 X135.134 Y99.093 E0.15347
G1 X134.539 Y99.093 E0.01544
G1 X130.353 Y94.907 E0.15347
G1 X129.757 Y94.907 E0.01544
G1 X133.943 Y99.093 E0.15347
G1 X133.347 Y99.093 E0.01544
G1 X129.161 Y94.907 E0.15347
G1 X128.566 Y94.907 E0.01544
G1 X132.752 Y99.093 E0.15347
G1 X132.156 Y99.093 E0.01544
G1 X127.970 Y94.907 E0.15347
G1 X127.375 Y94.907 E0.01544
G1 X131.560 Y99.093 E0.15347
G1 X130.965 Y99.093 E0.01544
G1 X126.779 Y94.907 E0.15347
G1 X126.183 Y94.907 E0.01544
G1 X130.369 Y99.093 E0.15347
G1 X129.773 Y99.093 E0.01544
G1 X125.588 Y94.907 E0.15347
G1 X124.992 Y94.907 E0.01544
G1 X129.178 Y99.093 E0.15347
G1 X128.582 Y99.093 E0.01544
G1 X124.396 Y94.907 E0.15347
G1 X123.801 Y94.907 E0.01544
G1 X127.986 Y99.093 E0.15347
G1 X127.391 Y99.093 E0.01544
G1 X123.205 Y94.907 E0.15347
G1 X122.609 Y94.907 E0.01544
G1 X126.795 Y99.093 E0.15347
G1 X126.199 Y99.093 E0.01544
G1 X122.014 Y94.907 E0.15347
G1 X121.418 Y94.907 E0.01544
G1 X125.604 Y99.093 E0.15347
G1 X125.008 Y99.093 E0.01544
G1 X120.822 Y94.907 E0.15347
G1 X120.227 Y94.907 E0.01544
G1 X124.412 Y99.093 E0.15347
G1 X123.817 Y99.093 E0.01544
G1 X119.631 Y94.907 E0.15347
G1 X119.035 Y94.907 E0.01544
G1 X123.221 Y99.093 E0.15347
G1 X122.625 Y99.093 E0.01544
G1 X118.440 Y94.907 E0.15347
G1 X117.844 Y94.907 E0.01544
G1 X122.030 Y99.093 E0.15347
G1 X121.434 Y99.093 E0.01544
G1 X117.248 Y94.907 E0.15347
G1 X116.653 Y94.907 E0.01544
G1 X120.839 Y99.093 E0.15347
G1 X120.243 Y99.093 E0.01544
G1 X116.057 Y94.907 E0.15347
G1 X115.461 Y94.907 E0.01544
G1 X119.647 Y99.093 E0.15347
G1 X119.052 Y99.093 E0.01544
G1 X114.866 Y94.907 E0.15347
G1 X114.270 Y94.907 E0.01544
G1 X118.456 Y99.093 E0.15347
G1 X117.860 Y99.093 E0.01544
G1 X113.674 Y94.907 E0.15347
G1 X113.079 Y94.907 E0.01544
G1 X117.265 Y99.093 E0.15347
G1 X116.669 Y99.093 E0.01544
G1 X112.483 Y94.907 E0.15347
G1 X111.887 Y94.907 E0.01544
G1 X116.073 Y99.093 E0.15347
G1 X115.478 Y99.093 E0.01544
G1 X111.292 Y94.907 E0.15347
G1 X110.696 Y94.907 E0.01544
G1 X114.882 Y99.093 E0.15347
G1 X114.286 Y99.093 E0.01544
G1 X110.100 Y94.907 E0.15347
G1 X109.505 Y94.907 E0.01544
G1 X113.691 Y99.093 E0.15347
G1 X113.095 Y99.093 E0.01544
G1 X108.909 Y94.907 E0.15347
G1 X108.313 Y94.907 E0.01544
G1 X112.499 Y99.093 E0.15347
G1 X111.904 Y99.093 E0.01544
G1 X107.718 Y94.907 E0.15347
G1 X107.122 Y94.907 E0.01544
G1 X111.308 Y99.093 E0.15347
G1 X110.712 Y99.093 E0.01544
G1 X106.526 Y94.907 E0.15347
G1 X105.939 Y94.915 E0.01523
G1 X110.117 Y99.093 E0.15317
G1 X109.521 Y99.093 E0.01544
G1 X105.907 Y95.479 E0.13250
G1 X105.907 Y96.075 E0.01544
G1 X108.925 Y99.093 E0.11066
G1 X108.330 Y99.093 E0.01544
G1 X105.907 Y96.670 E0.08882
G1 X105.907 Y97.266 E0.01544
G1 X107.734 Y99.093 E0.06698
G1 X107.138 Y99.093 E0.01544
G1 X105.907 Y97.862 E0.04514
G1 X105.907 Y98.457 E0.01544
G1 X106.543 Y99.093 E0.02331
G1 X105.947 Y99.093 E0.01544
G1 X105.907 Y99.053 E0.00147
M106 S252
M204 S1000
G1 X105.947 Y99.093 F5760.000 E-0.01959
G1 X106.543 Y99.093 F5760.000 E-0.20631
G1 X105.907 Y98.457 F5760.000 E-0.31136
G1 X105.907 Y97.862 F5760.000 E-0.20631
G1 X105.941 Y97.895 F5760.000 E-0.01643
G1 F2100.000 E-0.04000
G1 Z0.350 F7200.000
G1 X144.336 Y110.664 F7200.000
G1 E0.80000 F2100.000
M204 S800
G1 X144.336 Y115.336 E0.17063 F2400.000
G1 X105.664 Y115.336 E1.41249
G1 X105.664 Y110.664 E0.17063
G1 X144.276 Y110.664 E1.41030
M204 S1000
G1 X144.775 Y110.225 F7200.000
M204 S800
G1 X144.775 Y115.775 E0.20272 F1800.000
G1 X105.225 Y115.775 E1.44458
G1 X105.225 Y110.225 E0.20272
G1 X144.715 Y110.225 E1.44239
M204 S1000
G1 X144.575 Y110.571 F7200.000
G1 X144.659 Y112.764 F5760.000 E-0.76000
G1 F2100.000 E-0.04000
G1 X144.037 Y114.997 F7200.000
G1 E0.80000 F2100.000
M204 S2000
G1 X143.997 Y115.037 E0.00207 F2400.000
G1 X143.369 Y115.037 E0.02293
G1 X144.037 Y114.369 E0.03450
G1 X144.037 Y113.741 E0.02293
G1 X142.741 Y115.037 E0.06693
G1 X142.114 Y115.037 E0.02293
G1 X144.037 Y113.114 E0.09937
G1 X144.037 Y112.486 E0.02293
G1 X141.486 Y115.037 E0.13180
G1 X140.858 Y115.037 E0.02293
G1 X144.037 Y111.858 E0.16424
G1 X144.037 Y111.230 E0.02293
G1 X140.230 Y115.037 E0.19667
G1 X139.602 Y115.037 E0.02293
G1 X143.677 Y110.963 E0.21047
G1 X143.049 Y110.963 E0.02293
G1 X138.974 Y115.037 E0.21047
G1 X138.346 Y115.037 E0.02293
G1 X142.421 Y110.963 E0.21047
G1 X141.793 Y110.963 E0.02293
G1 X137.718 Y115.037 E0.21047
G1 X137.090 Y115.037 E0.02293
G1 X141.165 Y110.963 E0.21047
G1 X140.537 Y110.963 E0.02293
G1 X136.463 Y115.037 E0.21047
G1 X135.835 Y115.037 E0.02293
G1 X139.909 Y110.963 E0.21047
G1 X139.281 Y110.963 E0.02293
G1 X135.207 Y115.037 E0.21047
G1 X134.579 Y115.037 E0.02293
G1 X138.653 Y110.963 E0.21047
G1 X138.025 Y110.963 E0.02293
G1 X133.951 Y115.037 E0.21047
G1 X133.323 Y115.037 E0.02293
G1 X137.398 Y110.963 E0.21047
G1 X136.770 Y110.963 E0.02293
G1 X132.695 Y115.037 E0.21047
G1 X132.067 Y115.037 E0.02293
G1 X136.142 Y110.963 E0.21047
G1 X135.514 Y110.963 E0.02293
G1 X131.439 Y115.037 E0.21047
G1 X130.811 Y115.037 E0.02293
G1 X134.886 Y110.963 E0.21047
G1 X134.258 Y110.963 E0.02293
G1 X130.184 Y115.037 E0.21047
G1 X129.556 Y115.037 E0.02293
G1 X133.630 Y110.963 E0.21047
G1 X133.002 Y110.963 E0.02293
G1 X128.928 Y115.037 E0.21047
G1 X128.300 Y115.037 E0.02293
G1 X132.374 Y110.963 E0.21047
G1 X131.747 Y110.963 E0.02293
G1 X127.672 Y115.037 E0.21047
G1 X127.044 Y115.037 E0.02293
G1 X131.119 Y110.963 E0.21047
G1 X130.491 Y110.963 E0.02293
G1 X126.416 Y115.037 E0.21047
G1 X125.788 Y115.037 E0.02293
G1 X129.863 Y110.963 E0.21047
G1 X129.235 Y110.963 E0.02293
G1 X125.160 Y115.037 E0.21047
G1 X124.532 Y115.037 E0.02293
G1 X128.607 Y110.963 E0.21047
G1 X127.979 Y110.963 E0.02293
G1 X123.905 Y115.037 E0.21047
G1 X123.277 Y115.037 E0.02293
G1 X127.351 Y110.963 E0.21047
G1 X126.723 Y110.963 E0.02293
G1 X122.649 Y115.037 E0.21047
G1 X122.021 Y115.037 E0.02293
G1 X126.095 Y110.963 E0.21047
G1 X125.468 Y110.963 E0.02293
G1 X121.393 Y115.037 E0.21047
G1 X120.765 Y115.037 E0.02293
G1 X124.840 Y110.963 E0.21047
G1 X124.212 Y110.963 E0.02293
G1 X120.137 Y115.037 E0.21047
G1 X119.509 Y115.037 E0.02293
G1 X123.584 Y110.963 E0.21047
G1 X122.956 Y110.963 E0.02293
G1 X118.881 Y115.037 E0.21047
G1 X118.253 Y115.037 E0.02293
G1 X122.328 Y110.963 E0.21047
G1 X121.700 Y110.963 E0.02293
G1 X117.626 Y115.037 E0.21047
G1 X116.998 Y115.037 E0.02293
G1 X121.072 Y110.963 E0.21047
G1 X120.444 Y110.963 E0.02293
G1 X116.370 Y115.037 E0.21047
G1 X115.742 Y115.037 E0.02293
G1 X119.816 Y110.963 E0.21047
G1 X119.189 Y110.963 E0.02293
G1 X115.114 Y115.037 E0.21047
G1 X114.486 Y115.037 E0.02293
G1 X118.561 Y110.963 E0.21047
G1 X117.933 Y110.963 E0.02293
G1 X113.858 Y115.037 E0.21047
G1 X113.230 Y115.037 E0.02293
G1 X117.305 Y110.963 E0.21047
G1 X116.677 Y110.963 E0.02293
G1 X112.602 Y115.037 E0.21047
G1 X111.975 Y115.037 E0.02293
G1 X116.049 Y110.963 E0.21047
G1 X115.421 Y110.963 E0.02293
G1 X111.347 Y115.037 E0.21047
G1 X110.719 Y115.037 E0.02293
G1 X114.793 Y110.963 E0.21047
G1 X114.165 Y110.963 E0.02293
G1 X110.091 Y115.037 E0.21047
G1 X109.463 Y115.037 E0.02293
G1 X113.537 Y110.963 E0.21047
G1 X112.910 Y110.963 E0.02293
G1 X108.835 Y115.037 E0.21047
G1 X108.207 Y115.037 E0.02293
G1 X112.282 Y110.963 E0.21047
G1 X111.654 Y110.963 E0.02293
G1 X107.579 Y115.037 E0.21047
G1 X106.951 Y115.037 E0.02293
G1 X111.026 Y110.963 E0.21047
G1 X110.398 Y110.963 E0.02293
G1 X106.323 Y115.037 E0.21047
