; generated by Slic3r 1.1.7 on 2017-01-13 at 13:45:07

; perimeters extrusion width = 0.45mm
; infill extrusion width = 0.45mm
; solid infill extrusion width = 0.45mm
; top infill extrusion width = 0.40mm

G21 ; set units to millimeters
M107
M115 U3.0.8 ; tell printer latest fw version
M83  ; extruder relative mode
M104 S210 ; set extruder temp
M140 S55 ; set bed temp
M190 S55 ; wait for bed temp
M109 S210 ; wait for extruder temp
G28 W ; home all without mesh bed level
G80 ; mesh bed leveling
G1 Y-3.0 F1000.0 ; go outside pritn area
G1 X60.0 E9.0  F1000.0 ; intro line
G1 X100.0 E12.5  F1000.0 ; intro line
G90 ; use absolute coordinates
M83 ; use relative distances for extrusion
M204 S1000
G1 F2100.000 E-0.80000
G1 Z0.150 F7200.000
G1 X68.870 Y67.014 F7200.000
G1 E0.80000 F2100.000
G1 X69.695 Y66.520 E0.02493 F1800.000
G1 X71.378 Y65.925 E0.04628
G1 X74.981 Y64.983 E0.09652
G1 X78.405 Y64.405 E0.09003
G1 X81.866 Y64.119 E0.09003
G1 X85.164 Y64.119 E0.08549
G1 X166.296 Y65.127 E2.10350
G1 X169.671 Y65.423 E0.08783
G1 X173.009 Y66.004 E0.08783
G1 X176.286 Y66.866 E0.08784
G1 X179.477 Y68.003 E0.08783
G1 X182.561 Y69.406 E0.08783
G1 X185.514 Y71.066 E0.08783
G1 X188.316 Y72.971 E0.08783
G1 X190.947 Y75.106 E0.08783
G1 X193.387 Y77.456 E0.08784
G1 X195.618 Y80.005 E0.08783
G1 X197.626 Y82.734 E0.08783
G1 X199.395 Y85.624 E0.08783
G1 X200.913 Y88.653 E0.08784
G1 X202.168 Y91.800 E0.08783
G1 X203.151 Y95.042 E0.08783
G1 X203.857 Y98.356 E0.08783
G1 X204.278 Y101.717 E0.08783
G1 X204.410 Y104.818 E0.08046
G1 X204.414 Y105.102 E0.00738
G1 X204.261 Y108.487 E0.08783
G1 X203.805 Y111.924 E0.08989
G1 X203.100 Y115.157 E0.08577
G1 X202.099 Y118.393 E0.08783
G1 X200.828 Y121.534 E0.08783
G1 X199.295 Y124.555 E0.08783
G1 X197.511 Y127.436 E0.08783
G1 X195.490 Y130.154 E0.08783
G1 X193.245 Y132.692 E0.08783
G1 X190.793 Y135.030 E0.08783
G1 X188.151 Y137.151 E0.08783
G1 X185.340 Y139.041 E0.08783
G1 X182.378 Y140.686 E0.08783
G1 X179.287 Y142.073 E0.08783
G1 X176.090 Y143.194 E0.08783
G1 X172.809 Y144.039 E0.08783
G1 X169.468 Y144.603 E0.08783
G1 X166.121 Y144.882 E0.08706
G1 X85.134 Y145.881 E2.09973
G1 X81.661 Y145.872 E0.09003
G1 X78.202 Y145.569 E0.09003
G1 X74.780 Y144.974 E0.09003
G1 X71.422 Y144.090 E0.09003
G1 X69.695 Y143.480 E0.04747
G1 X68.870 Y142.986 E0.02493
G1 X58.374 Y133.393 E0.36863
G1 X56.057 Y131.160 E0.08343
G1 X53.937 Y128.738 E0.08343
G1 X52.031 Y126.146 E0.08343
G1 X50.351 Y123.401 E0.08343
G1 X48.910 Y120.523 E0.08343
G1 X47.718 Y117.534 E0.08343
G1 X46.784 Y114.454 E0.08343
G1 X46.112 Y111.284 E0.08402
G1 X45.714 Y108.113 E0.08284
G1 X45.586 Y104.897 E0.08343
G1 X45.732 Y101.683 E0.08343
G1 X46.112 Y98.716 E0.07754
G1 X46.836 Y95.347 E0.08932
G1 X47.786 Y92.273 E0.08343
G1 X48.994 Y89.290 E0.08343
G1 X50.451 Y86.420 E0.08343
G1 X52.146 Y83.684 E0.08343
G1 X53.924 Y81.280 E0.07754
G1 X56.199 Y78.692 E0.08932
G1 X58.416 Y76.568 E0.07961
G1 X68.826 Y67.055 E0.36559
G1 X69.695 Y66.520 F5760.000 E-0.35351
G1 X70.802 Y66.129 F5760.000 E-0.40649
G1 F2100.000 E-0.04000
G1 X110.051 Y126.439 F7200.000
G1 E0.80000 F2100.000
G1 X108.138 Y128.613 E0.07510 F1440.000
G1 X106.046 Y130.618 E0.07509
G1 X103.793 Y132.437 E0.07510
G1 X101.351 Y134.083 E0.07633
G1 X98.864 Y135.472 E0.07386
G1 X96.224 Y136.665 E0.07510
G1 X93.493 Y137.630 E0.07510
G1 X90.690 Y138.360 E0.07510
G1 X87.835 Y138.850 E0.07510
G1 X84.948 Y139.096 E0.07510
G1 X82.052 Y139.096 E0.07510
G1 X79.165 Y138.850 E0.07510
G1 X76.310 Y138.360 E0.07510
G1 X73.507 Y137.630 E0.07510
G1 X70.776 Y136.665 E0.07510
G1 X68.136 Y135.472 E0.07510
G1 X65.607 Y134.059 E0.07510
G1 X63.207 Y132.437 E0.07510
G1 X60.954 Y130.618 E0.07510
G1 X58.862 Y128.613 E0.07510
G1 X56.949 Y126.439 E0.07510
G1 X55.201 Y124.069 E0.07633
G1 X53.707 Y121.643 E0.07386
G1 X52.403 Y119.057 E0.07510
G1 X51.323 Y116.369 E0.07510
G1 X50.475 Y113.599 E0.07510
G1 X49.865 Y110.767 E0.07510
G1 X49.497 Y107.894 E0.07510
G1 X49.374 Y105.000 E0.07510
G1 X49.497 Y102.106 E0.07510
G1 X49.865 Y99.233 E0.07510
G1 X50.475 Y96.401 E0.07510
G1 X51.323 Y93.631 E0.07510
G1 X52.403 Y90.943 E0.07509
G1 X53.707 Y88.357 E0.07510
G1 X55.226 Y85.890 E0.07510
G1 X56.920 Y83.600 E0.07385
G1 X58.862 Y81.387 E0.07633
G1 X60.954 Y79.382 E0.07509
G1 X63.207 Y77.563 E0.07510
G1 X65.607 Y75.941 E0.07510
G1 X68.136 Y74.528 E0.07510
G1 X70.776 Y73.335 E0.07510
G1 X73.507 Y72.370 E0.07510
G1 X76.310 Y71.640 E0.07509
G1 X79.165 Y71.150 E0.07510
G1 X82.052 Y70.904 E0.07510
G1 X84.948 Y70.904 E0.07510
G1 X87.835 Y71.150 E0.07510
G1 X90.690 Y71.640 E0.07510
G1 X93.447 Y72.358 E0.07385
G1 X96.224 Y73.335 E0.07633
G1 X98.864 Y74.528 E0.07510
G1 X101.393 Y75.941 E0.07510
G1 X103.793 Y77.563 E0.07510
G1 X106.046 Y79.382 E0.07510
G1 X108.138 Y81.387 E0.07510
G1 X110.051 Y83.561 E0.07510
G1 X111.774 Y85.890 E0.07510
G1 X113.293 Y88.357 E0.07510
G1 X114.597 Y90.943 E0.07510
G1 X115.677 Y93.631 E0.07510
G1 X116.511 Y96.355 E0.07386
G1 X117.135 Y99.233 E0.07633
G1 X117.503 Y102.106 E0.07510
G1 X117.624 Y105.048 E0.07633
G1 X117.503 Y107.894 E0.07385
G1 X117.135 Y110.767 E0.07510
G1 X116.525 Y113.599 E0.07510
G1 X115.677 Y116.369 E0.07510
G1 X114.597 Y119.057 E0.07509
G1 X113.293 Y121.643 E0.07510
G1 X111.774 Y124.110 E0.07510
G1 X110.087 Y126.391 E0.07354
G1 X109.728 Y126.177 F7200.000
G1 X107.837 Y128.325 E0.07418 F1080.000
G1 X105.771 Y130.305 E0.07418
G1 X103.545 Y132.103 E0.07418
G1 X101.148 Y133.720 E0.07496
G1 X98.676 Y135.101 E0.07340
G1 X96.069 Y136.279 E0.07418
G1 X93.371 Y137.233 E0.07418
G1 X90.602 Y137.954 E0.07418
G1 X87.782 Y138.437 E0.07418
G1 X84.931 Y138.680 E0.07418
G1 X82.069 Y138.680 E0.07418
G1 X79.218 Y138.437 E0.07418
G1 X76.398 Y137.954 E0.07418
G1 X73.629 Y137.233 E0.07418
G1 X70.931 Y136.279 E0.07418
G1 X68.324 Y135.101 E0.07418
G1 X65.825 Y133.705 E0.07418
G1 X63.455 Y132.103 E0.07418
G1 X61.229 Y130.305 E0.07418
G1 X59.163 Y128.325 E0.07418
G1 X57.272 Y126.177 E0.07418
G1 X55.555 Y123.851 E0.07496
G1 X54.070 Y121.440 E0.07340
G1 X52.782 Y118.885 E0.07418
G1 X51.715 Y116.230 E0.07418
G1 X50.878 Y113.494 E0.07418
G1 X50.275 Y110.697 E0.07418
G1 X49.911 Y107.859 E0.07418
G1 X49.790 Y105.000 E0.07418
G1 X49.911 Y102.141 E0.07418
G1 X50.275 Y99.303 E0.07418
G1 X50.878 Y96.506 E0.07418
G1 X51.715 Y93.770 E0.07418
G1 X52.782 Y91.115 E0.07418
G1 X54.071 Y88.560 E0.07418
G1 X55.571 Y86.123 E0.07418
G1 X57.254 Y83.847 E0.07340
G1 X59.163 Y81.675 E0.07496
G1 X61.229 Y79.695 E0.07418
G1 X63.455 Y77.897 E0.07418
G1 X65.825 Y76.295 E0.07418
G1 X68.324 Y74.899 E0.07418
G1 X70.931 Y73.721 E0.07418
G1 X73.629 Y72.767 E0.07418
G1 X76.398 Y72.046 E0.07418
G1 X79.218 Y71.563 E0.07418
G1 X82.069 Y71.320 E0.07418
G1 X84.931 Y71.320 E0.07418
G1 X87.782 Y71.563 E0.07418
G1 X90.602 Y72.046 E0.07418
G1 X93.342 Y72.760 E0.07340
G1 X96.069 Y73.721 E0.07496
G1 X98.676 Y74.899 E0.07418
G1 X101.175 Y76.295 E0.07418
G1 X103.545 Y77.897 E0.07418
G1 X105.771 Y79.695 E0.07418
G1 X107.837 Y81.675 E0.07418
G1 X109.728 Y83.823 E0.07418
G1 X111.429 Y86.123 E0.07418
G1 X112.930 Y88.560 E0.07418
G1 X114.218 Y91.115 E0.07418
G1 X115.285 Y93.770 E0.07418
G1 X116.114 Y96.477 E0.07340
G1 X116.725 Y99.303 E0.07496
G1 X117.089 Y102.141 E0.07418
G1 X117.209 Y105.030 E0.07496
G1 X117.089 Y107.859 E0.07340
G1 X116.725 Y110.697 E0.07418
G1 X116.123 Y113.494 E0.07418
G1 X115.285 Y116.230 E0.07418
G1 X114.218 Y118.885 E0.07418
G1 X112.930 Y121.440 E0.07418
G1 X111.429 Y123.877 E0.07418
G1 X109.763 Y126.129 E0.07263
G1 X109.866 Y126.553 F7200.000
G1 X108.214 Y127.996 F5760.000 E-0.76000
G1 F2100.000 E-0.04000
G1 X95.874 Y137.581 F7200.000
G1 E0.80000 F2100.000
G1 X95.874 Y140.760 E0.08241 F1440.000
G1 X94.590 Y141.214 E0.03530
G1 X91.479 Y142.024 E0.08334
G1 X88.311 Y142.567 E0.08334
G1 X85.107 Y142.840 E0.08334
G1 X81.893 Y142.840 E0.08334
G1 X78.689 Y142.567 E0.08334
G1 X75.521 Y142.024 E0.08334
G1 X72.410 Y141.214 E0.08334
G1 X71.126 Y140.760 E0.03530
G1 X71.126 Y137.581 E0.08241
G1 X70.497 Y137.359 E0.01728
G1 X67.800 Y136.140 E0.07674
G1 X65.215 Y134.696 E0.07674
G1 X62.763 Y133.038 E0.07674
G1 X60.460 Y131.179 E0.07674
G1 X58.323 Y129.130 E0.07674
G1 X56.367 Y126.908 E0.07674
G1 X54.607 Y124.528 E0.07674
G1 X53.055 Y122.008 E0.07674
G1 X51.722 Y119.365 E0.07674
G1 X50.618 Y116.618 E0.07674
G1 X49.752 Y113.787 E0.07674
G1 X49.128 Y110.894 E0.07674
G1 X48.752 Y107.958 E0.07674
G1 X48.626 Y105.000 E0.07674
G1 X48.752 Y102.042 E0.07674
G1 X49.128 Y99.106 E0.07674
G1 X49.752 Y96.213 E0.07674
G1 X50.618 Y93.382 E0.07674
G1 X51.722 Y90.635 E0.07674
G1 X53.055 Y87.992 E0.07674
G1 X54.607 Y85.472 E0.07674
G1 X56.367 Y83.092 E0.07674
G1 X58.323 Y80.870 E0.07674
G1 X60.460 Y78.821 E0.07674
G1 X62.763 Y76.962 E0.07674
G1 X65.215 Y75.304 E0.07674
G1 X67.800 Y73.860 E0.07674
G1 X70.497 Y72.641 E0.07674
G1 X71.126 Y72.419 E0.01728
G1 X71.126 Y69.240 E0.08241
G1 X72.410 Y68.786 E0.03530
G1 X75.521 Y67.976 E0.08334
G1 X78.689 Y67.433 E0.08334
G1 X81.893 Y67.160 E0.08334
G1 X85.107 Y67.160 E0.08334
G1 X88.311 Y67.433 E0.08334
G1 X91.479 Y67.976 E0.08334
G1 X94.590 Y68.786 E0.08334
G1 X95.874 Y69.240 E0.03530
G1 X95.874 Y72.419 E0.08241
G1 X96.503 Y72.641 E0.01728
G1 X99.200 Y73.860 E0.07674
G1 X101.785 Y75.304 E0.07674
G1 X104.237 Y76.962 E0.07674
G1 X106.540 Y78.821 E0.07674
G1 X108.677 Y80.870 E0.07674
G1 X110.633 Y83.092 E0.07674
G1 X112.393 Y85.472 E0.07674
G1 X113.945 Y87.992 E0.07674
G1 X115.278 Y90.635 E0.07674
G1 X116.382 Y93.382 E0.07674
G1 X117.248 Y96.213 E0.07674
G1 X117.872 Y99.106 E0.07674
G1 X118.248 Y102.043 E0.07674
G1 X118.374 Y105.000 E0.07674
G1 X118.248 Y107.957 E0.07674
G1 X117.872 Y110.894 E0.07674
G1 X117.248 Y113.787 E0.07674
G1 X116.382 Y116.618 E0.07674
G1 X115.278 Y119.365 E0.07674
G1 X113.945 Y122.008 E0.07674
G1 X112.393 Y124.528 E0.07674
G1 X110.633 Y126.908 E0.07674
G1 X108.677 Y129.130 E0.07674
G1 X106.540 Y131.179 E0.07674
G1 X104.237 Y133.038 E0.07674
G1 X101.785 Y134.696 E0.07674
G1 X99.200 Y136.140 E0.07674
G1 X96.503 Y137.359 E0.07674
G1 X95.931 Y137.561 E0.01573
G1 X96.290 Y137.875 F7200.000
G1 X96.290 Y141.054 E0.08241 F1080.000
G1 X94.712 Y141.611 E0.04338
G1 X91.567 Y142.430 E0.08426
G1 X88.363 Y142.980 E0.08426
G1 X85.125 Y143.255 E0.08426
G1 X81.875 Y143.255 E0.08426
G1 X78.637 Y142.980 E0.08426
G1 X75.433 Y142.430 E0.08426
G1 X72.288 Y141.611 E0.08426
G1 X70.710 Y141.054 E0.04338
G1 X70.710 Y137.875 E0.08241
G1 X70.342 Y137.745 E0.01012
G1 X67.612 Y136.511 E0.07766
G1 X64.997 Y135.050 E0.07766
G1 X62.515 Y133.373 E0.07766
G1 X60.185 Y131.491 E0.07766
G1 X58.022 Y129.418 E0.07766
G1 X56.043 Y127.170 E0.07766
G1 X54.262 Y124.761 E0.07766
G1 X52.691 Y122.211 E0.07766
G1 X51.343 Y119.536 E0.07766
G1 X50.226 Y116.756 E0.07766
G1 X49.349 Y113.892 E0.07766
G1 X48.718 Y110.964 E0.07766
G1 X48.337 Y107.993 E0.07766
G1 X48.210 Y105.000 E0.07766
G1 X48.337 Y102.007 E0.07766
G1 X48.718 Y99.036 E0.07766
G1 X49.349 Y96.108 E0.07766
G1 X50.226 Y93.244 E0.07766
G1 X51.343 Y90.464 E0.07766
G1 X52.691 Y87.789 E0.07766
G1 X54.262 Y85.239 E0.07766
G1 X56.043 Y82.830 E0.07766
G1 X58.022 Y80.582 E0.07766
G1 X60.185 Y78.509 E0.07766
G1 X62.515 Y76.627 E0.07766
G1 X64.997 Y74.950 E0.07766
G1 X67.612 Y73.489 E0.07766
G1 X70.342 Y72.255 E0.07766
G1 X70.710 Y72.125 E0.01012
G1 X70.710 Y68.946 E0.08241
G1 X72.288 Y68.389 E0.04338
G1 X75.433 Y67.570 E0.08426
G1 X78.637 Y67.020 E0.08426
G1 X81.875 Y66.745 E0.08426
G1 X85.125 Y66.745 E0.08426
G1 X88.363 Y67.020 E0.08426
G1 X91.567 Y67.570 E0.08426
G1 X94.712 Y68.389 E0.08426
G1 X96.290 Y68.946 E0.04338
G1 X96.290 Y72.125 E0.08241
G1 X96.658 Y72.255 E0.01012
G1 X99.388 Y73.489 E0.07766
G1 X102.003 Y74.950 E0.07766
G1 X104.485 Y76.627 E0.07766
G1 X106.815 Y78.509 E0.07766
G1 X108.978 Y80.582 E0.07766
G1 X110.957 Y82.830 E0.07766
G1 X112.738 Y85.239 E0.07766
G1 X114.308 Y87.789 E0.07766
G1 X115.657 Y90.464 E0.07766
G1 X116.774 Y93.244 E0.07766
G1 X117.651 Y96.108 E0.07766
G1 X118.282 Y99.036 E0.07766
G1 X118.663 Y102.007 E0.07766
G1 X118.790 Y105.000 E0.07766
G1 X118.663 Y107.993 E0.07766
G1 X118.279 Y110.977 E0.07801
G1 X117.651 Y113.892 E0.07730
G1 X116.774 Y116.756 E0.07766
G1 X115.657 Y119.536 E0.07766
G1 X114.309 Y122.211 E0.07766
G1 X112.738 Y124.761 E0.07766
G1 X110.957 Y127.170 E0.07766
G1 X108.978 Y129.418 E0.07766
G1 X106.815 Y131.491 E0.07766
G1 X104.485 Y133.373 E0.07766
G1 X102.003 Y135.050 E0.07766
G1 X99.388 Y136.511 E0.07766
G1 X96.658 Y137.745 E0.07766
G1 X96.347 Y137.855 E0.00856
G1 X95.893 Y137.920 F7200.000
G1 X95.343 Y137.275 F7200.000
G1 X95.391 Y137.324 E0.00178 F1440.000
G1 X94.906 Y137.430 E0.01287
G1 X95.593 Y138.117 E0.02519
G1 X95.593 Y138.708 E0.01532
G1 X94.469 Y137.584 E0.04120
G1 X94.032 Y137.738 E0.01201
G1 X95.593 Y139.299 E0.05721
G1 X95.593 Y139.890 E0.01532
G1 X93.596 Y137.893 E0.07322
G1 X93.128 Y138.016 E0.01253
G1 X95.593 Y140.481 E0.09036
G1 X95.215 Y140.694 E0.01124
G1 X92.659 Y138.138 E0.09371
G1 X92.190 Y138.260 E0.01256
G1 X94.779 Y140.849 E0.09489
G1 X94.330 Y140.991 E0.01221
G1 X91.722 Y138.382 E0.09563
G1 X91.253 Y138.504 E0.01256
G1 X93.861 Y141.113 E0.09563
G1 X93.392 Y141.235 E0.01256
G1 X90.784 Y138.627 E0.09563
G1 X90.282 Y138.716 E0.01321
G1 X92.923 Y141.357 E0.09684
G1 X92.454 Y141.479 E0.01256
G1 X89.777 Y138.802 E0.09814
G1 X89.273 Y138.889 E0.01327
G1 X91.985 Y141.601 E0.09945
G1 X91.516 Y141.723 E0.01256
G1 X88.768 Y138.975 E0.10075
G1 X88.264 Y139.062 E0.01327
G1 X91.019 Y141.817 E0.10102
G1 X90.515 Y141.904 E0.01327
G1 X87.750 Y139.139 E0.10134
G1 X87.206 Y139.186 E0.01417
G1 X90.010 Y141.990 E0.10282
G1 X89.506 Y142.077 E0.01327
G1 X86.661 Y139.232 E0.10429
G1 X86.116 Y139.278 E0.01417
G1 X89.001 Y142.163 E0.10576
G1 X88.497 Y142.250 E0.01327
G1 X85.572 Y139.325 E0.10723
G1 X85.027 Y139.371 E0.01417
G1 X87.970 Y142.314 E0.10788
G1 X87.425 Y142.360 E0.01417
G1 X84.442 Y139.377 E0.10937
G1 X83.851 Y139.377 E0.01532
G1 X86.880 Y142.406 E0.11107
G1 X86.335 Y142.453 E0.01417
G1 X83.260 Y139.377 E0.11277
G1 X82.669 Y139.377 E0.01532
G1 X85.791 Y142.499 E0.11447
G1 X85.246 Y142.545 E0.01417
G1 X82.078 Y139.377 E0.11617
G1 X81.435 Y139.325 E0.01671
G1 X84.667 Y142.558 E0.11850
G1 X84.075 Y142.557 E0.01534
G1 X80.789 Y139.270 E0.12049
G1 X80.143 Y139.215 E0.01681
G1 X83.484 Y142.556 E0.12247
G1 X82.892 Y142.555 E0.01534
G1 X79.497 Y139.161 E0.12445
G1 X78.822 Y139.077 E0.01763
G1 X82.300 Y142.554 E0.12750
G1 X81.695 Y142.540 E0.01568
G1 X78.109 Y138.954 E0.13148
G1 X77.395 Y138.832 E0.01876
G1 X81.049 Y142.485 E0.13395
G1 X80.403 Y142.430 E0.01681
G1 X76.682 Y138.710 E0.13642
G1 X75.935 Y138.553 E0.01979
G1 X79.757 Y142.375 E0.14013
G1 X79.111 Y142.321 E0.01681
G1 X75.136 Y138.345 E0.14575
G1 X74.337 Y138.137 E0.02141
G1 X78.438 Y142.238 E0.15036
G1 X77.725 Y142.116 E0.01876
G1 X73.538 Y137.929 E0.15351
G1 X72.638 Y137.621 F7200.000
G1 X77.011 Y141.994 E0.16033 F1440.000
G1 X76.298 Y141.871 E0.01876
G1 X71.722 Y137.295 E0.16777
G1 X71.491 Y137.656 E0.01109
G1 X75.585 Y141.749 E0.15006
G1 X74.786 Y141.542 E0.02139
G1 X71.407 Y138.163 E0.12388
G1 X71.407 Y138.754 E0.01532
G1 X73.987 Y141.334 E0.09458
G1 X73.188 Y141.125 E0.02141
G1 X71.407 Y139.345 E0.06528
G1 X71.407 Y139.936 E0.01532
G1 X72.374 Y140.902 E0.03544
G1 X71.460 Y140.580 F7200.000
G1 X71.407 Y140.527 E0.00194 F1440.000
G1 X71.460 Y140.580 F5760.000 E-0.02586
G1 F2100.000 E-0.77414
G1 X71.334 Y137.258 F7200.000
G1 E0.80000 F2100.000
G1 X70.636 Y137.012 E0.02987 F1440.000
G1 X67.968 Y135.806 E0.11830
G1 X65.411 Y134.378 E0.11831
G1 X62.985 Y132.738 E0.11831
G1 X60.707 Y130.898 E0.11830
G1 X58.593 Y128.872 E0.11831
G1 X56.658 Y126.674 E0.11831
G1 X54.916 Y124.319 E0.11830
G1 X53.381 Y121.825 E0.11831
G1 X52.063 Y119.211 E0.11831
G1 X50.971 Y116.493 E0.11831
G1 X50.115 Y113.700 E0.11802
G1 X49.495 Y110.824 E0.11887
G1 X49.124 Y107.926 E0.11802
G1 X49.000 Y105.000 E0.11831
G1 X49.124 Y102.074 E0.11831
G1 X49.495 Y99.176 E0.11802
G1 X50.115 Y96.300 E0.11887
G1 X50.971 Y93.507 E0.11802
G1 X52.063 Y90.789 E0.11831
G1 X53.381 Y88.175 E0.11831
G1 X54.916 Y85.681 E0.11831
G1 X56.658 Y83.326 E0.11830
G1 X58.593 Y81.128 E0.11831
G1 X60.707 Y79.102 E0.11831
G1 X62.985 Y77.262 E0.11830
