; generated by Slic3r 1.33.8.devel on 2018-07-26 at 10:26:03

; 

; external perimeters extrusion width = 0.60mm
; perimeters extrusion width = 0.43mm
; infill extrusion width = 0.70mm
; solid infill extrusion width = 0.70mm
; top infill extrusion width = 0.43mm
; first layer extrusion width = 0.42mm

M107
M115 U3.0.12 ; tell printer latest fw version
M83  ; extruder relative mode
M104 S215 ; set extruder temp
M140 S55 ; set bed temp
M190 S55 ; wait for bed temp
M109 S215 ; wait for extruder temp
G28 W ; home all without mesh bed level
G80 ; mesh bed leveling
G1 Y-3.0 F1000.0 ; go outside pritn area
G1 X60.0 E9.0  F1000.0 ; intro line
G1 X100.0 E12.5  F1000.0 ; intro line
; Filament gcode

G21 ; set units to millimeters
G90 ; use absolute coordinates
M83 ; use relative distances for extrusion
G1 E-0.80000 F2100.00000
G1 Z0.200 F7200.000
G1 X95.832 Y81.629 F7200.000
G1 E0.80000 F2100.00000
M204 S1000
G1 F2100
G1 X97.595 Y79.583 E0.08123
G1 X99.513 Y77.663 E0.08164
G1 X101.695 Y75.778 E0.08672
G1 X104.017 Y74.070 E0.08671
G1 X106.310 Y72.631 E0.08144
G1 X108.703 Y71.364 E0.08144
G1 X111.340 Y70.209 E0.08659
G1 X113.985 Y69.283 E0.08431
G1 X116.770 Y68.542 E0.08667
G1 X119.428 Y68.041 E0.08137
G1 X122.122 Y67.735 E0.08156
G1 X125.002 Y67.623 E0.08671
G1 X127.879 Y67.735 E0.08660
G1 X130.569 Y68.040 E0.08144
G1 X133.234 Y68.543 E0.08156
G1 X136.016 Y69.283 E0.08660
G1 X138.735 Y70.240 E0.08670
G1 X141.216 Y71.324 E0.08145
G1 X143.611 Y72.587 E0.08144
G1 X146.054 Y74.117 E0.08671
G1 X148.371 Y75.832 E0.08671
G1 X150.422 Y77.600 E0.08144
G1 X152.333 Y79.508 E0.08123
G1 X154.217 Y81.689 E0.08669
G1 X155.926 Y84.011 E0.08672
G1 X157.365 Y86.304 E0.08143
G1 X158.632 Y88.697 E0.08146
G1 X159.792 Y91.340 E0.08681
G1 X160.738 Y94.059 E0.08661
G1 X161.438 Y96.674 E0.08142
G1 X161.945 Y99.341 E0.08166
G1 X162.272 Y102.202 E0.08661
G1 X162.377 Y104.999 E0.08419
G1 X162.264 Y107.879 E0.08672
G1 X161.961 Y110.562 E0.08122
G1 X161.468 Y113.179 E0.08010
G1 X160.718 Y116.012 E0.08815
G1 X159.792 Y118.658 E0.08430
G1 X158.637 Y121.294 E0.08660
G1 X157.373 Y123.681 E0.08123
G1 X155.929 Y125.984 E0.08177
G1 X154.221 Y128.306 E0.08671
G1 X152.338 Y130.487 E0.08667
G1 X150.424 Y132.398 E0.08137
G1 X148.370 Y134.168 E0.08156
G1 X146.056 Y135.882 E0.08659
G1 X143.613 Y137.411 E0.08671
G1 X141.218 Y138.675 E0.08144
G1 X138.734 Y139.761 E0.08156
G1 X136.018 Y140.716 E0.08660
G1 X133.233 Y141.458 E0.08670
G1 X130.572 Y141.959 E0.08144
G1 X127.882 Y142.264 E0.08144
G1 X125.001 Y142.377 E0.08671
G1 X122.121 Y142.265 E0.08671
G1 X119.431 Y141.960 E0.08144
G1 X116.770 Y141.458 E0.08144
G1 X113.988 Y140.718 E0.08660
G1 X111.342 Y139.792 E0.08430
G1 X108.706 Y138.637 E0.08660
G1 X106.313 Y137.370 E0.08144
G1 X104.016 Y135.929 E0.08156
G1 X101.697 Y134.223 E0.08660
G1 X99.515 Y132.339 E0.08671
G1 X97.602 Y130.424 E0.08144
G1 X95.836 Y128.375 E0.08135
G1 X94.118 Y126.056 E0.08681
G1 X92.589 Y123.613 E0.08671
G1 X91.325 Y121.218 E0.08145
G1 X90.242 Y118.740 E0.08134
G1 X89.286 Y116.025 E0.08660
G1 X88.544 Y113.240 E0.08669
G1 X88.041 Y110.573 E0.08166
G1 X87.736 Y107.882 E0.08146
G1 X87.623 Y105.001 E0.08671
G1 X87.735 Y102.128 E0.08650
G1 X88.039 Y99.438 E0.08144
G1 X88.543 Y96.766 E0.08177
G1 X89.283 Y93.984 E0.08660
G1 X90.240 Y91.265 E0.08670
G1 X91.324 Y88.784 E0.08145
G1 X92.589 Y86.386 E0.08156
G1 X94.113 Y83.952 E0.08638
G1 X95.797 Y81.678 E0.08512
G1 F5760
G1 X97.226 Y80.013 E-0.76000
G1 E-0.04000 F2100.00000
G1 X105.674 Y89.588 F7200.000
G1 E0.80000 F2100.00000
G1 F1680
G1 X106.880 Y88.187 E0.05560
G1 X108.187 Y86.880 E0.05560
G1 X109.588 Y85.674 E0.05560
G1 X111.075 Y84.576 E0.05560
G1 X112.641 Y83.593 E0.05560
G1 X114.275 Y82.729 E0.05560
G1 X115.969 Y81.990 E0.05560
G1 X117.714 Y81.379 E0.05560
G1 X119.500 Y80.901 E0.05560
G1 X121.316 Y80.557 E0.05560
G1 X123.153 Y80.350 E0.05560
G1 X124.938 Y80.283 E0.05374
G1 X126.847 Y80.350 E0.05744
G1 X128.685 Y80.557 E0.05565
G1 X130.560 Y80.917 E0.05744
G1 X132.286 Y81.379 E0.05374
G1 X134.031 Y81.990 E0.05560
G1 X135.725 Y82.729 E0.05560
G1 X137.359 Y83.593 E0.05561
G1 X138.925 Y84.576 E0.05560
G1 X140.412 Y85.674 E0.05560
G1 X141.813 Y86.880 E0.05560
G1 X143.120 Y88.187 E0.05560
G1 X144.326 Y89.588 E0.05560
G1 X145.424 Y91.075 E0.05560
G1 X146.407 Y92.641 E0.05560
G1 X147.271 Y94.275 E0.05560
G1 X148.010 Y95.969 E0.05560
G1 X148.621 Y97.714 E0.05560
G1 X149.099 Y99.500 E0.05560
G1 X149.443 Y101.316 E0.05560
G1 X149.643 Y103.091 E0.05374
G1 X149.719 Y105.000 E0.05746
G1 X149.643 Y106.909 E0.05746
G1 X149.443 Y108.684 E0.05374
G1 X149.099 Y110.500 E0.05560
G1 X148.621 Y112.286 E0.05560
G1 X148.010 Y114.031 E0.05560
G1 X147.271 Y115.725 E0.05560
G1 X146.407 Y117.359 E0.05561
G1 X145.424 Y118.925 E0.05560
G1 X144.326 Y120.412 E0.05560
G1 X143.120 Y121.813 E0.05560
G1 X141.813 Y123.120 E0.05560
G1 X140.411 Y124.327 E0.05563
G1 X138.872 Y125.457 E0.05744
G1 X137.359 Y126.407 E0.05374
G1 X135.725 Y127.271 E0.05561
G1 X134.031 Y128.010 E0.05560
G1 X132.285 Y128.621 E0.05562
G1 X130.440 Y129.111 E0.05744
G1 X128.684 Y129.443 E0.05374
G1 X126.847 Y129.650 E0.05560
G1 X124.999 Y129.719 E0.05563
G1 X123.091 Y129.643 E0.05744
G1 X121.316 Y129.443 E0.05374
G1 X119.500 Y129.099 E0.05560
G1 X117.714 Y128.621 E0.05560
G1 X115.969 Y128.010 E0.05560
G1 X114.274 Y127.271 E0.05563
G1 X112.588 Y126.374 E0.05744
G1 X111.075 Y125.424 E0.05374
G1 X109.588 Y124.326 E0.05560
G1 X108.187 Y123.120 E0.05560
G1 X106.880 Y121.813 E0.05560
G1 X105.673 Y120.411 E0.05563
G1 X104.543 Y118.872 E0.05744
G1 X103.593 Y117.359 E0.05374
G1 X102.729 Y115.725 E0.05561
G1 X101.990 Y114.031 E0.05560
G1 X101.379 Y112.285 E0.05562
G1 X100.889 Y110.440 E0.05744
G1 X100.557 Y108.684 E0.05374
G1 X100.350 Y106.847 E0.05560
G1 X100.281 Y105.000 E0.05560
G1 X100.350 Y103.153 E0.05560
G1 X100.557 Y101.316 E0.05560
G1 X100.889 Y99.560 E0.05374
G1 X101.379 Y97.715 E0.05744
G1 X101.990 Y95.969 E0.05562
G1 X102.729 Y94.275 E0.05560
G1 X103.593 Y92.641 E0.05560
G1 X104.576 Y91.075 E0.05560
G1 X105.638 Y89.636 E0.05380
G1 X105.942 Y89.860 F7200.000
G1 F1260
G1 X107.156 Y88.444 E0.05613
G1 X108.444 Y87.156 E0.05475
G1 X109.823 Y85.969 E0.05475
G1 X111.288 Y84.888 E0.05475
G1 X112.829 Y83.920 E0.05476
G1 X114.439 Y83.069 E0.05476
G1 X116.107 Y82.341 E0.05475
G1 X117.825 Y81.740 E0.05475
G1 X119.583 Y81.269 E0.05476
G1 X121.372 Y80.930 E0.05475
G1 X123.181 Y80.726 E0.05476
G1 X124.939 Y80.661 E0.05291
G1 X126.819 Y80.726 E0.05659
G1 X128.628 Y80.930 E0.05477
G1 X130.476 Y81.285 E0.05659
G1 X132.175 Y81.740 E0.05291
G1 X133.893 Y82.341 E0.05475
G1 X135.561 Y83.069 E0.05475
G1 X137.171 Y83.920 E0.05476
G1 X138.712 Y84.888 E0.05476
G1 X140.177 Y85.969 E0.05475
G1 X141.556 Y87.156 E0.05475
G1 X142.844 Y88.444 E0.05475
G1 X144.031 Y89.823 E0.05475
G1 X145.112 Y91.288 E0.05475
G1 X146.080 Y92.829 E0.05476
G1 X146.931 Y94.439 E0.05476
G1 X147.659 Y96.107 E0.05475
G1 X148.260 Y97.825 E0.05475
G1 X148.731 Y99.583 E0.05476
G1 X149.070 Y101.372 E0.05475
G1 X149.267 Y103.120 E0.05291
G1 X149.342 Y105.000 E0.05660
G1 X149.267 Y106.880 E0.05660
G1 X149.070 Y108.628 E0.05291
G1 X148.731 Y110.417 E0.05475
G1 X148.260 Y112.175 E0.05476
G1 X147.659 Y113.893 E0.05475
G1 X146.931 Y115.561 E0.05475
G1 X146.080 Y117.171 E0.05476
G1 X145.112 Y118.712 E0.05476
G1 X144.031 Y120.177 E0.05475
G1 X142.844 Y121.556 E0.05475
G1 X141.556 Y122.844 E0.05475
G1 X140.177 Y124.031 E0.05476
G1 X138.660 Y125.145 E0.05659
G1 X137.171 Y126.080 E0.05291
G1 X135.561 Y126.931 E0.05476
G1 X133.893 Y127.659 E0.05475
G1 X132.175 Y128.260 E0.05476
G1 X130.356 Y128.743 E0.05659
G1 X128.628 Y129.070 E0.05291
G1 X126.819 Y129.274 E0.05476
G1 X125.000 Y129.342 E0.05476
G1 X123.120 Y129.267 E0.05659
G1 X121.372 Y129.070 E0.05291
G1 X119.583 Y128.731 E0.05475
G1 X117.825 Y128.260 E0.05476
G1 X116.107 Y127.659 E0.05475
G1 X114.438 Y126.931 E0.05476
G1 X112.777 Y126.048 E0.05659
G1 X111.288 Y125.112 E0.05291
G1 X109.823 Y124.031 E0.05475
G1 X108.444 Y122.844 E0.05475
G1 X107.156 Y121.556 E0.05475
G1 X105.969 Y120.177 E0.05476
G1 X104.855 Y118.660 E0.05659
G1 X103.920 Y117.171 E0.05291
G1 X103.069 Y115.561 E0.05476
G1 X102.341 Y113.893 E0.05475
G1 X101.740 Y112.175 E0.05476
G1 X101.257 Y110.356 E0.05659
G1 X100.930 Y108.628 E0.05291
G1 X100.726 Y106.819 E0.05476
G1 X100.658 Y105.000 E0.05475
G1 X100.726 Y103.181 E0.05475
G1 X100.930 Y101.372 E0.05476
G1 X101.257 Y99.644 E0.05291
G1 X101.740 Y97.825 E0.05659
G1 X102.341 Y96.107 E0.05476
G1 X103.069 Y94.439 E0.05475
G1 X103.920 Y92.829 E0.05476
G1 X104.888 Y91.288 E0.05476
G1 X105.906 Y89.908 E0.05157
G1 X105.795 Y89.488 F7200.000
G1 F5760
G1 X107.156 Y88.444 E-0.66705
G1 F5760
G1 X107.346 Y88.254 E-0.09296
G1 E-0.04000 F2100.00000
G1 X97.809 Y83.932 F7200.000
G1 E0.80000 F2100.00000
G1 F1680
G1 X98.095 Y83.544 E0.01450
G1 X99.769 Y81.599 E0.07720
G1 X101.594 Y79.774 E0.07762
G1 X103.544 Y78.095 E0.07741
G1 X105.615 Y76.567 E0.07741
G1 X107.794 Y75.198 E0.07741
G1 X110.069 Y73.995 E0.07741
G1 X112.428 Y72.966 E0.07741
G1 X114.857 Y72.116 E0.07741
G1 X117.343 Y71.450 E0.07741
G1 X119.871 Y70.972 E0.07741
G1 X122.428 Y70.684 E0.07741
G1 X125.007 Y70.588 E0.07762
G1 X127.572 Y70.684 E0.07720
G1 X130.129 Y70.972 E0.07741
G1 X132.657 Y71.450 E0.07741
G1 X135.143 Y72.116 E0.07741
G1 X137.579 Y72.969 E0.07762
G1 X139.931 Y73.995 E0.07720
G1 X142.206 Y75.198 E0.07741
G1 X144.385 Y76.567 E0.07741
G1 X146.456 Y78.095 E0.07741
G1 X148.406 Y79.774 E0.07741
G1 X150.221 Y81.589 E0.07720
G1 X151.905 Y83.544 E0.07762
G1 X153.433 Y85.615 E0.07741
G1 X154.802 Y87.794 E0.07741
G1 X156.005 Y90.069 E0.07741
G1 X157.034 Y92.428 E0.07741
G1 X157.884 Y94.857 E0.07741
G1 X158.550 Y97.343 E0.07741
G1 X159.027 Y99.864 E0.07720
G1 X159.316 Y102.428 E0.07762
G1 X159.413 Y105.000 E0.07741
G1 X159.316 Y107.572 E0.07741
G1 X159.028 Y110.129 E0.07741
G1 X158.550 Y112.657 E0.07741
G1 X157.884 Y115.143 E0.07741
G1 X157.034 Y117.572 E0.07741
G1 X156.005 Y119.931 E0.07741
G1 X154.802 Y122.206 E0.07741
G1 X153.437 Y124.379 E0.07720
G1 X151.905 Y126.456 E0.07762
G1 X150.226 Y128.406 E0.07741
G1 X148.406 Y130.226 E0.07741
G1 X146.456 Y131.905 E0.07741
G1 X144.385 Y133.433 E0.07741
G1 X142.206 Y134.802 E0.07741
G1 X139.931 Y136.005 E0.07741
G1 X137.572 Y137.034 E0.07741
G1 X135.143 Y137.884 E0.07741
G1 X132.657 Y138.550 E0.07741
G1 X130.129 Y139.028 E0.07741
G1 X127.572 Y139.316 E0.07741
G1 X125.000 Y139.413 E0.07741
G1 X122.428 Y139.316 E0.07741
G1 X119.871 Y139.028 E0.07741
G1 X117.336 Y138.548 E0.07762
G1 X114.857 Y137.884 E0.07720
G1 X112.428 Y137.034 E0.07741
G1 X110.069 Y136.005 E0.07741
G1 X107.794 Y134.802 E0.07741
G1 X105.615 Y133.433 E0.07741
G1 X103.544 Y131.905 E0.07741
G1 X101.594 Y130.226 E0.07741
G1 X99.774 Y128.406 E0.07741
G1 X98.095 Y126.456 E0.07741
G1 X96.567 Y124.385 E0.07741
G1 X95.198 Y122.206 E0.07741
G1 X93.995 Y119.931 E0.07741
G1 X92.969 Y117.579 E0.07720
G1 X92.116 Y115.143 E0.07762
G1 X91.450 Y112.657 E0.07741
G1 X90.972 Y110.129 E0.07741
G1 X90.684 Y107.572 E0.07741
G1 X90.587 Y105.000 E0.07741
G1 X90.684 Y102.428 E0.07741
G1 X90.972 Y99.871 E0.07741
G1 X91.450 Y97.343 E0.07741
G1 X92.116 Y94.857 E0.07741
G1 X92.966 Y92.428 E0.07741
G1 X93.995 Y90.069 E0.07741
G1 X95.198 Y87.794 E0.07741
G1 X96.567 Y85.615 E0.07741
G1 X97.773 Y83.980 E0.06110
G1 X97.470 Y83.756 F7200.000
G1 F1260
G1 X97.800 Y83.309 E0.01673
G1 X99.493 Y81.342 E0.07805
G1 X101.337 Y79.497 E0.07847
G1 X103.309 Y77.800 E0.07826
G1 X105.402 Y76.255 E0.07826
G1 X107.605 Y74.871 E0.07826
G1 X109.905 Y73.655 E0.07826
G1 X112.290 Y72.615 E0.07826
G1 X114.746 Y71.756 E0.07826
G1 X117.259 Y71.082 E0.07826
G1 X119.815 Y70.599 E0.07826
G1 X122.400 Y70.307 E0.07826
G1 X125.007 Y70.210 E0.07847
G1 X127.600 Y70.307 E0.07805
G1 X130.185 Y70.599 E0.07826
G1 X132.741 Y71.082 E0.07826
G1 X135.254 Y71.756 E0.07826
G1 X137.717 Y72.618 E0.07847
G1 X140.095 Y73.655 E0.07805
G1 X142.395 Y74.871 E0.07826
G1 X144.598 Y76.255 E0.07826
G1 X146.691 Y77.800 E0.07826
G1 X148.663 Y79.497 E0.07826
G1 X150.498 Y81.332 E0.07805
G1 X152.200 Y83.309 E0.07847
G1 X153.745 Y85.402 E0.07826
G1 X155.129 Y87.605 E0.07826
G1 X156.345 Y89.905 E0.07826
G1 X157.385 Y92.290 E0.07826
G1 X158.244 Y94.746 E0.07826
G1 X158.918 Y97.259 E0.07826
G1 X159.400 Y99.808 E0.07805
G1 X159.693 Y102.400 E0.07847
G1 X159.790 Y105.000 E0.07826
G1 X159.693 Y107.600 E0.07826
G1 X159.401 Y110.185 E0.07826
G1 X158.918 Y112.741 E0.07826
G1 X158.244 Y115.254 E0.07826
G1 X157.385 Y117.710 E0.07826
G1 X156.345 Y120.095 E0.07826
G1 X155.129 Y122.395 E0.07826
G1 X153.749 Y124.592 E0.07805
G1 X152.200 Y126.691 E0.07847
G1 X150.503 Y128.663 E0.07826
G1 X148.663 Y130.503 E0.07826
G1 X146.691 Y132.200 E0.07826
G1 X144.598 Y133.745 E0.07826
G1 X142.395 Y135.129 E0.07826
G1 X140.095 Y136.345 E0.07826
G1 X137.710 Y137.385 E0.07826
G1 X135.254 Y138.244 E0.07826
G1 X132.741 Y138.918 E0.07826
G1 X130.185 Y139.401 E0.07826
G1 X127.600 Y139.693 E0.07826
G1 X125.000 Y139.790 E0.07826
G1 X122.400 Y139.693 E0.07826
G1 X119.815 Y139.401 E0.07826
G1 X117.252 Y138.916 E0.07847
G1 X114.746 Y138.244 E0.07805
G1 X112.290 Y137.385 E0.07826
G1 X109.905 Y136.345 E0.07826
G1 X107.605 Y135.129 E0.07826
G1 X105.402 Y133.745 E0.07826
G1 X103.309 Y132.200 E0.07826
G1 X101.337 Y130.503 E0.07826
G1 X99.497 Y128.663 E0.07826
G1 X97.800 Y126.691 E0.07826
G1 X96.255 Y124.598 E0.07826
G1 X94.871 Y122.395 E0.07826
G1 X93.655 Y120.095 E0.07826
G1 X92.618 Y117.717 E0.07805
G1 X91.756 Y115.254 E0.07847
G1 X91.082 Y112.741 E0.07826
G1 X90.599 Y110.185 E0.07826
G1 X90.307 Y107.600 E0.07826
G1 X90.210 Y105.000 E0.07826
G1 X90.307 Y102.400 E0.07826
G1 X90.599 Y99.815 E0.07826
G1 X91.082 Y97.259 E0.07826
G1 X91.756 Y94.746 E0.07826
G1 X92.615 Y92.290 E0.07826
G1 X93.655 Y89.905 E0.07826
G1 X94.871 Y87.605 E0.07826
G1 X96.255 Y85.402 E0.07826
G1 X97.434 Y83.805 E0.05972
G1 X97.868 Y83.796 F7200.000
G1 F5760
G1 X97.800 Y83.309 E-0.21344
G1 F5760
G1 X98.830 Y82.113 E-0.54656
G1 E-0.04000 F2100.00000
G1 X102.715 Y115.941 F7200.000
G1 E0.80000 F2100.00000
G1 F2520
G1 X90.903 Y104.129 E0.50506
G1 X90.922 Y103.612 E0.01563
G1 X101.945 Y114.635 E0.47129
G1 X101.726 Y114.134 E0.01651
G1 X101.590 Y113.744 E0.01250
G1 X90.942 Y103.096 E0.45529
G1 X90.961 Y102.579 E0.01563
G1 X101.301 Y112.920 E0.44213
G1 X101.109 Y112.368 E0.01765
G1 X101.044 Y112.127 E0.00756
G1 X91.007 Y102.089 E0.42920
G1 X91.061 Y101.607 E0.01465
G1 X100.851 Y111.397 E0.41860
G1 X100.657 Y110.668 E0.02282
G1 X91.115 Y101.126 E0.40800
G1 X91.169 Y100.644 E0.01465
G1 X100.517 Y109.991 E0.39967
G1 X100.392 Y109.330 E0.02034
G1 X91.224 Y100.162 E0.39201
G1 X91.293 Y99.696 E0.01426
G1 X100.272 Y108.674 E0.38391
G1 X100.203 Y108.070 E0.01838
G1 X91.378 Y99.245 E0.37736
G1 X91.463 Y98.794 E0.01387
G1 X100.135 Y107.466 E0.37080
G1 X100.068 Y106.863 E0.01836
G1 X91.549 Y98.344 E0.36426
G1 X91.634 Y97.893 E0.01387
G1 X100.047 Y106.306 E0.35973
G1 X100.026 Y105.749 E0.01684
G1 X91.719 Y97.442 E0.35519
G1 X91.830 Y97.017 E0.01328
G1 X100.005 Y105.193 E0.34956
G1 X100.011 Y104.662 E0.01604
G1 X91.943 Y96.595 E0.34494
G1 X92.057 Y96.172 E0.01323
G1 X100.030 Y104.146 E0.34093
G1 X100.049 Y103.629 E0.01563
G1 X92.170 Y95.750 E0.33691
G1 X92.283 Y95.327 E0.01323
G1 X100.070 Y103.114 E0.33295
G1 X100.124 Y102.632 E0.01465
G1 X92.399 Y94.906 E0.33034
G1 X92.538 Y94.509 E0.01272
G1 X100.179 Y102.151 E0.32672
G1 X100.233 Y101.669 E0.01465
G1 X92.676 Y94.112 E0.32310
G1 X92.815 Y93.715 E0.01272
G1 X100.293 Y101.193 E0.31972
G1 X100.378 Y100.742 E0.01387
G1 X92.954 Y93.318 E0.31742
G1 X93.093 Y92.921 E0.01272
G1 X100.463 Y100.292 E0.31513
G1 X100.548 Y99.841 E0.01387
G1 X93.232 Y92.525 E0.31282
G1 X93.395 Y92.152 E0.01231
G1 X100.640 Y99.397 E0.30978
G1 X100.753 Y98.973 E0.01325
G1 X93.558 Y91.779 E0.30762
G1 X93.721 Y91.406 E0.01231
G1 X100.865 Y98.550 E0.30547
G1 X100.977 Y98.126 E0.01325
G1 X93.884 Y91.032 E0.30331
G1 X94.046 Y90.659 E0.01231
G1 X101.090 Y97.703 E0.30116
G1 X101.224 Y97.301 E0.01280
G1 X94.209 Y90.286 E0.29995
G1 X94.389 Y89.930 E0.01206
G1 X101.363 Y96.904 E0.29821
G1 X101.502 Y96.507 E0.01272
G1 X94.574 Y89.579 E0.29622
