; generated by Slic3r 1.33.8.devel on 2018-07-27 at 05:45:50

; 

; external perimeters extrusion width = 0.60mm
; perimeters extrusion width = 0.43mm
; infill extrusion width = 0.70mm
; solid infill extrusion width = 0.70mm
; top infill extrusion width = 0.43mm
; first layer extrusion width = 0.42mm

M107
M115 U3.0.12 ; tell printer latest fw version
M83  ; extruder relative mode
M104 S255 ; set extruder temp
M140 S100 ; set bed temp
M190 S100 ; wait for bed temp
M109 S255 ; wait for extruder temp
G28 W ; home all without mesh bed level
G80 ; mesh bed leveling
G1 Y-3.0 F1000.0 ; go outside pritn area
G1 X60.0 E9.0  F1000.0 ; intro line
G1 X100.0 E12.5  F1000.0 ; intro line
; Filament gcode

G21 ; set units to millimeters
G90 ; use absolute coordinates
M83 ; use relative distances for extrusion
G1 E-0.80000 F2100.00000
G1 Z0.200 F7200.000
G1 X118.403 Y99.625 F7200.000
G1 E0.80000 F2100.00000
M204 S1000
G1 F2100
G1 X118.766 Y99.208 E0.01662
G1 X119.148 Y98.823 E0.01633
G1 X119.704 Y98.340 E0.02215
G1 X120.291 Y97.913 E0.02184
G1 X120.752 Y97.627 E0.01633
G1 X121.230 Y97.371 E0.01629
G1 X121.887 Y97.081 E0.02161
G1 X122.589 Y96.840 E0.02233
G1 X123.114 Y96.702 E0.01633
G1 X123.646 Y96.599 E0.01629
G1 X124.376 Y96.514 E0.02211
G1 X125.102 Y96.492 E0.02184
G1 X125.644 Y96.515 E0.01633
G1 X126.183 Y96.573 E0.01630
G1 X126.903 Y96.706 E0.02204
G1 X127.593 Y96.895 E0.02151
G1 X128.103 Y97.077 E0.01628
G1 X128.612 Y97.295 E0.01668
G1 X129.248 Y97.627 E0.02156
G1 X129.866 Y98.019 E0.02202
G1 X130.300 Y98.343 E0.01630
G1 X130.721 Y98.701 E0.01660
G1 X131.171 Y99.141 E0.01897
G1 X131.647 Y99.688 E0.02178
G1 X132.080 Y100.279 E0.02205
G1 X132.366 Y100.740 E0.01631
G1 X132.628 Y101.228 E0.01667
G1 X132.924 Y101.898 E0.02203
G1 X133.157 Y102.576 E0.02155
G1 X133.297 Y103.112 E0.01667
G1 X133.401 Y103.644 E0.01632
G1 X133.486 Y104.373 E0.02206
G1 X133.509 Y105.097 E0.02179
G1 X133.478 Y105.726 E0.01896
G1 X133.413 Y106.274 E0.01659
G1 X133.315 Y106.807 E0.01630
G1 X133.134 Y107.500 E0.02154
G1 X132.889 Y108.189 E0.02201
G1 X132.670 Y108.684 E0.01628
G1 X132.419 Y109.167 E0.01636
G1 X132.027 Y109.799 E0.02238
G1 X131.597 Y110.374 E0.02160
G1 X131.242 Y110.783 E0.01629
G1 X130.852 Y111.178 E0.01669
G1 X130.298 Y111.659 E0.02208
G1 X129.709 Y112.088 E0.02193
G1 X129.162 Y112.421 E0.01926
G1 X128.668 Y112.678 E0.01676
G1 X128.154 Y112.903 E0.01687
G1 X127.425 Y113.157 E0.02322
G1 X126.900 Y113.295 E0.01634
G1 X126.356 Y113.401 E0.01667
G1 X125.628 Y113.486 E0.02205
G1 X124.903 Y113.509 E0.02179
G1 X124.274 Y113.478 E0.01896
G1 X123.726 Y113.413 E0.01659
G1 X123.193 Y113.315 E0.01630
G1 X122.500 Y113.134 E0.02155
G1 X121.810 Y112.889 E0.02202
G1 X121.314 Y112.670 E0.01630
G1 X120.823 Y112.413 E0.01668
G1 X120.213 Y112.035 E0.02157
G1 X119.626 Y111.598 E0.02201
G1 X119.218 Y111.243 E0.01629
G1 X118.823 Y110.853 E0.01668
G1 X118.353 Y110.312 E0.02156
G1 X117.920 Y109.721 E0.02203
G1 X117.634 Y109.261 E0.01630
G1 X117.372 Y108.772 E0.01668
G1 X117.082 Y108.116 E0.02157
G1 X116.843 Y107.424 E0.02202
G1 X116.706 Y106.900 E0.01630
G1 X116.599 Y106.356 E0.01668
G1 X116.515 Y105.644 E0.02156
G1 X116.491 Y104.912 E0.02203
G1 X116.514 Y104.370 E0.01631
G1 X116.573 Y103.819 E0.01668
G1 X116.706 Y103.100 E0.02197
G1 X116.889 Y102.426 E0.02101
G1 X117.075 Y101.902 E0.01675
G1 X117.295 Y101.389 E0.01678
G1 X117.627 Y100.753 E0.02159
G1 X118.013 Y100.144 E0.02169
G1 X118.367 Y99.673 E0.01772
G1 X118.668 Y99.899 F7200.000
G1 F2100
G1 X119.038 Y99.469 E0.01707
G1 X119.411 Y99.093 E0.01593
G1 X119.932 Y98.640 E0.02078
G1 X120.496 Y98.229 E0.02097
G1 X120.936 Y97.956 E0.01557
G1 X121.401 Y97.707 E0.01589
G1 X122.032 Y97.429 E0.02073
G1 X122.691 Y97.203 E0.02098
G1 X123.192 Y97.071 E0.01557
G1 X123.711 Y96.970 E0.01589
G1 X124.396 Y96.890 E0.02074
G1 X125.093 Y96.869 E0.02097
G1 X125.610 Y96.891 E0.01557
G1 X126.135 Y96.947 E0.01590
G1 X126.811 Y97.072 E0.02068
G1 X127.473 Y97.253 E0.02064
G1 X127.971 Y97.430 E0.01588
G1 X128.457 Y97.639 E0.01591
G1 X129.066 Y97.957 E0.02068
G1 X129.646 Y98.326 E0.02067
G1 X130.070 Y98.642 E0.01590
G1 X130.471 Y98.983 E0.01585
G1 X130.902 Y99.405 E0.01815
G1 X131.357 Y99.929 E0.02087
G1 X131.763 Y100.484 E0.02069
G1 X132.042 Y100.934 E0.01591
G1 X132.292 Y101.400 E0.01591
G1 X132.570 Y102.029 E0.02067
G1 X132.794 Y102.678 E0.02068
G1 X132.928 Y103.190 E0.01590
G1 X133.029 Y103.709 E0.01592
G1 X133.109 Y104.393 E0.02071
G1 X133.132 Y105.086 E0.02087
G1 X133.103 Y105.689 E0.01814
G1 X133.041 Y106.212 E0.01584
G1 X132.946 Y106.732 E0.01590
G1 X132.771 Y107.396 E0.02066
G1 X132.541 Y108.044 E0.02067
G1 X132.333 Y108.516 E0.01552
G1 X132.088 Y108.986 E0.01595
G1 X131.711 Y109.593 E0.02149
G1 X131.308 Y110.132 E0.02024
G1 X130.962 Y110.531 E0.01589
G1 X130.589 Y110.907 E0.01592
G1 X130.069 Y111.359 E0.02072
G1 X129.505 Y111.770 E0.02100
G1 X128.983 Y112.090 E0.01843
G1 X128.500 Y112.341 E0.01637
G1 X128.010 Y112.555 E0.01608
G1 X127.322 Y112.794 E0.02190
G1 X126.810 Y112.928 E0.01593
G1 X126.291 Y113.029 E0.01591
G1 X125.607 Y113.109 E0.02069
G1 X124.914 Y113.132 E0.02088
G1 X124.311 Y113.103 E0.01814
G1 X123.788 Y113.041 E0.01584
G1 X123.268 Y112.946 E0.01590
G1 X122.604 Y112.771 E0.02067
G1 X121.956 Y112.541 E0.02067
G1 X121.473 Y112.327 E0.01590
G1 X121.003 Y112.082 E0.01592
G1 X120.419 Y111.719 E0.02069
G1 X119.868 Y111.309 E0.02066
G1 X119.470 Y110.962 E0.01590
G1 X119.094 Y110.590 E0.01592
G1 X118.643 Y110.071 E0.02068
G1 X118.237 Y109.516 E0.02068
G1 X117.958 Y109.067 E0.01591
G1 X117.708 Y108.600 E0.01592
G1 X117.430 Y107.971 E0.02069
G1 X117.206 Y107.321 E0.02067
G1 X117.072 Y106.810 E0.01590
G1 X116.971 Y106.291 E0.01592
G1 X116.891 Y105.608 E0.02068
G1 X116.868 Y104.921 E0.02068
G1 X116.891 Y104.392 E0.01591
G1 X116.947 Y103.866 E0.01592
G1 X117.075 Y103.177 E0.02109
G1 X117.247 Y102.546 E0.01968
G1 X117.428 Y102.033 E0.01635
G1 X117.638 Y101.544 E0.01600
G1 X117.957 Y100.935 E0.02071
G1 X118.319 Y100.364 E0.02031
G1 X118.632 Y99.947 E0.01569
G1 X118.933 Y100.173 F7200.000
G1 F2100
G1 X119.319 Y99.721 E0.01787
G1 X119.673 Y99.363 E0.01516
G1 X120.173 Y98.930 E0.01990
G1 X120.701 Y98.546 E0.01962
G1 X121.129 Y98.280 E0.01517
G1 X121.573 Y98.043 E0.01512
G1 X122.162 Y97.783 E0.01938
G1 X122.794 Y97.566 E0.02010
G1 X123.282 Y97.438 E0.01517
G1 X123.775 Y97.342 E0.01512
G1 X124.431 Y97.266 E0.01986
G1 X125.083 Y97.246 E0.01962
G1 X125.587 Y97.267 E0.01517
G1 X126.087 Y97.321 E0.01513
G1 X126.735 Y97.441 E0.01981
G1 X127.354 Y97.611 E0.01930
G1 X127.827 Y97.779 E0.01512
G1 X128.301 Y97.982 E0.01551
G1 X128.884 Y98.288 E0.01979
G1 X129.427 Y98.632 E0.01933
G1 X129.830 Y98.933 E0.01513
G1 X130.221 Y99.266 E0.01546
G1 X130.633 Y99.669 E0.01733
G1 X131.058 Y100.158 E0.01948
G1 X131.447 Y100.690 E0.01982
G1 X131.713 Y101.117 E0.01514
G1 X131.956 Y101.572 E0.01551
G1 X132.216 Y102.159 E0.01933
G1 X132.431 Y102.781 E0.01979
G1 X132.562 Y103.279 E0.01550
G1 X132.658 Y103.774 E0.01515
G1 X132.734 Y104.429 E0.01983
G1 X132.755 Y105.076 E0.01949
G1 X132.728 Y105.651 E0.01732
G1 X132.668 Y106.162 E0.01546
G1 X132.576 Y106.656 E0.01513
G1 X132.413 Y107.278 E0.01933
G1 X132.193 Y107.898 E0.01979
G1 X131.990 Y108.358 E0.01512
G1 X131.757 Y108.806 E0.01519
G1 X131.404 Y109.374 E0.02013
G1 X131.019 Y109.890 E0.01936
G1 X130.681 Y110.279 E0.01549
G1 X130.327 Y110.637 E0.01515
G1 X129.828 Y111.069 E0.01984
G1 X129.302 Y111.453 E0.01960
G1 X128.803 Y111.758 E0.01761
G1 X128.343 Y111.998 E0.01560
G1 X127.865 Y112.206 E0.01566
G1 X127.219 Y112.431 E0.02059
G1 X126.732 Y112.559 E0.01516
G1 X126.226 Y112.658 E0.01551
G1 X125.572 Y112.734 E0.01980
G1 X124.924 Y112.755 E0.01949
G1 X124.349 Y112.728 E0.01732
G1 X123.838 Y112.668 E0.01546
G1 X123.344 Y112.576 E0.01514
G1 X122.722 Y112.413 E0.01933
G1 X122.102 Y112.193 E0.01980
G1 X121.642 Y111.990 E0.01513
G1 X121.184 Y111.752 E0.01551
G1 X120.625 Y111.403 E0.01981
G1 X120.110 Y111.020 E0.01932
G1 X119.730 Y110.690 E0.01513
G1 X119.364 Y110.327 E0.01552
G1 X118.942 Y109.842 E0.01934
G1 X118.553 Y109.311 E0.01980
G1 X118.287 Y108.883 E0.01513
G1 X118.044 Y108.429 E0.01552
G1 X117.784 Y107.840 E0.01934
G1 X117.569 Y107.218 E0.01980
G1 X117.441 Y106.732 E0.01513
G1 X117.342 Y106.226 E0.01551
G1 X117.266 Y105.572 E0.01980
G1 X117.245 Y104.929 E0.01934
G1 X117.266 Y104.427 E0.01514
G1 X117.321 Y103.914 E0.01551
G1 X117.441 Y103.268 E0.01975
G1 X117.605 Y102.665 E0.01882
G1 X117.777 Y102.176 E0.01557
G1 X117.982 Y101.700 E0.01560
G1 X118.280 Y101.129 E0.01937
G1 X118.625 Y100.584 E0.01939
G1 X118.897 Y100.221 E0.01365
G1 X119.199 Y100.447 F7200.000
G1 F2100
G1 X119.591 Y99.982 E0.01830
G1 X119.936 Y99.634 E0.01475
G1 X120.402 Y99.230 E0.01855
G1 X120.906 Y98.862 E0.01876
G1 X121.312 Y98.610 E0.01440
G1 X121.744 Y98.379 E0.01472
G1 X122.307 Y98.131 E0.01850
G1 X122.897 Y97.928 E0.01876
G1 X123.360 Y97.807 E0.01440
G1 X123.840 Y97.714 E0.01472
G1 X124.451 Y97.642 E0.01851
G1 X125.075 Y97.623 E0.01876
G1 X125.553 Y97.643 E0.01440
G1 X126.040 Y97.696 E0.01473
G1 X126.643 Y97.807 E0.01847
G1 X127.234 Y97.968 E0.01843
G1 X127.695 Y98.132 E0.01471
G1 X128.145 Y98.326 E0.01473
G1 X128.689 Y98.610 E0.01846
G1 X129.207 Y98.939 E0.01846
G1 X129.600 Y99.231 E0.01473
G1 X129.972 Y99.549 E0.01470
G1 X130.363 Y99.933 E0.01650
G1 X130.768 Y100.399 E0.01858
G1 X131.131 Y100.895 E0.01847
G1 X131.389 Y101.311 E0.01474
G1 X131.620 Y101.743 E0.01473
G1 X131.868 Y102.304 E0.01846
G1 X132.068 Y102.884 E0.01845
G1 X132.193 Y103.357 E0.01472
G1 X132.286 Y103.839 E0.01475
G1 X132.357 Y104.449 E0.01848
G1 X132.378 Y105.067 E0.01858
G1 X132.352 Y105.614 E0.01649
G1 X132.296 Y106.099 E0.01469
G1 X132.207 Y106.581 E0.01473
G1 X132.050 Y107.174 E0.01845
G1 X131.846 Y107.752 E0.01845
G1 X131.648 Y108.200 E0.01472
G1 X131.426 Y108.624 E0.01441
G1 X131.088 Y109.168 E0.01926
G1 X130.730 Y109.648 E0.01802
G1 X130.409 Y110.018 E0.01472
G1 X130.064 Y110.366 E0.01475
G1 X129.599 Y110.769 E0.01849
G1 X129.098 Y111.135 E0.01868
G1 X128.622 Y111.427 E0.01679
G1 X128.186 Y111.655 E0.01482
G1 X127.721 Y111.858 E0.01525
G1 X127.116 Y112.068 E0.01927
G1 X126.642 Y112.193 E0.01475
G1 X126.161 Y112.286 E0.01473
G1 X125.551 Y112.357 E0.01846
G1 X124.934 Y112.378 E0.01859
G1 X124.386 Y112.352 E0.01650
G1 X123.901 Y112.296 E0.01469
G1 X123.419 Y112.207 E0.01473
G1 X122.826 Y112.050 E0.01846
G1 X122.247 Y111.845 E0.01845
G1 X121.800 Y111.648 E0.01473
G1 X121.365 Y111.421 E0.01474
G1 X120.844 Y111.096 E0.01847
G1 X120.352 Y110.730 E0.01845
G1 X119.982 Y110.409 E0.01473
G1 X119.634 Y110.064 E0.01474
G1 X119.232 Y109.601 E0.01846
G1 X118.870 Y109.105 E0.01846
G1 X118.611 Y108.690 E0.01473
G1 X118.380 Y108.257 E0.01474
G1 X118.132 Y107.695 E0.01847
G1 X117.932 Y107.116 E0.01845
G1 X117.807 Y106.642 E0.01473
G1 X117.714 Y106.161 E0.01474
G1 X117.643 Y105.552 E0.01846
G1 X117.622 Y104.938 E0.01847
G1 X117.643 Y104.449 E0.01474
G1 X117.695 Y103.961 E0.01474
G1 X117.807 Y103.359 E0.01842
G1 X117.963 Y102.783 E0.01795
G1 X118.131 Y102.308 E0.01517
G1 X118.325 Y101.856 E0.01481
G1 X118.603 Y101.324 E0.01805
G1 X118.931 Y100.804 E0.01848
G1 X119.163 Y100.495 E0.01161
G1 X119.464 Y100.721 F7200.000
G1 F2100
G1 X119.863 Y100.243 E0.01873
G1 X120.199 Y99.905 E0.01434
G1 X120.643 Y99.520 E0.01766
G1 X121.111 Y99.179 E0.01742
G1 X121.506 Y98.933 E0.01400
G1 X121.915 Y98.715 E0.01393
G1 X122.451 Y98.480 E0.01763
G1 X122.999 Y98.291 E0.01743
G1 X123.449 Y98.173 E0.01400
G1 X123.904 Y98.085 E0.01394
G1 X124.487 Y98.018 E0.01763
G1 X125.066 Y98.000 E0.01742
G1 X125.531 Y98.019 E0.01400
G1 X125.992 Y98.070 E0.01394
G1 X126.567 Y98.177 E0.01759
G1 X127.115 Y98.326 E0.01710
G1 X127.563 Y98.485 E0.01431
G1 X127.989 Y98.669 E0.01395
G1 X128.494 Y98.933 E0.01713
G1 X128.988 Y99.246 E0.01759
G1 X129.360 Y99.522 E0.01395
G1 X129.722 Y99.831 E0.01430
G1 X130.093 Y100.197 E0.01567
G1 X130.468 Y100.629 E0.01722
G1 X130.814 Y101.100 E0.01759
G1 X131.066 Y101.505 E0.01433
G1 X131.284 Y101.914 E0.01395
G1 X131.514 Y102.435 E0.01713
G1 X131.705 Y102.987 E0.01758
G1 X131.824 Y103.435 E0.01394
G1 X131.915 Y103.903 E0.01434
G1 X131.982 Y104.485 E0.01760
G1 X132.001 Y105.057 E0.01722
G1 X131.977 Y105.577 E0.01566
G1 X131.922 Y106.049 E0.01430
G1 X131.837 Y106.505 E0.01395
G1 X131.692 Y107.056 E0.01713
G1 X131.498 Y107.607 E0.01758
G1 X131.311 Y108.031 E0.01393
G1 X131.095 Y108.444 E0.01401
G1 X130.781 Y108.949 E0.01791
G1 X130.440 Y109.407 E0.01716
G1 X130.137 Y109.757 E0.01394
G1 X129.801 Y110.095 E0.01434
G1 X129.359 Y110.479 E0.01761
G1 X128.894 Y110.818 E0.01731
G1 X128.442 Y111.096 E0.01596
G1 X128.017 Y111.317 E0.01441
G1 X127.577 Y111.509 E0.01444
G1 X127.013 Y111.705 E0.01796
G1 X126.552 Y111.827 E0.01434
G1 X126.097 Y111.915 E0.01395
G1 X125.516 Y111.982 E0.01759
G1 X124.943 Y112.001 E0.01723
G1 X124.423 Y111.977 E0.01567
G1 X123.951 Y111.922 E0.01430
G1 X123.495 Y111.837 E0.01395
G1 X122.944 Y111.692 E0.01713
G1 X122.393 Y111.497 E0.01758
G1 X121.969 Y111.311 E0.01394
G1 X121.546 Y111.090 E0.01433
G1 X121.050 Y110.780 E0.01759
G1 X120.594 Y110.441 E0.01712
G1 X120.234 Y110.129 E0.01432
G1 X119.905 Y109.802 E0.01396
G1 X119.532 Y109.371 E0.01714
G1 X119.186 Y108.900 E0.01759
G1 X118.940 Y108.506 E0.01395
G1 X118.716 Y108.086 E0.01434
G1 X118.486 Y107.565 E0.01714
G1 X118.295 Y107.013 E0.01757
G1 X118.173 Y106.552 E0.01432
G1 X118.085 Y106.097 E0.01396
G1 X118.019 Y105.531 E0.01714
G1 X117.999 Y104.947 E0.01759
G1 X118.019 Y104.471 E0.01433
G1 X118.069 Y104.009 E0.01396
G1 X118.176 Y103.436 E0.01755
G1 X118.321 Y102.902 E0.01664
G1 X118.480 Y102.451 E0.01438
G1 X118.669 Y102.011 E0.01440
G1 X118.934 Y101.506 E0.01718
G1 X119.238 Y101.024 E0.01713
G1 X119.428 Y100.769 E0.00958
G1 X119.730 Y100.995 F7200.000
G1 F2100
G1 X120.144 Y100.495 E0.01951
G1 X120.461 Y100.175 E0.01355
G1 X120.872 Y99.820 E0.01632
G1 X121.316 Y99.495 E0.01657
G1 X121.689 Y99.263 E0.01321
G1 X122.086 Y99.052 E0.01352
G1 X122.582 Y98.834 E0.01629
G1 X123.102 Y98.654 E0.01657
G1 X123.527 Y98.542 E0.01322
G1 X123.969 Y98.457 E0.01353
G1 X124.507 Y98.395 E0.01629
G1 X125.057 Y98.377 E0.01657
G1 X125.496 Y98.395 E0.01321
G1 X125.943 Y98.444 E0.01353
G1 X126.490 Y98.546 E0.01671
G1 X126.996 Y98.684 E0.01578
G1 X127.420 Y98.834 E0.01352
G1 X127.833 Y99.012 E0.01354
G1 X128.312 Y99.264 E0.01626
G1 X128.769 Y99.553 E0.01626
G1 X129.130 Y99.821 E0.01354
G1 X129.472 Y100.113 E0.01352
G1 X129.823 Y100.460 E0.01484
G1 X130.178 Y100.870 E0.01632
G1 X130.498 Y101.306 E0.01626
G1 X130.736 Y101.688 E0.01354
G1 X130.948 Y102.085 E0.01354
G1 X131.166 Y102.580 E0.01626
G1 X131.343 Y103.091 E0.01626
G1 X131.458 Y103.526 E0.01353
G1 X131.543 Y103.968 E0.01355
G1 X131.605 Y104.505 E0.01627
G1 X131.624 Y105.048 E0.01633
G1 X131.602 Y105.540 E0.01484
G1 X131.550 Y105.987 E0.01351
G1 X131.468 Y106.429 E0.01354
G1 X131.330 Y106.952 E0.01626
G1 X131.150 Y107.461 E0.01625
G1 X130.968 Y107.873 E0.01353
G1 X130.764 Y108.262 E0.01322
G1 X130.465 Y108.743 E0.01704
G1 X130.151 Y109.165 E0.01583
G1 X129.856 Y109.505 E0.01353
G1 X129.538 Y109.825 E0.01355
G1 X129.129 Y110.179 E0.01628
G1 X128.690 Y110.501 E0.01640
G1 X128.261 Y110.765 E0.01513
G1 X127.860 Y110.974 E0.01361
G1 X127.433 Y111.161 E0.01402
G1 X126.910 Y111.343 E0.01667
G1 X126.474 Y111.458 E0.01355
G1 X126.032 Y111.543 E0.01354
G1 X125.495 Y111.605 E0.01626
G1 X124.952 Y111.624 E0.01633
G1 X124.460 Y111.602 E0.01484
G1 X124.013 Y111.550 E0.01351
G1 X123.571 Y111.468 E0.01354
G1 X123.048 Y111.330 E0.01626
G1 X122.538 Y111.149 E0.01626
G1 X122.127 Y110.968 E0.01353
G1 X121.728 Y110.759 E0.01354
G1 X121.269 Y110.473 E0.01626
G1 X120.835 Y110.151 E0.01625
G1 X120.495 Y109.856 E0.01353
G1 X120.176 Y109.539 E0.01355
G1 X119.822 Y109.130 E0.01627
G1 X119.502 Y108.694 E0.01626
G1 X119.264 Y108.312 E0.01354
G1 X119.052 Y107.915 E0.01355
G1 X118.834 Y107.420 E0.01627
G1 X118.657 Y106.909 E0.01625
G1 X118.542 Y106.474 E0.01353
G1 X118.457 Y106.032 E0.01355
G1 X118.395 Y105.495 E0.01627
G1 X118.376 Y104.955 E0.01626
G1 X118.395 Y104.505 E0.01354
G1 X118.443 Y104.058 E0.01354
G1 X118.545 Y103.513 E0.01668
G1 X118.679 Y103.020 E0.01534
G1 X118.829 Y102.594 E0.01358
