; generated by Slic3r 1.33.8.devel on 2018-07-08 at 14:23:16

; 

; external perimeters extrusion width = 0.60mm
; perimeters extrusion width = 0.43mm
; infill extrusion width = 0.70mm
; solid infill extrusion width = 0.70mm
; top infill extrusion width = 0.43mm
; first layer extrusion width = 0.42mm

M107
M115 U3.0.12 ; tell printer latest fw version
M83  ; extruder relative mode
M104 S215 ; set extruder temp
M140 S55 ; set bed temp
M190 S55 ; wait for bed temp
M109 S215 ; wait for extruder temp
G28 W ; home all without mesh bed level
G80 ; mesh bed leveling
G1 Y-3.0 F1000.0 ; go outside pritn area
G1 X60.0 E9.0  F1000.0 ; intro line
G1 X100.0 E12.5  F1000.0 ; intro line
; Filament gcode

G21 ; set units to millimeters
G90 ; use absolute coordinates
M83 ; use relative distances for extrusion
G1 E-0.80000 F2100.00000
G1 Z0.200 F7200.000
G1 X111.021 Y90.938 F7200.000
G1 E0.80000 F2100.00000
M204 S1000
G1 F2100
G1 X111.535 Y90.162 E0.02798
G1 X115.260 Y86.437 E0.15847
G1 X115.837 Y86.020 E0.02140
G1 X116.505 Y85.764 E0.02152
G1 X117.134 Y85.687 E0.01907
G1 X132.855 Y85.687 E0.47288
G1 X133.860 Y85.879 E0.03078
G1 X134.726 Y86.424 E0.03078
G1 X138.540 Y90.245 E0.16241
G1 X138.940 Y90.854 E0.02189
G1 X139.167 Y91.549 E0.02201
G1 X139.213 Y117.772 E0.78877
G1 X139.152 Y118.325 E0.01674
G1 X138.980 Y118.859 E0.01687
G1 X138.465 Y119.638 E0.02811
G1 X134.734 Y123.369 E0.15872
G1 X134.134 Y123.796 E0.02213
G1 X133.439 Y124.049 E0.02225
G1 X132.862 Y124.113 E0.01748
G1 X117.124 Y124.113 E0.47338
G1 X116.571 Y124.052 E0.01674
G1 X116.038 Y123.879 E0.01687
G1 X115.259 Y123.362 E0.02811
G1 X111.509 Y119.610 E0.15958
G1 X111.056 Y118.939 E0.02433
G1 X110.819 Y118.166 E0.02433
G1 X110.787 Y92.028 E0.78621
G1 X110.848 Y91.471 E0.01687
G1 X111.003 Y90.995 E0.01506
G1 X111.360 Y91.111 F7200.000
G1 F2100
G1 X111.818 Y90.412 E0.02513
G1 X115.515 Y86.715 E0.15727
G1 X116.022 Y86.348 E0.01885
G1 X116.608 Y86.126 E0.01885
G1 X117.141 Y86.064 E0.01612
G1 X132.855 Y86.064 E0.47268
G1 X133.725 Y86.231 E0.02665
G1 X134.477 Y86.707 E0.02677
G1 X138.246 Y90.482 E0.16047
G1 X138.602 Y91.021 E0.01942
G1 X138.800 Y91.635 E0.01942
G1 X138.836 Y117.766 E0.78602
G1 X138.783 Y118.250 E0.01464
G1 X138.631 Y118.716 E0.01475
G1 X138.182 Y119.388 E0.02429
G1 X134.480 Y123.090 E0.15749
G1 X133.957 Y123.463 E0.01930
G1 X133.351 Y123.683 E0.01942
G1 X132.859 Y123.736 E0.01487
G1 X117.130 Y123.736 E0.47313
G1 X116.184 Y123.531 E0.02913
G1 X115.512 Y123.082 E0.02429
G1 X111.792 Y119.360 E0.15830
G1 X111.396 Y118.776 E0.02123
G1 X111.190 Y118.101 E0.02123
G1 X111.164 Y92.034 E0.78409
G1 X111.217 Y91.550 E0.01464
G1 X111.341 Y91.168 E0.01208
G1 F5760
G1 X111.818 Y90.412 E-0.30943
G1 F5760
G1 X112.737 Y89.492 E-0.45057
G1 E-0.04000 F2100.00000
G1 X114.706 Y92.531 F7200.000
G1 E0.80000 F2100.00000
G1 F1680
G1 X117.631 Y89.606 E0.12445
G1 X132.369 Y89.606 E0.44330
G1 X135.294 Y92.531 E0.12445
G1 X135.294 Y117.269 E0.74410
G1 X132.369 Y120.194 E0.12445
G1 X117.631 Y120.194 E0.44330
G1 X114.706 Y117.269 E0.12445
G1 X114.706 Y92.591 E0.74229
G1 X114.329 Y92.375 F7200.000
G1 F1260
G1 X117.475 Y89.229 E0.13385
G1 X132.525 Y89.229 E0.45269
G1 X135.671 Y92.375 E0.13385
G1 X135.671 Y117.425 E0.75349
G1 X132.525 Y120.571 E0.13385
G1 X117.475 Y120.571 E0.45269
G1 X114.329 Y117.425 E0.13385
G1 X114.329 Y92.435 E0.75169
G1 X114.728 Y92.360 F7200.000
G1 F5760
G1 X115.866 Y90.869 E-0.76000
G1 E-0.04000 F2100.00000
G1 X135.181 Y92.820 F7200.000
G1 E0.80000 F2100.00000
G1 F2520
G1 X132.250 Y89.889 E0.12546
G1 X131.713 Y89.889 E0.01623
G1 X135.011 Y93.186 E0.14116
G1 X135.011 Y93.723 E0.01623
G1 X131.177 Y89.889 E0.16411
G1 X130.641 Y89.889 E0.01623
G1 X135.011 Y94.259 E0.18707
G1 X135.011 Y94.796 E0.01623
G1 X130.104 Y89.889 E0.21003
G1 X129.568 Y89.889 E0.01623
G1 X135.011 Y95.332 E0.23299
G1 X135.011 Y95.869 E0.01623
G1 X129.031 Y89.889 E0.25595
G1 X128.495 Y89.889 E0.01623
G1 X135.011 Y96.405 E0.27891
G1 X135.011 Y96.941 E0.01623
G1 X127.959 Y89.889 E0.30187
G1 X127.422 Y89.889 E0.01623
G1 X135.011 Y97.478 E0.32483
G1 X135.011 Y98.014 E0.01623
G1 X126.886 Y89.889 E0.34779
G1 X126.349 Y89.889 E0.01623
G1 X135.011 Y98.551 E0.37075
G1 X135.011 Y99.087 E0.01623
G1 X125.813 Y89.889 E0.39371
G1 X125.276 Y89.889 E0.01623
G1 X135.011 Y99.624 E0.41667
G1 X135.011 Y100.160 E0.01623
G1 X124.740 Y89.889 E0.43963
G1 X124.204 Y89.889 E0.01623
G1 X135.011 Y100.696 E0.46259
G1 X135.011 Y101.233 E0.01623
G1 X123.667 Y89.889 E0.48555
G1 X123.131 Y89.889 E0.01623
G1 X135.011 Y101.769 E0.50851
G1 X135.011 Y102.306 E0.01623
G1 X122.594 Y89.889 E0.53146
G1 X122.058 Y89.889 E0.01623
G1 X135.011 Y102.842 E0.55442
G1 X135.011 Y103.378 E0.01623
G1 X121.522 Y89.889 E0.57738
G1 X120.985 Y89.889 E0.01623
G1 X135.011 Y103.915 E0.60034
G1 X135.011 Y104.451 E0.01623
G1 X120.449 Y89.889 E0.62330
G1 X119.912 Y89.889 E0.01623
G1 X135.011 Y104.988 E0.64626
G1 X135.011 Y105.524 E0.01623
G1 X119.376 Y89.889 E0.66922
G1 X118.839 Y89.889 E0.01623
G1 X135.011 Y106.061 E0.69218
G1 X135.011 Y106.597 E0.01623
G1 X118.303 Y89.889 E0.71514
G1 X117.767 Y89.889 E0.01623
G1 X135.011 Y107.133 E0.73810
G1 X135.011 Y107.670 E0.01623
G1 X117.489 Y90.148 E0.74997
G1 X117.221 Y90.416 E0.01148
G1 X135.011 Y108.206 E0.76145
G1 X135.011 Y108.743 E0.01623
G1 X116.953 Y90.684 E0.77293
G1 X116.685 Y90.952 E0.01148
G1 X135.011 Y109.279 E0.78441
G1 X135.011 Y109.816 E0.01623
G1 X116.416 Y91.221 E0.79589
G1 X116.148 Y91.489 E0.01148
G1 X135.011 Y110.352 E0.80737
G1 X135.011 Y110.888 E0.01623
G1 X115.880 Y91.757 E0.81884
G1 X115.612 Y92.025 E0.01148
G1 X135.011 Y111.425 E0.83032
G1 X135.011 Y111.961 E0.01623
G1 X115.344 Y92.293 E0.84180
G1 X115.075 Y92.562 E0.01148
G1 X135.011 Y112.498 E0.85328
G1 X135.011 Y113.034 E0.01623
G1 X114.989 Y93.011 E0.85700
G1 X114.989 Y93.548 E0.01623
G1 X135.011 Y113.570 E0.85700
G1 X135.011 Y114.107 E0.01623
G1 X114.989 Y94.084 E0.85700
G1 X114.989 Y94.620 E0.01623
G1 X135.011 Y114.643 E0.85700
G1 X135.011 Y115.180 E0.01623
G1 X114.989 Y95.157 E0.85700
G1 X114.989 Y95.693 E0.01623
G1 X135.011 Y115.716 E0.85700
G1 X135.011 Y116.253 E0.01623
G1 X114.989 Y96.230 E0.85700
G1 X114.989 Y96.766 E0.01623
G1 X135.011 Y116.789 E0.85700
G1 X135.011 Y117.152 E0.01097
G1 X134.925 Y117.238 E0.00372
G1 X114.989 Y97.303 E0.85328
G1 X114.989 Y97.839 E0.01623
G1 X134.656 Y117.507 E0.84180
G1 X134.388 Y117.775 E0.01148
G1 X114.989 Y98.375 E0.83032
G1 X114.989 Y98.912 E0.01623
G1 X134.120 Y118.043 E0.81884
G1 X133.852 Y118.311 E0.01148
G1 X114.989 Y99.448 E0.80736
G1 X114.989 Y99.985 E0.01623
G1 X133.583 Y118.580 E0.79588
G1 X133.315 Y118.848 E0.01148
G1 X114.989 Y100.521 E0.78440
G1 X114.989 Y101.057 E0.01623
G1 X133.047 Y119.116 E0.77292
G1 X132.779 Y119.384 E0.01148
G1 X114.989 Y101.594 E0.76144
G1 X114.989 Y102.130 E0.01623
G1 X132.511 Y119.652 E0.74996
G1 X132.233 Y119.911 E0.01149
G1 X114.989 Y102.667 E0.73809
G1 X114.989 Y103.203 E0.01623
G1 X131.697 Y119.911 E0.71513
G1 X131.160 Y119.911 E0.01623
G1 X114.989 Y103.740 E0.69217
G1 X114.989 Y104.276 E0.01623
G1 X130.624 Y119.911 E0.66922
G1 X130.088 Y119.911 E0.01623
G1 X114.989 Y104.812 E0.64626
G1 X114.989 Y105.349 E0.01623
G1 X129.551 Y119.911 E0.62330
G1 X129.015 Y119.911 E0.01623
G1 X114.989 Y105.885 E0.60034
G1 X114.989 Y106.422 E0.01623
G1 X128.478 Y119.911 E0.57738
G1 X127.942 Y119.911 E0.01623
G1 X114.989 Y106.958 E0.55442
G1 X114.989 Y107.494 E0.01623
G1 X127.405 Y119.911 E0.53146
G1 X126.869 Y119.911 E0.01623
G1 X114.989 Y108.031 E0.50850
G1 X114.989 Y108.567 E0.01623
G1 X126.333 Y119.911 E0.48554
G1 X125.796 Y119.911 E0.01623
G1 X114.989 Y109.104 E0.46258
G1 X114.989 Y109.640 E0.01623
G1 X125.260 Y119.911 E0.43962
G1 X124.723 Y119.911 E0.01623
G1 X114.989 Y110.177 E0.41666
G1 X114.989 Y110.713 E0.01623
G1 X124.187 Y119.911 E0.39370
G1 X123.651 Y119.911 E0.01623
G1 X114.989 Y111.249 E0.37074
G1 X114.989 Y111.786 E0.01623
G1 X123.114 Y119.911 E0.34778
G1 X122.578 Y119.911 E0.01623
G1 X114.989 Y112.322 E0.32482
G1 X114.989 Y112.859 E0.01623
G1 X122.041 Y119.911 E0.30187
G1 X121.505 Y119.911 E0.01623
G1 X114.989 Y113.395 E0.27891
G1 X114.989 Y113.932 E0.01623
G1 X120.968 Y119.911 E0.25595
G1 X120.432 Y119.911 E0.01623
G1 X114.989 Y114.468 E0.23299
G1 X114.989 Y115.004 E0.01623
G1 X119.896 Y119.911 E0.21003
G1 X119.359 Y119.911 E0.01623
G1 X114.989 Y115.541 E0.18707
G1 X114.989 Y116.077 E0.01623
G1 X118.823 Y119.911 E0.16411
G1 X118.286 Y119.911 E0.01623
G1 X114.989 Y116.614 E0.14115
G1 X114.989 Y117.150 E0.01623
G1 X117.920 Y120.081 E0.12545
M106 S252.45
G1 F5760
G1 X116.368 Y118.530 E-0.76000
G1 E-0.04000 F2100.00000
G1 Z0.550 F7200.000
M104 S210 ; set temperature
G1 X116.038 Y123.879 F7200.000
G1 E0.80000 F2100.00000
G1 F2980
G1 X115.259 Y123.362 E0.04324
G1 X111.509 Y119.610 E0.24554
G1 X111.056 Y118.939 E0.03744
G1 X110.819 Y118.166 E0.03744
G1 X110.787 Y92.028 E1.20972
G1 X110.848 Y91.471 E0.02595
G1 X111.021 Y90.938 E0.02595
G1 X111.535 Y90.162 E0.04306
G1 X115.260 Y86.437 E0.24384
G1 X115.837 Y86.020 E0.03293
G1 X116.505 Y85.764 E0.03311
G1 X117.134 Y85.687 E0.02935
G1 X132.855 Y85.687 E0.72761
G1 X133.860 Y85.879 E0.04735
G1 X134.726 Y86.424 E0.04735
G1 X138.540 Y90.245 E0.24990
G1 X138.940 Y90.854 E0.03368
G1 X139.167 Y91.549 E0.03387
G1 X139.213 Y117.772 E1.21365
G1 X139.152 Y118.325 E0.02576
G1 X138.980 Y118.859 E0.02595
G1 X138.465 Y119.638 E0.04324
G1 X134.734 Y123.369 E0.24422
G1 X134.134 Y123.796 E0.03405
G1 X133.439 Y124.049 E0.03424
G1 X132.862 Y124.113 E0.02690
G1 X117.124 Y124.113 E0.72837
G1 X116.571 Y124.052 E0.02576
G1 X116.095 Y123.897 E0.02318
G1 F5760
G1 X115.259 Y123.362 E-0.34368
G1 F5760
G1 X114.409 Y122.512 E-0.41632
G1 E-0.04000 F2100.00000
G1 X117.589 Y120.295 F7200.000
G1 E0.80000 F2100.00000
M204 S800
G1 F2384
G1 X114.605 Y117.311 E0.20151
G1 X114.605 Y92.489 E1.18492
G1 X117.589 Y89.505 E0.20151
G1 X132.411 Y89.505 E0.70754
G1 X135.395 Y92.489 E0.20151
G1 X135.395 Y117.311 E1.18492
G1 X132.411 Y120.295 E0.20151
G1 X117.649 Y120.295 E0.70467
M204 S1000
G1 X117.407 Y120.735 F7200.000
M204 S800
G1 F1800
G1 X114.165 Y117.493 E0.33234
G1 X114.165 Y92.307 E1.82534
G1 X117.407 Y89.065 E0.33235
G1 X132.593 Y89.065 E1.10059
G1 X135.835 Y92.307 E0.33234
G1 X135.835 Y117.493 E1.82534
G1 X132.593 Y120.735 E0.33234
G1 X117.467 Y120.735 E1.09624
M204 S1000
G1 X117.384 Y120.336 F7200.000
G1 F5760
G1 X115.901 Y119.198 E-0.76000
G1 E-0.04000 F2100.00000
G1 X131.973 Y120.209 F7200.000
G1 E0.80000 F2100.00000
M204 S2000
G1 F3576
G1 X135.028 Y117.155 E0.37932
G1 X135.028 Y116.263 E0.07826
G1 X131.363 Y119.928 E0.45508
G1 X130.472 Y119.928 E0.07826
G1 X135.028 Y115.372 E0.56576
G1 X135.028 Y114.481 E0.07826
G1 X129.581 Y119.928 E0.67644
G1 X128.689 Y119.928 E0.07826
G1 X135.028 Y113.589 E0.78712
G1 X135.028 Y112.698 E0.07826
G1 X127.798 Y119.928 E0.89780
G1 X126.907 Y119.928 E0.07826
G1 X135.028 Y111.807 E1.00848
G1 X135.028 Y110.915 E0.07826
G1 X126.015 Y119.928 E1.11916
G1 X125.124 Y119.928 E0.07826
G1 X135.028 Y110.024 E1.22984
G1 X135.028 Y109.133 E0.07826
G1 X124.233 Y119.928 E1.34052
G1 X123.341 Y119.928 E0.07826
G1 X135.028 Y108.242 E1.45120
G1 X135.028 Y107.350 E0.07826
G1 X122.450 Y119.928 E1.56189
G1 X121.559 Y119.928 E0.07826
G1 X135.028 Y106.459 E1.67257
G1 X135.028 Y105.568 E0.07826
G1 X120.668 Y119.928 E1.78325
G1 X119.776 Y119.928 E0.07826
G1 X135.028 Y104.676 E1.89393
G1 X135.028 Y103.785 E0.07826
G1 X118.885 Y119.928 E2.00461
G1 X117.994 Y119.928 E0.07826
G1 X135.028 Y102.894 E2.11529
G1 X135.028 Y102.002 E0.07826
G1 X117.422 Y119.608 E2.18628
G1 X116.976 Y119.163 E0.05534
G1 X135.028 Y101.111 E2.24162
G1 X135.028 Y100.220 E0.07826
G1 X116.531 Y118.717 E2.29696
G1 X116.085 Y118.272 E0.05534
G1 X135.028 Y99.328 E2.35230
G1 X135.028 Y98.437 E0.07826
G1 X115.639 Y117.826 E2.40764
G1 X115.194 Y117.380 E0.05534
G1 X135.028 Y97.546 E2.46298
G1 X135.028 Y96.655 E0.07826
G1 X114.972 Y116.711 E2.49052
G1 X114.972 Y115.819 E0.07826
G1 X135.028 Y95.763 E2.49052
G1 X135.028 Y94.872 E0.07826
G1 X114.972 Y114.928 E2.49052
G1 X114.972 Y114.037 E0.07826
G1 X135.028 Y93.981 E2.49052
G1 X135.028 Y93.089 E0.07826
G1 X114.972 Y113.145 E2.49052
G1 X114.972 Y112.254 E0.07826
G1 X134.806 Y92.420 E2.46298
G1 X134.361 Y91.974 E0.05534
G1 X114.972 Y111.363 E2.40764
G1 X114.972 Y110.471 E0.07826
G1 X133.915 Y91.528 E2.35230
G1 X133.469 Y91.083 E0.05534
G1 X114.972 Y109.580 E2.29696
G1 X114.972 Y108.689 E0.07826
G1 X133.024 Y90.637 E2.24162
G1 X132.578 Y90.191 E0.05534
G1 X114.972 Y107.798 E2.18628
G1 X114.972 Y106.906 E0.07826
G1 X132.006 Y89.872 E2.11528
G1 X131.115 Y89.872 E0.07826
G1 X114.972 Y106.015 E2.00460
G1 X114.972 Y105.124 E0.07826
G1 X130.224 Y89.872 E1.89392
G1 X129.332 Y89.872 E0.07826
G1 X114.972 Y104.232 E1.78324
G1 X114.972 Y103.341 E0.07826
G1 X128.441 Y89.872 E1.67256
G1 X127.550 Y89.872 E0.07826
G1 X114.972 Y102.450 E1.56188
G1 X114.972 Y101.558 E0.07826
G1 X126.658 Y89.872 E1.45120
G1 X125.767 Y89.872 E0.07826
G1 X114.972 Y100.667 E1.34052
G1 X114.972 Y99.776 E0.07826
G1 X124.876 Y89.872 E1.22984
G1 X123.984 Y89.872 E0.07826
G1 X114.972 Y98.884 E1.11916
G1 X114.972 Y97.993 E0.07826
G1 X123.093 Y89.872 E1.00848
G1 X122.202 Y89.872 E0.07826
G1 X114.972 Y97.102 E0.89780
G1 X114.972 Y96.211 E0.07826
G1 X121.311 Y89.872 E0.78711
G1 X120.419 Y89.872 E0.07826
G1 X114.972 Y95.319 E0.67643
G1 X114.972 Y94.428 E0.07826
G1 X119.528 Y89.872 E0.56575
G1 X118.637 Y89.872 E0.07826
G1 X114.972 Y93.537 E0.45507
G1 X114.972 Y92.645 E0.07826
G1 X118.027 Y89.591 E0.37931
M204 S1000
G1 F5760
G1 X116.475 Y91.142 E-0.76000
G1 E-0.04000 F2100.00000
G1 Z0.900 F7200.000
G1 X133.860 Y85.879 F7200.000
G1 E0.80000 F2100.00000
G1 F3000
G1 X134.726 Y86.424 E0.04735
G1 X138.540 Y90.245 E0.24990
G1 X138.940 Y90.854 E0.03368
G1 X139.167 Y91.549 E0.03387
G1 X139.213 Y117.772 E1.21365
G1 X139.152 Y118.325 E0.02576
G1 X138.980 Y118.859 E0.02595
G1 X138.465 Y119.638 E0.04324
G1 X134.734 Y123.369 E0.24422
G1 X134.134 Y123.796 E0.03405
G1 X133.439 Y124.049 E0.03424
G1 X132.862 Y124.113 E0.02690
G1 X117.124 Y124.113 E0.72837
G1 X116.571 Y124.052 E0.02576
G1 X116.038 Y123.879 E0.02595
G1 X115.259 Y123.362 E0.04324
G1 X111.509 Y119.610 E0.24554
G1 X111.056 Y118.939 E0.03744
G1 X110.819 Y118.166 E0.03744
G1 X110.787 Y92.028 E1.20972
G1 X110.848 Y91.471 E0.02595
G1 X111.021 Y90.938 E0.02595
G1 X111.535 Y90.162 E0.04306
G1 X115.260 Y86.437 E0.24384
G1 X115.837 Y86.020 E0.03293
G1 X116.505 Y85.764 E0.03311
G1 X117.134 Y85.687 E0.02935
G1 X132.855 Y85.687 E0.72761
G1 X133.801 Y85.867 E0.04458
G1 F5760
G1 X134.726 Y86.424 E-0.37379
G1 F5760
G1 X135.514 Y87.213 E-0.38621
G1 E-0.04000 F2100.00000
G1 X132.545 Y89.181 F7200.000
G1 E0.80000 F2100.00000
M204 S800
G1 F2400
G1 X135.719 Y92.355 E0.21430
G1 X135.719 Y117.445 E1.19771
G1 X132.545 Y120.619 E0.21430
G1 X117.455 Y120.619 E0.72033
G1 X114.281 Y117.445 E0.21430
G1 X114.281 Y92.355 E1.19771
G1 X117.455 Y89.181 E0.21430
G1 X132.485 Y89.181 E0.71746
M204 S1000
G1 X132.727 Y88.741 F7200.000
M204 S800
G1 F1800
G1 X136.159 Y92.173 E0.35176
G1 X136.159 Y117.627 E1.84475
G1 X132.727 Y121.059 E0.35176
G1 X117.273 Y121.059 E1.12000
G1 X113.841 Y117.627 E0.35176
G1 X113.841 Y92.173 E1.84475
G1 X117.273 Y88.741 E0.35176
G1 X132.667 Y88.741 E1.11565
M204 S1000
G1 X132.751 Y89.141 F7200.000
G1 F5760
G1 X134.232 Y90.279 E-0.76000
G1 E-0.04000 F2100.00000
G1 X135.633 Y92.793 F7200.000
G1 E0.80000 F2100.00000
M204 S2000
G1 F3600
G1 X132.388 Y89.549 E0.40308
G1 X131.497 Y89.549 E0.07834
G1 X135.351 Y93.403 E0.47894
G1 X135.351 Y94.295 E0.07834
G1 X130.605 Y89.549 E0.58973
G1 X129.713 Y89.549 E0.07834
G1 X135.351 Y95.187 E0.70053
G1 X135.351 Y96.079 E0.07834
G1 X128.821 Y89.549 E0.81132
G1 X127.930 Y89.549 E0.07834
G1 X135.351 Y96.970 E0.92212
G1 X135.351 Y97.862 E0.07834
G1 X127.038 Y89.549 E1.03291
G1 X126.146 Y89.549 E0.07834
G1 X135.351 Y98.754 E1.14370
G1 X135.351 Y99.646 E0.07834
G1 X125.254 Y89.549 E1.25450
G1 X124.362 Y89.549 E0.07834
G1 X135.351 Y100.537 E1.36529
G1 X135.351 Y101.429 E0.07834
G1 X123.471 Y89.549 E1.47609
G1 X122.579 Y89.549 E0.07834
G1 X135.351 Y102.321 E1.58688
G1 X135.351 Y103.213 E0.07834
