; generated by Slic3r 1.33.8.devel on 2018-07-07 at 21:51:59

; 

; external perimeters extrusion width = 0.60mm
; perimeters extrusion width = 0.43mm
; infill extrusion width = 0.70mm
; solid infill extrusion width = 0.70mm
; top infill extrusion width = 0.43mm
; first layer extrusion width = 0.42mm

M107
M115 U3.0.12 ; tell printer latest fw version
M83  ; extruder relative mode
M104 S215 ; set extruder temp
M140 S55 ; set bed temp
M190 S55 ; wait for bed temp
M109 S215 ; wait for extruder temp
G28 W ; home all without mesh bed level
G80 ; mesh bed leveling
G1 Y-3.0 F1000.0 ; go outside pritn area
G1 X60.0 E9.0  F1000.0 ; intro line
G1 X100.0 E12.5  F1000.0 ; intro line
; Filament gcode

G21 ; set units to millimeters
G90 ; use absolute coordinates
M83 ; use relative distances for extrusion
G1 E-0.80000 F2100.00000
G1 Z0.200 F7200.000
G1 X105.126 Y75.128 F7200.000
G1 E0.80000 F2100.00000
M204 S1000
G1 F2100
G1 X106.432 Y73.361 E0.06609
G1 X108.291 Y71.326 E0.08292
G1 X110.037 Y69.779 E0.07016
G1 X111.804 Y68.491 E0.06577
G1 X113.695 Y67.362 E0.06625
G1 X115.763 Y66.379 E0.06888
G1 X117.828 Y65.625 E0.06614
G1 X120.539 Y64.943 E0.08409
G1 X122.813 Y64.623 E0.06908
G1 X125.007 Y64.523 E0.06605
G1 X126.960 Y64.604 E0.05881
G1 X128.399 Y64.767 E0.04356
G1 X130.313 Y65.120 E0.05855
G1 X132.172 Y65.625 E0.05793
G1 X133.561 Y66.108 E0.04424
G1 X135.337 Y66.871 E0.05815
G1 X136.531 Y67.486 E0.04039
G1 X138.193 Y68.489 E0.05838
G1 X139.773 Y69.629 E0.05862
G1 X140.884 Y70.557 E0.04353
G1 X142.283 Y71.903 E0.05839
G1 X143.569 Y73.362 E0.05850
G1 X144.457 Y74.525 E0.04402
G1 X145.520 Y76.145 E0.05828
G1 X146.457 Y77.865 E0.05892
G1 X147.028 Y79.108 E0.04114
G1 X147.755 Y81.054 E0.06251
G1 X148.330 Y83.136 E0.06495
G1 X148.709 Y85.227 E0.06392
G1 X148.902 Y87.360 E0.06443
G1 X148.927 Y121.550 E1.02843
G1 X148.827 Y123.739 E0.06592
G1 X148.501 Y126.037 E0.06981
G1 X147.818 Y128.748 E0.08409
G1 X147.027 Y130.893 E0.06878
G1 X146.063 Y132.902 E0.06702
G1 X144.884 Y134.857 E0.06869
G1 X143.581 Y136.622 E0.06597
G1 X141.704 Y138.679 E0.08378
G1 X139.963 Y140.221 E0.06993
G1 X138.190 Y141.513 E0.06601
G1 X136.305 Y142.638 E0.06601
G1 X134.237 Y143.621 E0.06888
G1 X132.172 Y144.375 E0.06614
G1 X129.469 Y145.055 E0.08385
G1 X127.195 Y145.376 E0.06908
G1 X125.001 Y145.477 E0.06605
G1 X123.048 Y145.396 E0.05881
G1 X121.609 Y145.235 E0.04356
G1 X119.687 Y144.880 E0.05879
G1 X117.828 Y144.375 E0.05793
G1 X116.439 Y143.892 E0.04424
G1 X114.663 Y143.129 E0.05815
G1 X113.469 Y142.514 E0.04039
G1 X111.814 Y141.516 E0.05814
G1 X110.227 Y140.371 E0.05886
G1 X109.116 Y139.443 E0.04353
G1 X107.714 Y138.094 E0.05854
G1 X106.431 Y136.638 E0.05836
G1 X105.548 Y135.481 E0.04380
G1 X104.481 Y133.858 E0.05842
G1 X103.552 Y132.152 E0.05841
G1 X102.979 Y130.907 E0.04125
G1 X102.241 Y128.935 E0.06332
G1 X101.675 Y126.881 E0.06409
G1 X101.291 Y124.773 E0.06446
G1 X101.098 Y122.638 E0.06447
G1 X101.073 Y88.450 E1.02837
G1 X101.174 Y86.255 E0.06610
G1 X101.499 Y83.965 E0.06958
G1 X102.179 Y81.263 E0.08380
G1 X102.975 Y79.102 E0.06929
G1 X103.940 Y77.093 E0.06702
G1 X105.095 Y75.180 E0.06723
G1 F5760
G1 X106.395 Y73.412 E-0.76000
G1 E-0.04000 F2100.00000
G1 X139.536 Y104.999 F7200.000
G1 E0.80000 F2100.00000
G1 F2100
G1 X140.202 Y105.600 E0.02700
G1 X140.892 Y106.287 E0.02928
G1 X141.568 Y107.024 E0.03010
G1 X142.223 Y107.807 E0.03067
G1 X142.846 Y108.627 E0.03099
G1 X143.422 Y109.461 E0.03049
G1 X143.956 Y110.317 E0.03036
G1 X144.433 Y111.164 E0.02921
G1 X144.865 Y112.017 E0.02879
G1 X145.263 Y112.893 E0.02893
G1 X145.616 Y113.772 E0.02849
G1 X145.934 Y114.674 E0.02875
G1 X146.229 Y115.646 E0.03057
G1 X146.479 Y116.635 E0.03067
G1 X146.672 Y117.572 E0.02881
G1 X146.828 Y118.541 E0.02952
G1 X146.945 Y119.572 E0.03120
G1 X147.013 Y120.572 E0.03015
G1 X147.034 Y121.590 E0.03063
G1 X147.008 Y122.619 E0.03097
G1 X146.935 Y123.644 E0.03091
G1 X146.820 Y124.618 E0.02951
G1 X146.681 Y125.480 E0.02625
G1 X146.507 Y126.344 E0.02651
G1 X146.267 Y127.316 E0.03011
G1 X145.980 Y128.283 E0.03036
G1 X145.653 Y129.229 E0.03009
G1 X145.279 Y130.168 E0.03040
G1 X144.854 Y131.106 E0.03097
G1 X144.386 Y132.024 E0.03102
G1 X143.879 Y132.912 E0.03076
G1 X143.323 Y133.788 E0.03119
G1 X142.760 Y134.591 E0.02951
G1 X142.230 Y135.285 E0.02627
G1 X141.667 Y135.963 E0.02650
G1 X141.009 Y136.690 E0.02949
G1 X140.313 Y137.393 E0.02977
G1 X139.542 Y138.104 E0.03153
G1 X138.735 Y138.779 E0.03166
G1 X137.904 Y139.411 E0.03141
G1 X137.039 Y140.005 E0.03155
G1 X136.206 Y140.522 E0.02951
G1 X135.343 Y141.006 E0.02974
G1 X134.564 Y141.400 E0.02626
G1 X133.763 Y141.767 E0.02650
G1 X132.854 Y142.137 E0.02951
G1 X131.904 Y142.475 E0.03034
G1 X130.938 Y142.769 E0.03037
G1 X129.968 Y143.017 E0.03013
G1 X128.979 Y143.222 E0.03037
G1 X127.992 Y143.380 E0.03009
G1 X126.987 Y143.494 E0.03040
G1 X125.988 Y143.562 E0.03012
G1 X124.976 Y143.584 E0.03045
G1 X123.893 Y143.556 E0.03260
G1 X122.904 Y143.484 E0.02980
G1 X121.928 Y143.369 E0.02958
G1 X120.997 Y143.218 E0.02836
G1 X120.070 Y143.026 E0.02847
G1 X119.147 Y142.793 E0.02864
G1 X118.241 Y142.522 E0.02845
G1 X117.316 Y142.201 E0.02945
G1 X116.396 Y141.835 E0.02979
G1 X115.404 Y141.385 E0.03277
G1 X114.543 Y140.945 E0.02909
G1 X113.702 Y140.467 E0.02909
G1 X112.798 Y139.897 E0.03215
G1 X112.022 Y139.357 E0.02844
G1 X111.269 Y138.783 E0.02846
G1 X110.549 Y138.183 E0.02820
G1 X109.849 Y137.549 E0.02842
G1 X109.155 Y136.862 E0.02937
G1 X108.486 Y136.138 E0.02963
G1 X107.776 Y135.293 E0.03321
G1 X107.174 Y134.501 E0.02993
G1 X106.614 Y133.694 E0.02954
G1 X106.091 Y132.862 E0.02955
G1 X105.605 Y132.007 E0.02960
G1 X105.154 Y131.124 E0.02982
G1 X104.737 Y130.206 E0.03032
G1 X104.362 Y129.270 E0.03034
G1 X104.042 Y128.352 E0.02924
G1 X103.761 Y127.417 E0.02936
G1 X103.527 Y126.492 E0.02871
G1 X103.331 Y125.547 E0.02903
G1 X103.165 Y124.504 E0.03178
G1 X103.054 Y123.522 E0.02971
G1 X102.988 Y122.530 E0.02993
G1 X102.966 Y121.511 E0.03066
G1 X102.990 Y120.511 E0.03007
G1 X103.058 Y119.532 E0.02952
G1 X103.168 Y118.569 E0.02917
G1 X103.321 Y117.612 E0.02915
G1 X103.511 Y116.678 E0.02866
G1 X103.749 Y115.728 E0.02946
G1 X104.029 Y114.787 E0.02956
G1 X104.355 Y113.850 E0.02982
G1 X104.719 Y112.937 E0.02957
G1 X105.130 Y112.027 E0.03004
G1 X105.578 Y111.143 E0.02981
G1 X106.067 Y110.279 E0.02985
G1 X106.618 Y109.401 E0.03118
G1 X107.191 Y108.575 E0.03024
G1 X107.769 Y107.817 E0.02868
G1 X108.380 Y107.084 E0.02871
G1 X109.030 Y106.369 E0.02907
G1 X109.724 Y105.671 E0.02960
G1 X110.465 Y105.001 E0.03006
G1 X109.781 Y104.384 E0.02771
G1 X109.107 Y103.711 E0.02865
G1 X108.440 Y102.986 E0.02963
G1 X107.787 Y102.206 E0.03061
G1 X107.175 Y101.403 E0.03034
G1 X106.610 Y100.587 E0.02989
G1 X106.068 Y99.723 E0.03067
G1 X105.588 Y98.875 E0.02931
G1 X105.143 Y97.999 E0.02954
G1 X104.726 Y97.080 E0.03035
G1 X104.349 Y96.134 E0.03063
G1 X104.020 Y95.186 E0.03020
G1 X103.752 Y94.285 E0.02827
G1 X103.521 Y93.367 E0.02845
G1 X103.328 Y92.430 E0.02878
G1 X103.173 Y91.466 E0.02938
G1 X103.055 Y90.431 E0.03132
G1 X102.987 Y89.429 E0.03021
G1 X102.966 Y88.410 E0.03067
G1 X102.992 Y87.381 E0.03098
G1 X103.065 Y86.356 E0.03091
G1 X103.180 Y85.382 E0.02950
G1 X103.319 Y84.520 E0.02625
G1 X103.493 Y83.656 E0.02651
G1 X103.736 Y82.676 E0.03037
G1 X104.020 Y81.717 E0.03009
G1 X104.347 Y80.771 E0.03010
G1 X104.721 Y79.832 E0.03041
G1 X105.142 Y78.902 E0.03071
G1 X105.615 Y77.976 E0.03127
G1 X106.121 Y77.088 E0.03075
G1 X106.677 Y76.212 E0.03119
G1 X107.239 Y75.409 E0.02948
G1 X107.769 Y74.716 E0.02624
G1 X108.328 Y74.043 E0.02632
G1 X108.989 Y73.312 E0.02965
G1 X109.687 Y72.607 E0.02984
G1 X110.458 Y71.896 E0.03154
G1 X111.258 Y71.226 E0.03139
G1 X112.089 Y70.594 E0.03141
G1 X112.961 Y69.995 E0.03181
G1 X113.794 Y69.478 E0.02951
G1 X114.657 Y68.994 E0.02975
G1 X115.436 Y68.600 E0.02626
G1 X116.237 Y68.233 E0.02650
G1 X117.146 Y67.863 E0.02952
G1 X118.105 Y67.522 E0.03063
G1 X119.082 Y67.225 E0.03070
G1 X120.063 Y66.976 E0.03046
G1 X121.062 Y66.771 E0.03067
G1 X122.061 Y66.613 E0.03043
G1 X123.085 Y66.499 E0.03099
G1 X124.096 Y66.434 E0.03048
G1 X125.122 Y66.416 E0.03085
G1 X126.050 Y66.441 E0.02795
G1 X126.982 Y66.505 E0.02811
G1 X127.898 Y66.607 E0.02771
G1 X128.819 Y66.749 E0.02803
G1 X129.794 Y66.944 E0.02990
G1 X130.759 Y67.182 E0.02990
G1 X131.860 Y67.511 E0.03456
G1 X132.737 Y67.819 E0.02795
G1 X133.600 Y68.163 E0.02795
G1 X134.642 Y68.637 E0.03446
G1 X135.491 Y69.074 E0.02871
G1 X136.320 Y69.546 E0.02867
G1 X137.123 Y70.051 E0.02855
G1 X137.911 Y70.595 E0.02881
G1 X138.687 Y71.183 E0.02928
G1 X139.439 Y71.806 E0.02938
G1 X140.227 Y72.524 E0.03205
G1 X140.909 Y73.205 E0.02901
G1 X141.564 Y73.919 E0.02913
G1 X142.257 Y74.749 E0.03251
G1 X142.841 Y75.520 E0.02910
G1 X143.398 Y76.325 E0.02947
G1 X143.976 Y77.250 E0.03280
G1 X144.442 Y78.081 E0.02864
G1 X144.869 Y78.926 E0.02849
G1 X145.260 Y79.787 E0.02843
G1 X145.616 Y80.673 E0.02874
G1 X145.942 Y81.599 E0.02951
G1 X146.229 Y82.547 E0.02981
G1 X146.475 Y83.518 E0.03012
G1 X146.674 Y84.482 E0.02962
G1 X146.839 Y85.523 E0.03171
G1 X146.948 Y86.502 E0.02961
G1 X147.013 Y87.483 E0.02960
G1 X147.034 Y88.491 E0.03032
G1 X147.010 Y89.480 E0.02975
G1 X146.943 Y90.457 E0.02946
G1 X146.833 Y91.420 E0.02916
G1 X146.679 Y92.388 E0.02946
G1 X146.485 Y93.340 E0.02923
G1 X146.246 Y94.291 E0.02949
G1 X145.965 Y95.232 E0.02956
G1 X145.642 Y96.159 E0.02954
G1 X145.277 Y97.072 E0.02955
G1 X144.866 Y97.982 E0.03004
G1 X144.418 Y98.865 E0.02979
G1 X143.929 Y99.728 E0.02985
G1 X143.382 Y100.599 E0.03092
G1 X142.809 Y101.425 E0.03024
G1 X142.231 Y102.184 E0.02870
G1 X141.609 Y102.930 E0.02921
G1 X140.955 Y103.647 E0.02921
G1 X140.261 Y104.344 E0.02956
G1 X139.580 Y104.959 E0.02759
G1 X138.973 Y104.999 F7200.000
G1 F2100
G1 X139.940 Y105.871 E0.03915
G1 X140.623 Y106.551 E0.02901
G1 X141.288 Y107.276 E0.02958
G1 X141.925 Y108.038 E0.02989
G1 X142.538 Y108.844 E0.03046
G1 X143.109 Y109.671 E0.03023
G1 X143.630 Y110.506 E0.02959
G1 X144.098 Y111.338 E0.02871
G1 X144.524 Y112.177 E0.02830
G1 X144.917 Y113.045 E0.02868
G1 X145.264 Y113.909 E0.02800
G1 X145.577 Y114.795 E0.02825
G1 X145.866 Y115.751 E0.03006
G1 X146.112 Y116.723 E0.03015
G1 X146.302 Y117.644 E0.02830
G1 X146.454 Y118.589 E0.02876
G1 X146.569 Y119.602 E0.03068
G1 X146.636 Y120.585 E0.02963
G1 X146.657 Y121.585 E0.03010
G1 X146.632 Y122.597 E0.03044
G1 X146.560 Y123.604 E0.03039
G1 X146.447 Y124.562 E0.02902
G1 X146.309 Y125.416 E0.02601
G1 X146.138 Y126.265 E0.02605
G1 X145.902 Y127.221 E0.02962
G1 X145.622 Y128.164 E0.02958
G1 X145.301 Y129.093 E0.02957
G1 X144.934 Y130.016 E0.02987
G1 X144.517 Y130.938 E0.03045
G1 X144.056 Y131.841 E0.03049
G1 X143.558 Y132.714 E0.03024
G1 X143.012 Y133.575 E0.03067
G1 X142.459 Y134.365 E0.02902
G1 X141.933 Y135.053 E0.02603
G1 X141.379 Y135.719 E0.02604
G1 X140.732 Y136.434 E0.02900
G1 X140.048 Y137.125 E0.02926
G1 X139.297 Y137.818 E0.03074
G1 X138.504 Y138.482 E0.03112
G1 X137.686 Y139.103 E0.03087
G1 X136.836 Y139.687 E0.03102
G1 X136.017 Y140.195 E0.02900
G1 X135.169 Y140.671 E0.02925
G1 X134.404 Y141.059 E0.02580
G1 X133.610 Y141.422 E0.02627
G1 X132.716 Y141.786 E0.02902
G1 X131.782 Y142.118 E0.02982
G1 X130.833 Y142.407 E0.02985
G1 X129.879 Y142.650 E0.02961
G1 X128.907 Y142.852 E0.02985
G1 X127.936 Y143.007 E0.02958
G1 X126.949 Y143.119 E0.02988
G1 X125.967 Y143.186 E0.02961
G1 X124.972 Y143.207 E0.02993
G1 X123.916 Y143.180 E0.03180
G1 X122.944 Y143.109 E0.02929
G1 X121.984 Y142.996 E0.02908
G1 X121.070 Y142.848 E0.02787
G1 X120.151 Y142.657 E0.02823
G1 X119.243 Y142.428 E0.02815
G1 X118.353 Y142.162 E0.02796
G1 X117.444 Y141.846 E0.02896
G1 X116.539 Y141.486 E0.02927
G1 X115.563 Y141.043 E0.03224
G1 X114.725 Y140.615 E0.02832
G1 X113.892 Y140.141 E0.02883
G1 X113.002 Y139.580 E0.03163
G1 X112.241 Y139.050 E0.02793
G1 X111.501 Y138.485 E0.02798
G1 X110.793 Y137.896 E0.02772
G1 X110.105 Y137.272 E0.02793
G1 X109.424 Y136.597 E0.02887
G1 X108.766 Y135.885 E0.02912
G1 X108.068 Y135.054 E0.03267
G1 X107.481 Y134.283 E0.02915
G1 X106.931 Y133.489 E0.02903
G1 X106.417 Y132.672 E0.02904
G1 X105.935 Y131.824 E0.02935
G1 X105.492 Y130.956 E0.02931
G1 X105.086 Y130.062 E0.02955
G1 X104.714 Y129.133 E0.03008
G1 X104.399 Y128.232 E0.02873
G1 X104.124 Y127.313 E0.02886
G1 X103.894 Y126.404 E0.02821
G1 X103.703 Y125.483 E0.02827
G1 X103.538 Y124.449 E0.03151
G1 X103.429 Y123.485 E0.02918
G1 X103.364 Y122.517 E0.02916
G1 X103.343 Y121.507 E0.03040
G1 X103.367 Y120.533 E0.02929
G1 X103.434 Y119.563 E0.02927
G1 X103.542 Y118.616 E0.02866
G1 X103.692 Y117.675 E0.02865
G1 X103.880 Y116.758 E0.02817
G1 X104.114 Y115.824 E0.02896
G1 X104.390 Y114.898 E0.02905
G1 X104.710 Y113.978 E0.02931
G1 X105.067 Y113.081 E0.02906
G1 X105.468 Y112.194 E0.02928
G1 X105.913 Y111.318 E0.02955
G1 X106.393 Y110.468 E0.02934
G1 X106.930 Y109.612 E0.03040
G1 X107.498 Y108.794 E0.02998
G1 X108.061 Y108.055 E0.02794
G1 X108.667 Y107.328 E0.02846
G1 X109.306 Y106.625 E0.02858
G1 X109.988 Y105.940 E0.02907
G1 X111.029 Y105.000 E0.04219
G1 X110.044 Y104.114 E0.03985
G1 X109.376 Y103.447 E0.02838
G1 X108.721 Y102.734 E0.02913
G1 X108.079 Y101.967 E0.03009
G1 X107.483 Y101.185 E0.02957
G1 X106.927 Y100.383 E0.02937
G1 X106.394 Y99.533 E0.03016
G1 X105.922 Y98.700 E0.02881
G1 X105.481 Y97.832 E0.02929
G1 X105.071 Y96.929 E0.02984
G1 X104.701 Y95.999 E0.03011
G1 X104.381 Y95.074 E0.02943
G1 X104.115 Y94.181 E0.02802
G1 X103.888 Y93.279 E0.02797
G1 X103.699 Y92.358 E0.02829
G1 X103.547 Y91.419 E0.02862
G1 X103.431 Y90.402 E0.03080
G1 X103.364 Y89.417 E0.02969
G1 X103.343 Y88.415 E0.03014
G1 X103.368 Y87.403 E0.03045
G1 X103.440 Y86.396 E0.03039
G1 X103.553 Y85.438 E0.02901
G1 X103.691 Y84.584 E0.02601
G1 X103.862 Y83.735 E0.02605
G1 X104.098 Y82.779 E0.02962
G1 X104.380 Y81.828 E0.02983
G1 X104.702 Y80.899 E0.02958
G1 X105.066 Y79.983 E0.02964
G1 X105.480 Y79.069 E0.03019
G1 X105.944 Y78.159 E0.03074
G1 X106.447 Y77.278 E0.03049
G1 X106.988 Y76.425 E0.03041
G1 X107.541 Y75.635 E0.02900
G1 X108.062 Y74.954 E0.02578
G1 X108.616 Y74.287 E0.02608
G1 X109.266 Y73.568 E0.02916
G1 X109.952 Y72.875 E0.02933
G1 X110.710 Y72.177 E0.03101
G1 X111.496 Y71.518 E0.03086
G1 X112.314 Y70.897 E0.03087
G1 X113.164 Y70.313 E0.03102
G1 X113.983 Y69.805 E0.02900
G1 X114.831 Y69.329 E0.02926
G1 X115.596 Y68.941 E0.02580
G1 X116.390 Y68.578 E0.02627
G1 X117.284 Y68.214 E0.02903
G1 X118.227 Y67.879 E0.03011
G1 X119.187 Y67.587 E0.03018
G1 X120.152 Y67.342 E0.02993
G1 X121.133 Y67.141 E0.03015
G1 X122.115 Y66.986 E0.02990
G1 X123.122 Y66.874 E0.03046
G1 X124.116 Y66.811 E0.02996
G1 X125.116 Y66.793 E0.03008
G1 X126.028 Y66.817 E0.02746
G1 X126.945 Y66.880 E0.02763
G1 X127.844 Y66.980 E0.02723
G1 X128.758 Y67.121 E0.02779
G1 X129.716 Y67.313 E0.02940
G1 X130.664 Y67.547 E0.02938
G1 X131.739 Y67.868 E0.03375
G1 X132.600 Y68.170 E0.02746
G1 X133.456 Y68.512 E0.02770
G1 X134.474 Y68.975 E0.03365
G1 X135.308 Y69.403 E0.02821
G1 X136.122 Y69.867 E0.02818
G1 X136.919 Y70.368 E0.02831
G1 X137.694 Y70.903 E0.02832
G1 X138.456 Y71.481 E0.02878
G1 X139.195 Y72.094 E0.02888
G1 X139.964 Y72.794 E0.03127
G1 X140.640 Y73.469 E0.02875
G1 X141.283 Y74.171 E0.02862
G1 X141.959 Y74.980 E0.03172
G1 X142.538 Y75.744 E0.02884
G1 X143.086 Y76.536 E0.02896
G1 X143.649 Y77.439 E0.03201
G1 X144.107 Y78.255 E0.02814
G1 X144.531 Y79.092 E0.02825
G1 X144.915 Y79.939 E0.02794
G1 X145.265 Y80.810 E0.02825
G1 X145.585 Y81.720 E0.02901
G1 X145.867 Y82.652 E0.02930
G1 X146.107 Y83.598 E0.02936
G1 X146.302 Y84.545 E0.02910
G1 X146.466 Y85.578 E0.03144
G1 X146.572 Y86.531 E0.02884
G1 X146.636 Y87.496 E0.02909
G1 X146.657 Y88.495 E0.03007
G1 X146.634 Y89.458 E0.02899
G1 X146.567 Y90.427 E0.02921
G1 X146.459 Y91.374 E0.02865
G1 X146.308 Y92.324 E0.02896
G1 X146.118 Y93.252 E0.02848
G1 X145.884 Y94.187 E0.02898
G1 X145.604 Y95.120 E0.02930
G1 X145.287 Y96.031 E0.02903
G1 X144.929 Y96.928 E0.02904
G1 X144.528 Y97.815 E0.02928
G1 X144.083 Y98.690 E0.02953
G1 X143.603 Y99.539 E0.02933
G1 X143.070 Y100.388 E0.03014
G1 X142.502 Y101.206 E0.02998
G1 X141.938 Y101.945 E0.02795
G1 X141.327 Y102.679 E0.02871
G1 X140.679 Y103.390 E0.02896
