; generated by Slic3r 1.33.8.devel on 2018-07-08 at 22:31:26

; 

; external perimeters extrusion width = 0.60mm
; perimeters extrusion width = 0.43mm
; infill extrusion width = 0.70mm
; solid infill extrusion width = 0.70mm
; top infill extrusion width = 0.43mm
; first layer extrusion width = 0.42mm

M107
M115 U3.0.12 ; tell printer latest fw version
M83  ; extruder relative mode
M104 S215 ; set extruder temp
M140 S55 ; set bed temp
M190 S55 ; wait for bed temp
M109 S215 ; wait for extruder temp
G28 W ; home all without mesh bed level
G80 ; mesh bed leveling
G1 Y-3.0 F1000.0 ; go outside pritn area
G1 X60.0 E9.0  F1000.0 ; intro line
G1 X100.0 E12.5  F1000.0 ; intro line
; Filament gcode

G21 ; set units to millimeters
G90 ; use absolute coordinates
M83 ; use relative distances for extrusion
G1 E-0.80000 F2100.00000
G1 Z0.200 F7200.000
G1 X106.432 Y89.911 F7200.000
G1 E0.80000 F2100.00000
M204 S1000
G1 F2100
G1 X108.296 Y87.870 E0.08315
G1 X110.037 Y86.329 E0.06992
G1 X111.810 Y85.037 E0.06601
G1 X113.695 Y83.912 E0.06601
G1 X115.763 Y82.929 E0.06888
G1 X117.828 Y82.175 E0.06614
G1 X120.539 Y81.493 E0.08409
G1 X122.813 Y81.173 E0.06908
G1 X125.007 Y81.073 E0.06605
G1 X127.190 Y81.173 E0.06575
G1 X129.467 Y81.495 E0.06916
G1 X132.172 Y82.175 E0.08390
G1 X134.241 Y82.930 E0.06625
G1 X136.308 Y83.913 E0.06885
G1 X138.193 Y85.039 E0.06604
G1 X139.960 Y86.327 E0.06580
G1 X141.698 Y87.865 E0.06982
G1 X143.563 Y89.906 E0.08315
G1 X144.862 Y91.659 E0.06563
G1 X146.046 Y93.617 E0.06883
G1 X147.018 Y95.636 E0.06739
G1 X147.810 Y97.779 E0.06872
G1 X148.500 Y100.506 E0.08461
G1 X148.826 Y102.802 E0.06976
G1 X148.927 Y104.989 E0.06584
G1 X148.827 Y107.181 E0.06602
G1 X148.503 Y109.479 E0.06981
G1 X147.818 Y112.198 E0.08433
G1 X147.027 Y114.343 E0.06878
G1 X146.063 Y116.352 E0.06702
G1 X144.884 Y118.307 E0.06869
G1 X143.581 Y120.072 E0.06597
G1 X141.704 Y122.129 E0.08378
G1 X139.963 Y123.671 E0.06993
G1 X138.190 Y124.963 E0.06601
G1 X136.305 Y126.088 E0.06601
G1 X134.237 Y127.071 E0.06888
G1 X132.172 Y127.825 E0.06614
G1 X129.469 Y128.505 E0.08385
G1 X127.195 Y128.826 E0.06908
G1 X125.001 Y128.927 E0.06605
G1 X122.802 Y128.826 E0.06623
G1 X120.510 Y128.501 E0.06964
G1 X117.798 Y127.816 E0.08413
G1 X115.642 Y127.021 E0.06912
G1 X113.636 Y126.056 E0.06693
G1 X111.675 Y124.873 E0.06891
G1 X109.910 Y123.567 E0.06604
G1 X107.870 Y121.703 E0.08313
G1 X106.331 Y119.965 E0.06984
G1 X105.044 Y118.201 E0.06567
G1 X103.913 Y116.307 E0.06637
G1 X102.936 Y114.254 E0.06838
G1 X102.177 Y112.180 E0.06643
G1 X101.496 Y109.471 E0.08401
G1 X101.174 Y107.196 E0.06913
G1 X101.073 Y104.996 E0.06623
G1 X101.174 Y102.805 E0.06599
G1 X101.499 Y100.515 E0.06958
G1 X102.179 Y97.813 E0.08380
G1 X102.975 Y95.652 E0.06929
G1 X103.940 Y93.643 E0.06702
G1 X105.126 Y91.678 E0.06904
G1 X106.396 Y89.960 E0.06429
G1 F5760
G1 X107.873 Y88.336 E-0.76000
G1 E-0.04000 F2100.00000
G1 X107.851 Y91.168 F7200.000
G1 E0.80000 F2100.00000
G1 F2100
G1 X108.328 Y90.593 E0.02246
G1 X108.989 Y89.862 E0.02965
G1 X109.687 Y89.157 E0.02984
G1 X110.458 Y88.446 E0.03154
G1 X111.258 Y87.776 E0.03139
G1 X112.089 Y87.144 E0.03141
G1 X112.961 Y86.545 E0.03181
G1 X113.794 Y86.028 E0.02951
G1 X114.657 Y85.544 E0.02975
G1 X115.436 Y85.150 E0.02626
G1 X116.237 Y84.783 E0.02650
G1 X117.146 Y84.413 E0.02952
G1 X118.097 Y84.075 E0.03036
G1 X119.081 Y83.776 E0.03095
G1 X120.071 Y83.524 E0.03073
G1 X121.070 Y83.319 E0.03068
G1 X122.070 Y83.161 E0.03043
G1 X123.085 Y83.049 E0.03072
G1 X124.096 Y82.984 E0.03048
G1 X125.118 Y82.966 E0.03074
G1 X125.992 Y82.988 E0.02632
G1 X126.864 Y83.045 E0.02628
G1 X127.839 Y83.149 E0.02948
G1 X128.816 Y83.299 E0.02973
G1 X129.785 Y83.492 E0.02973
G1 X130.775 Y83.736 E0.03066
G1 X131.753 Y84.026 E0.03070
G1 X132.717 Y84.361 E0.03070
G1 X133.657 Y84.738 E0.03045
G1 X134.586 Y85.160 E0.03069
G1 X135.494 Y85.625 E0.03071
G1 X136.373 Y86.128 E0.03046
G1 X137.237 Y86.676 E0.03077
G1 X137.949 Y87.172 E0.02610
G1 X138.651 Y87.704 E0.02650
G1 X139.406 Y88.328 E0.02946
G1 X140.139 Y88.990 E0.02972
G1 X140.843 Y89.687 E0.02979
G1 X141.548 Y90.451 E0.03126
G1 X142.224 Y91.258 E0.03166
G1 X142.855 Y92.089 E0.03140
G1 X143.454 Y92.961 E0.03182
G1 X143.972 Y93.795 E0.02953
G1 X144.460 Y94.665 E0.03001
G1 X144.900 Y95.539 E0.02944
G1 X145.259 Y96.335 E0.02626
G1 X145.587 Y97.147 E0.02633
G1 X145.927 Y98.102 E0.03051
G1 X146.224 Y99.079 E0.03071
G1 X146.473 Y100.060 E0.03045
G1 X146.679 Y101.060 E0.03071
G1 X146.838 Y102.068 E0.03069
G1 X146.951 Y103.082 E0.03070
G1 X147.016 Y104.093 E0.03046
G1 X147.034 Y105.120 E0.03090
G1 X147.006 Y106.109 E0.02978
G1 X146.934 Y107.095 E0.02973
G1 X146.820 Y108.069 E0.02948
G1 X146.681 Y108.930 E0.02625
G1 X146.507 Y109.794 E0.02651
G1 X146.264 Y110.775 E0.03041
G1 X145.974 Y111.753 E0.03068
G1 X145.639 Y112.716 E0.03067
G1 X145.263 Y113.656 E0.03043
G1 X144.841 Y114.584 E0.03068
G1 X144.376 Y115.492 E0.03069
G1 X143.869 Y116.378 E0.03070
G1 X143.323 Y117.238 E0.03063
G1 X142.761 Y118.041 E0.02950
G1 X142.230 Y118.734 E0.02626
G1 X141.667 Y119.413 E0.02651
G1 X141.009 Y120.140 E0.02949
G1 X140.313 Y120.843 E0.02977
G1 X139.542 Y121.554 E0.03153
G1 X138.742 Y122.224 E0.03139
G1 X137.911 Y122.856 E0.03141
G1 X137.039 Y123.455 E0.03182
G1 X136.206 Y123.972 E0.02951
G1 X135.343 Y124.456 E0.02974
G1 X134.564 Y124.850 E0.02626
G1 X133.763 Y125.217 E0.02650
G1 X132.854 Y125.587 E0.02952
G1 X131.895 Y125.928 E0.03063
G1 X130.919 Y126.224 E0.03069
G1 X129.929 Y126.476 E0.03071
G1 X128.931 Y126.681 E0.03066
G1 X127.932 Y126.838 E0.03041
G1 X126.917 Y126.951 E0.03073
G1 X125.898 Y127.016 E0.03072
G1 X124.880 Y127.034 E0.03062
G1 X123.891 Y127.006 E0.02976
G1 X122.905 Y126.934 E0.02974
G1 X121.931 Y126.820 E0.02949
G1 X121.062 Y126.679 E0.02647
G1 X120.206 Y126.506 E0.02629
G1 X119.225 Y126.264 E0.03039
G1 X118.247 Y125.974 E0.03067
G1 X117.292 Y125.642 E0.03042
G1 X116.353 Y125.267 E0.03042
G1 X115.425 Y124.845 E0.03068
G1 X114.508 Y124.376 E0.03097
G1 X113.629 Y123.874 E0.03045
G1 X112.761 Y123.323 E0.03092
G1 X111.949 Y122.753 E0.02983
G1 X111.169 Y122.153 E0.02961
G1 X110.500 Y121.591 E0.02630
G1 X109.854 Y121.003 E0.02627
G1 X109.162 Y120.319 E0.02927
G1 X108.475 Y119.575 E0.03045
G1 X107.817 Y118.793 E0.03073
G1 X107.197 Y117.983 E0.03071
G1 X106.614 Y117.144 E0.03071
G1 X106.076 Y116.287 E0.03044
G1 X105.573 Y115.398 E0.03072
G1 X105.113 Y114.487 E0.03071
G1 X104.692 Y113.550 E0.03090
G1 X104.328 Y112.629 E0.02978
G1 X104.007 Y111.695 E0.02971
G1 X103.731 Y110.756 E0.02945
G1 X103.521 Y109.916 E0.02604
G1 X103.341 Y109.050 E0.02659
G1 X103.174 Y108.020 E0.03139
G1 X103.055 Y106.981 E0.03145
G1 X102.985 Y105.929 E0.03171
G1 X102.966 Y104.881 E0.03154
G1 X102.994 Y103.891 E0.02980
G1 X103.066 Y102.905 E0.02974
G1 X103.180 Y101.931 E0.02948
G1 X103.319 Y101.070 E0.02625
G1 X103.494 Y100.206 E0.02651
G1 X103.736 Y99.225 E0.03040
G1 X104.026 Y98.247 E0.03067
G1 X104.358 Y97.292 E0.03042
G1 X104.737 Y96.344 E0.03071
G1 X105.160 Y95.415 E0.03070
G1 X105.625 Y94.507 E0.03069
G1 X106.127 Y93.629 E0.03043
G1 X106.677 Y92.762 E0.03089
G1 X107.239 Y91.959 E0.02948
G1 X107.813 Y91.214 E0.02829
G1 X108.103 Y91.455 F7200.000
G1 F2100
G1 X108.616 Y90.837 E0.02414
G1 X109.266 Y90.118 E0.02916
G1 X109.952 Y89.425 E0.02933
G1 X110.710 Y88.727 E0.03101
G1 X111.496 Y88.068 E0.03086
G1 X112.314 Y87.447 E0.03087
G1 X113.164 Y86.863 E0.03102
G1 X113.983 Y86.355 E0.02900
G1 X114.831 Y85.879 E0.02926
G1 X115.596 Y85.491 E0.02580
G1 X116.390 Y85.128 E0.02627
G1 X117.284 Y84.764 E0.02903
G1 X118.219 Y84.432 E0.02984
G1 X119.187 Y84.138 E0.03043
G1 X120.151 Y83.893 E0.02994
G1 X121.134 Y83.691 E0.03016
G1 X122.116 Y83.536 E0.02991
G1 X123.113 Y83.425 E0.03020
G1 X124.107 Y83.361 E0.02995
G1 X125.112 Y83.343 E0.03024
G1 X125.972 Y83.365 E0.02586
G1 X126.836 Y83.421 E0.02605
G1 X127.794 Y83.524 E0.02899
G1 X128.755 Y83.671 E0.02922
G1 X129.707 Y83.861 E0.02922
G1 X130.680 Y84.101 E0.03014
G1 X131.642 Y84.386 E0.03017
G1 X132.589 Y84.716 E0.03017
G1 X133.513 Y85.086 E0.02993
G1 X134.426 Y85.502 E0.03017
G1 X135.311 Y85.955 E0.02993
G1 X136.175 Y86.449 E0.02993
G1 X137.025 Y86.988 E0.03027
G1 X137.730 Y87.479 E0.02586
G1 X138.420 Y88.002 E0.02604
G1 X139.163 Y88.616 E0.02898
G1 X139.883 Y89.267 E0.02921
G1 X140.575 Y89.952 E0.02928
G1 X141.267 Y90.703 E0.03074
G1 X141.932 Y91.496 E0.03113
G1 X142.552 Y92.314 E0.03086
G1 X143.136 Y93.163 E0.03102
G1 X143.645 Y93.983 E0.02902
G1 X144.125 Y94.838 E0.02950
G1 X144.558 Y95.698 E0.02896
G1 X144.911 Y96.480 E0.02580
G1 X145.236 Y97.284 E0.02610
G1 X145.570 Y98.224 E0.03001
G1 X145.862 Y99.184 E0.03018
G1 X146.107 Y100.149 E0.02993
G1 X146.309 Y101.131 E0.03018
G1 X146.465 Y102.122 E0.03017
G1 X146.575 Y103.119 E0.03018
G1 X146.639 Y104.112 E0.02993
G1 X146.657 Y105.114 E0.03012
G1 X146.630 Y106.086 E0.02927
G1 X146.559 Y107.055 E0.02923
G1 X146.447 Y108.013 E0.02900
G1 X146.311 Y108.859 E0.02579
G1 X146.138 Y109.715 E0.02628
G1 X145.899 Y110.681 E0.02991
G1 X145.614 Y111.642 E0.03015
G1 X145.284 Y112.588 E0.03015
G1 X144.915 Y113.511 E0.02991
G1 X144.499 Y114.424 E0.03016
G1 X144.046 Y115.309 E0.02991
G1 X143.548 Y116.180 E0.03018
G1 X143.012 Y117.025 E0.03012
G1 X142.459 Y117.815 E0.02901
G1 X141.937 Y118.496 E0.02580
G1 X141.379 Y119.169 E0.02627
G1 X140.732 Y119.884 E0.02901
G1 X140.048 Y120.575 E0.02926
G1 X139.290 Y121.273 E0.03101
G1 X138.504 Y121.932 E0.03085
G1 X137.686 Y122.553 E0.03087
G1 X136.836 Y123.137 E0.03102
G1 X136.017 Y123.645 E0.02900
G1 X135.169 Y124.121 E0.02925
G1 X134.404 Y124.509 E0.02580
G1 X133.610 Y124.872 E0.02627
G1 X132.716 Y125.236 E0.02903
G1 X131.773 Y125.571 E0.03011
G1 X130.813 Y125.862 E0.03017
G1 X129.849 Y126.107 E0.02992
G1 X128.867 Y126.309 E0.03014
G1 X127.886 Y126.464 E0.02988
G1 X126.888 Y126.575 E0.03020
G1 X125.887 Y126.639 E0.03019
G1 X124.886 Y126.657 E0.03010
G1 X123.914 Y126.630 E0.02925
G1 X122.945 Y126.559 E0.02923
G1 X121.987 Y126.447 E0.02900
G1 X121.133 Y126.309 E0.02602
G1 X120.284 Y126.138 E0.02605
G1 X119.320 Y125.899 E0.02989
G1 X118.359 Y125.614 E0.03015
G1 X117.420 Y125.287 E0.02990
G1 X116.497 Y124.918 E0.02990
G1 X115.585 Y124.503 E0.03015
G1 X114.691 Y124.046 E0.03018
G1 X113.827 Y123.553 E0.02993
G1 X112.974 Y123.011 E0.03040
G1 X112.176 Y122.452 E0.02931
G1 X111.409 Y121.861 E0.02913
G1 X110.751 Y121.309 E0.02584
G1 X110.110 Y120.727 E0.02603
G1 X109.430 Y120.054 E0.02879
G1 X108.755 Y119.322 E0.02994
G1 X108.109 Y118.554 E0.03020
G1 X107.499 Y117.757 E0.03018
G1 X106.927 Y116.933 E0.03019
G1 X106.398 Y116.090 E0.02992
G1 X105.904 Y115.216 E0.03019
G1 X105.451 Y114.321 E0.03018
G1 X105.041 Y113.407 E0.03012
G1 X104.684 Y112.502 E0.02927
G1 X104.368 Y111.584 E0.02921
G1 X104.096 Y110.660 E0.02896
G1 X103.888 Y109.828 E0.02581
G1 X103.711 Y108.977 E0.02612
G1 X103.547 Y107.964 E0.03089
G1 X103.430 Y106.943 E0.03091
G1 X103.362 Y105.918 E0.03090
G1 X103.343 Y104.887 E0.03102
G1 X103.370 Y103.914 E0.02928
G1 X103.441 Y102.945 E0.02923
G1 X103.553 Y101.987 E0.02900
G1 X103.691 Y101.133 E0.02602
G1 X103.862 Y100.285 E0.02605
G1 X104.101 Y99.320 E0.02990
G1 X104.386 Y98.359 E0.03015
G1 X104.713 Y97.420 E0.02989
G1 X105.086 Y96.488 E0.03019
G1 X105.501 Y95.575 E0.03017
G1 X105.958 Y94.683 E0.03016
G1 X106.452 Y93.820 E0.02991
G1 X106.988 Y92.975 E0.03011
G1 X107.541 Y92.185 E0.02899
G1 X108.065 Y91.501 E0.02592
G1 X108.359 Y91.736 F7200.000
G1 F2100
G1 X108.903 Y91.081 E0.02562
G1 X109.543 Y90.374 E0.02867
G1 X110.217 Y89.693 E0.02881
G1 X110.962 Y89.007 E0.03048
G1 X111.735 Y88.360 E0.03032
G1 X112.531 Y87.756 E0.03007
G1 X113.366 Y87.181 E0.03049
G1 X114.171 Y86.681 E0.02849
G1 X115.005 Y86.213 E0.02877
G1 X115.763 Y85.829 E0.02557
G1 X116.543 Y85.472 E0.02581
G1 X117.422 Y85.115 E0.02854
G1 X118.341 Y84.789 E0.02933
G1 X119.292 Y84.500 E0.02991
G1 X120.240 Y84.259 E0.02941
G1 X121.205 Y84.061 E0.02964
G1 X122.170 Y83.909 E0.02938
G1 X123.150 Y83.800 E0.02967
G1 X124.127 Y83.738 E0.02943
G1 X125.107 Y83.720 E0.02949
G1 X125.951 Y83.741 E0.02540
G1 X126.807 Y83.797 E0.02581
G1 X127.750 Y83.898 E0.02850
G1 X128.693 Y84.043 E0.02871
G1 X129.629 Y84.230 E0.02872
G1 X130.577 Y84.464 E0.02936
G1 X131.522 Y84.744 E0.02965
G1 X132.453 Y85.068 E0.02965
G1 X133.361 Y85.431 E0.02941
G1 X134.258 Y85.839 E0.02965
G1 X135.135 Y86.289 E0.02966
G1 X135.984 Y86.774 E0.02941
G1 X136.813 Y87.300 E0.02951
G1 X137.506 Y87.782 E0.02540
G1 X138.189 Y88.300 E0.02581
G1 X138.919 Y88.904 E0.02849
G1 X139.627 Y89.544 E0.02870
G1 X140.307 Y90.217 E0.02876
G1 X140.987 Y90.955 E0.03021
G1 X141.634 Y91.728 E0.03032
G1 X142.244 Y92.531 E0.03032
G1 X142.819 Y93.366 E0.03049
G1 X143.319 Y94.171 E0.02850
G1 X143.790 Y95.012 E0.02899
G1 X144.216 Y95.857 E0.02847
G1 X144.566 Y96.632 E0.02556
G1 X144.885 Y97.422 E0.02563
G1 X145.213 Y98.346 E0.02951
G1 X145.500 Y99.290 E0.02966
G1 X145.740 Y100.237 E0.02940
G1 X145.939 Y101.203 E0.02966
G1 X146.091 Y102.168 E0.02938
G1 X146.199 Y103.148 E0.02965
G1 X146.262 Y104.124 E0.02941
G1 X146.280 Y105.107 E0.02960
G1 X146.254 Y106.063 E0.02876
G1 X146.184 Y107.015 E0.02872
G1 X146.074 Y107.957 E0.02851
G1 X145.939 Y108.795 E0.02556
G1 X145.769 Y109.637 E0.02582
G1 X145.534 Y110.586 E0.02941
G1 X145.253 Y111.530 E0.02963
G1 X144.933 Y112.452 E0.02937
G1 X144.570 Y113.359 E0.02939
G1 X144.162 Y114.256 E0.02964
G1 X143.717 Y115.126 E0.02938
G1 X143.228 Y115.982 E0.02965
G1 X142.700 Y116.813 E0.02960
G1 X142.157 Y117.589 E0.02852
G1 X141.640 Y118.264 E0.02557
G1 X141.092 Y118.925 E0.02581
G1 X140.456 Y119.627 E0.02852
G1 X139.783 Y120.307 E0.02875
G1 X139.045 Y120.987 E0.03021
G1 X138.272 Y121.634 E0.03031
G1 X137.469 Y122.244 E0.03034
G1 X136.634 Y122.819 E0.03050
G1 X135.829 Y123.319 E0.02849
G1 X134.995 Y123.787 E0.02877
G1 X134.237 Y124.171 E0.02557
G1 X133.457 Y124.528 E0.02581
G1 X132.578 Y124.885 E0.02854
G1 X131.659 Y125.211 E0.02933
G1 X130.716 Y125.498 E0.02964
G1 X129.769 Y125.739 E0.02940
G1 X128.804 Y125.937 E0.02962
G1 X127.832 Y126.091 E0.02962
G1 X126.851 Y126.199 E0.02968
G1 X125.875 Y126.262 E0.02941
G1 X124.892 Y126.280 E0.02958
G1 X123.937 Y126.254 E0.02874
G1 X122.984 Y126.184 E0.02873
G1 X122.043 Y126.074 E0.02851
G1 X121.197 Y125.937 E0.02578
G1 X120.363 Y125.769 E0.02559
G1 X119.415 Y125.534 E0.02939
G1 X118.470 Y125.254 E0.02963
G1 X117.548 Y124.933 E0.02937
G1 X116.642 Y124.570 E0.02937
G1 X115.745 Y124.162 E0.02963
G1 X114.867 Y123.713 E0.02966
G1 X114.018 Y123.228 E0.02941
G1 X113.187 Y122.700 E0.02962
G1 X112.403 Y122.151 E0.02880
G1 X111.648 Y121.570 E0.02864
G1 X110.996 Y121.023 E0.02560
G1 X110.367 Y120.451 E0.02557
G1 X109.699 Y119.789 E0.02830
G1 X109.035 Y119.070 E0.02943
G1 X108.400 Y118.315 E0.02968
G1 X107.801 Y117.531 E0.02966
G1 X107.244 Y116.728 E0.02941
G1 X106.724 Y115.901 E0.02939
G1 X106.238 Y115.042 E0.02967
G1 X105.793 Y114.162 E0.02966
G1 X105.390 Y113.264 E0.02961
G1 X105.039 Y112.375 E0.02876
G1 X104.728 Y111.473 E0.02870
G1 X104.460 Y110.565 E0.02847
G1 X104.255 Y109.740 E0.02557
G1 X104.081 Y108.905 E0.02566
G1 X103.920 Y107.908 E0.03038
G1 X103.805 Y106.905 E0.03037
G1 X103.739 Y105.898 E0.03036
G1 X103.720 Y104.893 E0.03022
G1 X103.746 Y103.937 E0.02877
G1 X103.816 Y102.985 E0.02872
G1 X103.926 Y102.043 E0.02851
G1 X104.063 Y101.197 E0.02578
G1 X104.231 Y100.363 E0.02559
G1 X104.466 Y99.415 E0.02940
G1 X104.746 Y98.470 E0.02963
G1 X105.067 Y97.548 E0.02937
G1 X105.434 Y96.633 E0.02966
G1 X105.839 Y95.743 E0.02939
G1 X106.288 Y94.866 E0.02964
G1 X106.773 Y94.018 E0.02939
G1 X107.300 Y93.187 E0.02959
G1 X107.843 Y92.411 E0.02850
G1 X108.323 Y91.784 E0.02375
G1 X108.622 Y92.013 F7200.000
G1 F2100
G1 X109.191 Y91.325 E0.02685
G1 X109.819 Y90.630 E0.02818
G1 X110.481 Y89.962 E0.02830
G1 X111.207 Y89.293 E0.02969
G1 X111.967 Y88.658 E0.02979
G1 X112.748 Y88.064 E0.02953
G1 X113.569 Y87.499 E0.02996
G1 X114.359 Y87.008 E0.02798
G1 X115.179 Y86.548 E0.02828
G1 X115.930 Y86.167 E0.02533
G1 X116.696 Y85.817 E0.02534
G1 X117.560 Y85.466 E0.02805
G1 X118.463 Y85.146 E0.02881
G1 X119.389 Y84.864 E0.02912
G1 X120.320 Y84.628 E0.02889
G1 X121.268 Y84.433 E0.02912
G1 X122.216 Y84.283 E0.02886
