; generated by Slic3r 1.33.8.devel on 2018-07-06 at 15:57:06

; 

; external perimeters extrusion width = 0.60mm
; perimeters extrusion width = 0.43mm
; infill extrusion width = 0.70mm
; solid infill extrusion width = 0.70mm
; top infill extrusion width = 0.43mm
; first layer extrusion width = 0.42mm

M107
M115 U3.0.12 ; tell printer latest fw version
M83  ; extruder relative mode
M104 S215 ; set extruder temp
M140 S55 ; set bed temp
M190 S55 ; wait for bed temp
M109 S215 ; wait for extruder temp
G28 W ; home all without mesh bed level
G80 ; mesh bed leveling
G1 Y-3.0 F1000.0 ; go outside pritn area
G1 X60.0 E9.0  F1000.0 ; intro line
G1 X100.0 E12.5  F1000.0 ; intro line
; Filament gcode

G21 ; set units to millimeters
G90 ; use absolute coordinates
M83 ; use relative distances for extrusion
G1 E-0.80000 F2100.00000
G1 Z0.200 F7200.000
G1 X110.538 Y93.377 F7200.000
G1 E0.80000 F2100.00000
M204 S1000
G1 F2100
G1 X111.881 Y91.880 E0.06049
G1 X113.375 Y90.540 E0.06037
G1 X114.327 Y89.824 E0.03583
G1 X116.029 Y88.759 E0.06040
G1 X117.900 Y87.858 E0.06246
G1 X119.860 Y87.172 E0.06247
G1 X121.816 Y86.722 E0.06037
G1 X122.993 Y86.555 E0.03574
G1 X125.005 Y86.446 E0.06061
G1 X127.074 Y86.562 E0.06234
G1 X129.053 Y86.895 E0.06038
G1 X130.204 Y87.191 E0.03574
G1 X132.101 Y87.858 E0.06049
G1 X133.968 Y88.757 E0.06234
G1 X135.673 Y89.824 E0.06048
G1 X136.623 Y90.538 E0.03575
G1 X138.120 Y91.881 E0.06048
G1 X139.496 Y93.419 E0.06209
G1 X140.659 Y95.049 E0.06022
G1 X141.271 Y96.085 E0.03618
G1 X142.141 Y97.898 E0.06050
G1 X142.808 Y99.795 E0.06048
G1 X143.105 Y100.947 E0.03578
G1 X143.438 Y102.930 E0.06049
G1 X143.554 Y104.998 E0.06231
G1 X143.439 Y107.061 E0.06215
G1 X143.109 Y109.036 E0.06022
G1 X142.810 Y110.198 E0.03608
G1 X142.146 Y112.090 E0.06031
G1 X141.244 Y113.966 E0.06264
G1 X140.181 Y115.665 E0.06026
G1 X139.462 Y116.623 E0.03605
G1 X138.125 Y118.114 E0.06022
G1 X136.625 Y119.460 E0.06064
G1 X135.673 Y120.176 E0.03583
G1 X133.971 Y121.241 E0.06040
G1 X132.100 Y122.142 E0.06246
G1 X130.144 Y122.827 E0.06234
G1 X128.184 Y123.278 E0.06049
G1 X127.007 Y123.445 E0.03574
G1 X124.999 Y123.554 E0.06049
G1 X122.926 Y123.438 E0.06246
G1 X120.947 Y123.105 E0.06038
G1 X119.796 Y122.809 E0.03574
G1 X117.899 Y122.142 E0.06049
G1 X116.032 Y121.243 E0.06234
G1 X114.327 Y120.176 E0.06048
G1 X113.377 Y119.462 E0.03575
G1 X111.880 Y118.119 E0.06048
G1 X110.540 Y116.625 E0.06037
G1 X109.824 Y115.673 E0.03583
G1 X108.757 Y113.969 E0.06048
G1 X107.858 Y112.100 E0.06238
G1 X107.174 Y110.146 E0.06228
G1 X106.724 Y108.192 E0.06029
G1 X106.557 Y107.017 E0.03571
G1 X106.446 Y104.999 E0.06078
G1 X106.555 Y103.001 E0.06019
G1 X106.722 Y101.816 E0.03600
G1 X107.172 Y99.861 E0.06033
G1 X107.858 Y97.900 E0.06250
G1 X108.756 Y96.034 E0.06230
G1 X109.815 Y94.340 E0.06008
G1 X110.502 Y93.425 E0.03443
G1 X110.803 Y93.651 F7200.000
G1 F2100
G1 X112.148 Y92.146 E0.06073
G1 X113.618 Y90.828 E0.05937
G1 X114.536 Y90.138 E0.03457
G1 X116.209 Y89.090 E0.05936
G1 X118.042 Y88.207 E0.06120
G1 X119.963 Y87.535 E0.06120
G1 X121.890 Y87.092 E0.05948
G1 X123.027 Y86.931 E0.03456
G1 X125.006 Y86.823 E0.05959
G1 X127.033 Y86.937 E0.06108
G1 X128.980 Y87.265 E0.05938
G1 X130.092 Y87.552 E0.03456
G1 X131.958 Y88.207 E0.05948
G1 X133.788 Y89.088 E0.06108
G1 X135.463 Y90.138 E0.05948
G1 X136.382 Y90.829 E0.03457
G1 X137.854 Y92.148 E0.05947
G1 X139.202 Y93.656 E0.06084
G1 X140.345 Y95.259 E0.05922
G1 X140.936 Y96.257 E0.03488
G1 X141.793 Y98.044 E0.05961
G1 X142.448 Y99.905 E0.05936
G1 X142.735 Y101.020 E0.03464
G1 X143.063 Y102.969 E0.05944
G1 X143.177 Y105.000 E0.06117
G1 X143.064 Y107.021 E0.06090
G1 X142.738 Y108.964 E0.05926
G1 X142.450 Y110.086 E0.03486
G1 X141.796 Y111.950 E0.05941
G1 X140.913 Y113.786 E0.06127
G1 X139.868 Y115.456 E0.05925
G1 X139.171 Y116.382 E0.03486
G1 X137.847 Y117.859 E0.05967
G1 X136.335 Y119.210 E0.06101
G1 X134.727 Y120.355 E0.05937
G1 X133.737 Y120.939 E0.03456
G1 X131.958 Y121.793 E0.05937
G1 X130.092 Y122.449 E0.05949
G1 X128.964 Y122.738 E0.03504
G1 X127.030 Y123.063 E0.05900
G1 X124.998 Y123.177 E0.06120
G1 X123.028 Y123.069 E0.05936
G1 X121.890 Y122.908 E0.03457
G1 X119.966 Y122.466 E0.05937
G1 X118.046 Y121.794 E0.06120
G1 X116.263 Y120.939 E0.05948
G1 X115.273 Y120.355 E0.03455
G1 X113.665 Y119.210 E0.05938
G1 X112.148 Y117.855 E0.06119
G1 X110.828 Y116.382 E0.05949
G1 X110.138 Y115.463 E0.03457
G1 X109.089 Y113.789 E0.05944
G1 X108.207 Y111.958 E0.06112
G1 X107.536 Y110.040 E0.06114
G1 X107.093 Y108.119 E0.05929
G1 X106.932 Y106.982 E0.03453
G1 X106.823 Y104.998 E0.05977
G1 X106.936 Y102.976 E0.06091
G1 X107.264 Y101.023 E0.05960
G1 X107.551 Y99.910 E0.03455
G1 X108.207 Y98.043 E0.05952
G1 X109.089 Y96.211 E0.06116
G1 X110.138 Y94.536 E0.05944
G1 X110.767 Y93.699 E0.03151
G1 F5760
G1 X112.148 Y92.146 E-0.72000
G1 F5760
G1 X112.234 Y92.068 E-0.04000
G1 E-0.04000 F2100.00000
G1 X113.108 Y95.517 F7200.000
G1 E0.80000 F2100.00000
G1 F1260
G1 X113.659 Y94.865 E0.02566
G1 X114.245 Y94.245 E0.02566
G1 X114.865 Y93.659 E0.02566
G1 X115.517 Y93.108 E0.02566
G1 X116.198 Y92.595 E0.02566
G1 X116.908 Y92.121 E0.02566
G1 X117.643 Y91.688 E0.02566
G1 X118.401 Y91.296 E0.02566
G1 X119.179 Y90.948 E0.02566
G1 X119.976 Y90.644 E0.02566
G1 X120.789 Y90.384 E0.02566
G1 X121.615 Y90.171 E0.02566
G1 X122.452 Y90.005 E0.02566
G1 X123.297 Y89.886 E0.02566
G1 X124.147 Y89.814 E0.02566
G1 X124.998 Y89.790 E0.02560
G1 X125.853 Y89.814 E0.02573
G1 X126.703 Y89.886 E0.02566
G1 X127.548 Y90.005 E0.02566
G1 X128.385 Y90.171 E0.02566
G1 X129.211 Y90.384 E0.02566
G1 X130.024 Y90.644 E0.02566
G1 X130.821 Y90.948 E0.02566
G1 X131.599 Y91.296 E0.02566
G1 X132.357 Y91.688 E0.02566
G1 X133.092 Y92.121 E0.02566
G1 X133.802 Y92.595 E0.02566
G1 X134.483 Y93.108 E0.02566
G1 X135.135 Y93.659 E0.02566
G1 X135.755 Y94.245 E0.02566
G1 X136.341 Y94.865 E0.02566
G1 X136.892 Y95.517 E0.02566
G1 X137.405 Y96.198 E0.02566
G1 X137.879 Y96.908 E0.02566
G1 X138.313 Y97.644 E0.02573
G1 X138.704 Y98.401 E0.02560
G1 X139.052 Y99.179 E0.02566
G1 X139.356 Y99.976 E0.02566
G1 X139.616 Y100.789 E0.02566
G1 X139.829 Y101.615 E0.02566
G1 X139.995 Y102.452 E0.02566
G1 X140.115 Y103.299 E0.02573
G1 X140.186 Y104.147 E0.02560
G1 X140.210 Y105.000 E0.02566
G1 X140.186 Y105.853 E0.02566
G1 X140.114 Y106.703 E0.02566
G1 X139.995 Y107.550 E0.02573
G1 X139.829 Y108.385 E0.02560
G1 X139.616 Y109.211 E0.02566
G1 X139.356 Y110.024 E0.02566
G1 X139.052 Y110.821 E0.02566
G1 X138.704 Y111.599 E0.02566
G1 X138.312 Y112.357 E0.02566
G1 X137.878 Y113.094 E0.02573
G1 X137.405 Y113.802 E0.02560
G1 X136.892 Y114.483 E0.02566
G1 X136.341 Y115.135 E0.02566
G1 X135.755 Y115.755 E0.02566
G1 X135.135 Y116.341 E0.02566
G1 X134.483 Y116.892 E0.02566
G1 X133.802 Y117.405 E0.02566
G1 X133.092 Y117.879 E0.02566
G1 X132.357 Y118.312 E0.02566
G1 X131.599 Y118.704 E0.02566
G1 X130.821 Y119.052 E0.02566
G1 X130.024 Y119.356 E0.02566
G1 X129.211 Y119.616 E0.02566
G1 X128.385 Y119.829 E0.02566
G1 X127.548 Y119.995 E0.02566
G1 X126.703 Y120.114 E0.02566
G1 X125.853 Y120.186 E0.02566
G1 X125.000 Y120.210 E0.02566
G1 X124.147 Y120.186 E0.02566
G1 X123.297 Y120.114 E0.02566
G1 X122.452 Y119.995 E0.02566
G1 X121.615 Y119.829 E0.02566
G1 X120.789 Y119.616 E0.02566
G1 X119.976 Y119.356 E0.02566
G1 X119.179 Y119.052 E0.02566
G1 X118.401 Y118.704 E0.02566
G1 X117.644 Y118.313 E0.02560
G1 X116.908 Y117.879 E0.02573
G1 X116.198 Y117.405 E0.02566
G1 X115.517 Y116.892 E0.02566
G1 X114.865 Y116.341 E0.02566
G1 X114.245 Y115.755 E0.02566
G1 X113.659 Y115.135 E0.02566
G1 X113.108 Y114.483 E0.02566
G1 X112.595 Y113.802 E0.02566
G1 X112.121 Y113.092 E0.02566
G1 X111.687 Y112.356 E0.02573
G1 X111.296 Y111.599 E0.02560
G1 X110.948 Y110.821 E0.02566
G1 X110.644 Y110.024 E0.02566
G1 X110.384 Y109.211 E0.02566
G1 X110.171 Y108.385 E0.02566
G1 X110.005 Y107.548 E0.02566
G1 X109.885 Y106.701 E0.02573
G1 X109.814 Y105.853 E0.02560
G1 X109.790 Y105.000 E0.02566
G1 X109.814 Y104.147 E0.02566
G1 X109.886 Y103.297 E0.02566
G1 X110.005 Y102.450 E0.02573
G1 X110.171 Y101.615 E0.02560
G1 X110.384 Y100.789 E0.02566
G1 X110.644 Y99.976 E0.02566
G1 X110.948 Y99.179 E0.02566
G1 X111.296 Y98.401 E0.02566
G1 X111.688 Y97.643 E0.02566
G1 X112.122 Y96.906 E0.02573
G1 X112.595 Y96.198 E0.02560
G1 X113.072 Y95.565 E0.02386
G1 X112.962 Y95.144 F7200.000
G1 X112.769 Y95.336 F7200.000
G1 F1260
G1 X113.374 Y94.613 E0.02836
G1 X113.976 Y93.976 E0.02637
G1 X114.613 Y93.374 E0.02637
G1 X115.280 Y92.811 E0.02624
G1 X115.979 Y92.285 E0.02631
G1 X116.706 Y91.800 E0.02630
G1 X117.459 Y91.355 E0.02630
G1 X118.236 Y90.954 E0.02630
G1 X119.034 Y90.597 E0.02630
G1 X119.851 Y90.285 E0.02630
G1 X120.684 Y90.019 E0.02630
G1 X121.531 Y89.801 E0.02630
G1 X122.389 Y89.630 E0.02630
G1 X123.254 Y89.508 E0.02630
G1 X124.126 Y89.435 E0.02630
G1 X125.002 Y89.410 E0.02637
G1 X125.874 Y89.435 E0.02624
G1 X126.746 Y89.508 E0.02630
G1 X127.611 Y89.630 E0.02630
G1 X128.469 Y89.801 E0.02630
G1 X129.316 Y90.019 E0.02630
G1 X130.149 Y90.285 E0.02630
G1 X130.966 Y90.597 E0.02630
G1 X131.764 Y90.954 E0.02630
G1 X132.541 Y91.355 E0.02630
G1 X133.294 Y91.800 E0.02630
G1 X134.021 Y92.285 E0.02630
G1 X134.720 Y92.811 E0.02631
G1 X135.388 Y93.376 E0.02631
G1 X136.024 Y93.976 E0.02630
G1 X136.624 Y94.612 E0.02630
G1 X137.189 Y95.280 E0.02631
G1 X137.715 Y95.979 E0.02631
G1 X138.200 Y96.706 E0.02630
G1 X138.645 Y97.459 E0.02630
G1 X139.046 Y98.236 E0.02630
G1 X139.403 Y99.034 E0.02630
G1 X139.715 Y99.851 E0.02630
G1 X139.981 Y100.684 E0.02630
G1 X140.199 Y101.531 E0.02630
G1 X140.370 Y102.389 E0.02630
G1 X140.492 Y103.254 E0.02630
G1 X140.565 Y104.126 E0.02630
G1 X140.590 Y105.000 E0.02630
G1 X140.565 Y105.874 E0.02630
G1 X140.492 Y106.743 E0.02624
G1 X140.370 Y107.611 E0.02637
G1 X140.199 Y108.469 E0.02630
G1 X139.981 Y109.316 E0.02630
G1 X139.715 Y110.149 E0.02630
G1 X139.403 Y110.966 E0.02630
G1 X139.046 Y111.764 E0.02630
G1 X138.645 Y112.541 E0.02630
G1 X138.200 Y113.294 E0.02630
G1 X137.716 Y114.020 E0.02624
G1 X137.189 Y114.720 E0.02637
G1 X136.624 Y115.388 E0.02630
G1 X136.024 Y116.024 E0.02630
G1 X135.387 Y116.626 E0.02637
G1 X134.720 Y117.189 E0.02624
G1 X134.021 Y117.715 E0.02631
G1 X133.294 Y118.200 E0.02630
G1 X132.541 Y118.645 E0.02630
G1 X131.764 Y119.046 E0.02630
G1 X130.966 Y119.403 E0.02630
G1 X130.149 Y119.715 E0.02630
G1 X129.316 Y119.981 E0.02630
G1 X128.469 Y120.199 E0.02630
G1 X127.611 Y120.370 E0.02630
G1 X126.746 Y120.492 E0.02630
G1 X125.874 Y120.565 E0.02630
G1 X125.000 Y120.590 E0.02630
G1 X124.126 Y120.565 E0.02630
G1 X123.254 Y120.492 E0.02630
G1 X122.389 Y120.370 E0.02630
G1 X121.531 Y120.199 E0.02630
G1 X120.684 Y119.981 E0.02630
G1 X119.851 Y119.715 E0.02630
G1 X119.034 Y119.403 E0.02630
G1 X118.236 Y119.046 E0.02630
G1 X117.459 Y118.645 E0.02630
G1 X116.706 Y118.200 E0.02630
G1 X115.979 Y117.715 E0.02630
G1 X115.280 Y117.189 E0.02631
G1 X114.612 Y116.624 E0.02631
G1 X113.976 Y116.024 E0.02630
G1 X113.376 Y115.388 E0.02630
G1 X112.811 Y114.720 E0.02631
G1 X112.285 Y114.021 E0.02631
G1 X111.800 Y113.294 E0.02630
G1 X111.355 Y112.541 E0.02630
G1 X110.954 Y111.764 E0.02630
G1 X110.597 Y110.966 E0.02630
G1 X110.285 Y110.149 E0.02630
G1 X110.019 Y109.316 E0.02630
G1 X109.801 Y108.469 E0.02630
G1 X109.631 Y107.614 E0.02624
G1 X109.508 Y106.746 E0.02637
G1 X109.435 Y105.874 E0.02630
G1 X109.410 Y105.000 E0.02630
G1 X109.435 Y104.126 E0.02630
G1 X109.508 Y103.257 E0.02624
G1 X109.630 Y102.389 E0.02637
G1 X109.801 Y101.531 E0.02630
G1 X110.019 Y100.684 E0.02630
G1 X110.285 Y99.851 E0.02630
G1 X110.597 Y99.034 E0.02630
G1 X110.954 Y98.236 E0.02630
G1 X111.355 Y97.459 E0.02630
G1 X111.800 Y96.706 E0.02630
G1 X112.285 Y95.979 E0.02630
G1 X112.733 Y95.384 E0.02238
G1 X113.165 Y95.395 F7200.000
G1 F5760
G1 X113.374 Y94.613 E-0.34732
G1 F5760
G1 X113.976 Y93.976 E-0.30362
G1 F5760
G1 X114.205 Y93.760 E-0.10906
G1 E-0.04000 F2100.00000
G1 X115.033 Y97.115 F7200.000
G1 E0.80000 F2100.00000
G1 F1260
G1 X115.523 Y96.531 E0.02294
G1 X116.013 Y96.013 E0.02145
G1 X116.531 Y95.523 E0.02145
G1 X117.075 Y95.063 E0.02145
G1 X117.645 Y94.634 E0.02144
G1 X118.238 Y94.238 E0.02145
G1 X118.852 Y93.876 E0.02144
G1 X119.485 Y93.549 E0.02144
G1 X120.136 Y93.257 E0.02145
G1 X120.802 Y93.003 E0.02144
G1 X121.481 Y92.787 E0.02145
G1 X122.172 Y92.609 E0.02145
G1 X122.871 Y92.469 E0.02145
G1 X123.577 Y92.370 E0.02145
G1 X124.287 Y92.310 E0.02144
G1 X124.998 Y92.290 E0.02139
G1 X125.713 Y92.310 E0.02150
G1 X126.423 Y92.370 E0.02145
G1 X127.129 Y92.469 E0.02145
G1 X127.828 Y92.609 E0.02145
G1 X128.519 Y92.787 E0.02145
G1 X129.198 Y93.003 E0.02145
G1 X129.864 Y93.257 E0.02144
G1 X130.515 Y93.549 E0.02145
G1 X131.148 Y93.876 E0.02144
G1 X131.762 Y94.238 E0.02144
G1 X132.355 Y94.634 E0.02145
G1 X132.925 Y95.063 E0.02144
G1 X133.469 Y95.523 E0.02145
G1 X133.987 Y96.013 E0.02145
G1 X134.477 Y96.531 E0.02145
G1 X134.937 Y97.075 E0.02145
G1 X135.366 Y97.645 E0.02144
G1 X135.762 Y98.238 E0.02145
G1 X136.125 Y98.853 E0.02150
G1 X136.451 Y99.485 E0.02139
G1 X136.743 Y100.136 E0.02145
G1 X136.997 Y100.802 E0.02144
G1 X137.213 Y101.481 E0.02145
G1 X137.391 Y102.172 E0.02145
G1 X137.531 Y102.871 E0.02145
G1 X137.630 Y103.579 E0.02150
G1 X137.690 Y104.287 E0.02139
G1 X137.710 Y105.000 E0.02145
G1 X137.690 Y105.713 E0.02145
G1 X137.630 Y106.423 E0.02145
G1 X137.530 Y107.131 E0.02150
G1 X137.391 Y107.828 E0.02139
G1 X137.213 Y108.519 E0.02145
G1 X136.997 Y109.198 E0.02145
G1 X136.743 Y109.864 E0.02144
G1 X136.451 Y110.515 E0.02145
G1 X136.124 Y111.148 E0.02145
G1 X135.761 Y111.764 E0.02150
G1 X135.366 Y112.355 E0.02139
G1 X134.937 Y112.925 E0.02144
G1 X134.477 Y113.469 E0.02145
G1 X133.987 Y113.987 E0.02145
G1 X133.469 Y114.477 E0.02145
G1 X132.925 Y114.937 E0.02145
G1 X132.355 Y115.366 E0.02144
G1 X131.764 Y115.761 E0.02139
G1 X131.148 Y116.124 E0.02150
G1 X130.515 Y116.451 E0.02145
G1 X129.864 Y116.743 E0.02145
G1 X129.198 Y116.997 E0.02144
G1 X128.519 Y117.213 E0.02145
G1 X127.828 Y117.391 E0.02145
G1 X127.129 Y117.531 E0.02145
G1 X126.423 Y117.630 E0.02145
G1 X125.713 Y117.690 E0.02145
G1 X125.000 Y117.710 E0.02145
G1 X124.287 Y117.690 E0.02145
G1 X123.577 Y117.630 E0.02144
G1 X122.871 Y117.531 E0.02145
G1 X122.172 Y117.391 E0.02145
G1 X121.481 Y117.213 E0.02145
G1 X120.802 Y116.997 E0.02145
G1 X120.136 Y116.743 E0.02144
G1 X119.485 Y116.451 E0.02145
G1 X118.852 Y116.124 E0.02144
G1 X118.238 Y115.762 E0.02144
G1 X117.645 Y115.366 E0.02145
G1 X117.075 Y114.937 E0.02144
G1 X116.531 Y114.477 E0.02145
G1 X116.013 Y113.987 E0.02145
G1 X115.523 Y113.469 E0.02145
G1 X115.063 Y112.925 E0.02145
G1 X114.634 Y112.355 E0.02144
G1 X114.238 Y111.762 E0.02145
G1 X113.875 Y111.147 E0.02150
G1 X113.549 Y110.515 E0.02139
G1 X113.257 Y109.864 E0.02145
G1 X113.003 Y109.198 E0.02144
G1 X112.787 Y108.519 E0.02145
G1 X112.609 Y107.828 E0.02145
G1 X112.469 Y107.129 E0.02145
G1 X112.370 Y106.423 E0.02145
G1 X112.310 Y105.713 E0.02145
G1 X112.290 Y105.000 E0.02145
G1 X112.310 Y104.287 E0.02145
G1 X112.370 Y103.577 E0.02145
G1 X112.470 Y102.869 E0.02150
G1 X112.609 Y102.172 E0.02139
G1 X112.787 Y101.481 E0.02145
G1 X113.003 Y100.802 E0.02145
G1 X113.257 Y100.136 E0.02144
G1 X113.549 Y99.485 E0.02145
G1 X113.876 Y98.852 E0.02145
G1 X114.239 Y98.236 E0.02150
G1 X114.634 Y97.645 E0.02139
G1 X114.997 Y97.163 E0.01814
G1 X114.886 Y96.743 F7200.000
G1 X114.693 Y96.935 F7200.000
G1 F1260
G1 X115.240 Y96.278 E0.02571
G1 X115.744 Y95.744 E0.02209
G1 X116.278 Y95.240 E0.02209
G1 X116.839 Y94.766 E0.02209
G1 X117.425 Y94.324 E0.02209
G1 X118.036 Y93.916 E0.02208
G1 X118.668 Y93.543 E0.02209
G1 X119.320 Y93.206 E0.02209
G1 X119.991 Y92.906 E0.02209
G1 X120.677 Y92.645 E0.02209
G1 X121.376 Y92.422 E0.02209
G1 X122.087 Y92.238 E0.02209
G1 X122.807 Y92.095 E0.02209
G1 X123.534 Y91.992 E0.02209
G1 X124.266 Y91.931 E0.02209
G1 X125.002 Y91.910 E0.02214
G1 X125.734 Y91.931 E0.02203
G1 X126.466 Y91.992 E0.02209
G1 X127.193 Y92.095 E0.02209
G1 X127.913 Y92.238 E0.02209
G1 X128.624 Y92.422 E0.02209
G1 X129.323 Y92.645 E0.02209
G1 X130.009 Y92.906 E0.02209
G1 X130.680 Y93.206 E0.02209
G1 X131.332 Y93.543 E0.02209
G1 X131.964 Y93.916 E0.02209
