; generated by Slic3r 1.33.8.devel on 2018-07-03 at 18:12:11

; 

; external perimeters extrusion width = 0.60mm
; perimeters extrusion width = 0.43mm
; infill extrusion width = 0.70mm
; solid infill extrusion width = 0.70mm
; top infill extrusion width = 0.43mm
; first layer extrusion width = 0.42mm

M107
M115 U3.0.12 ; tell printer latest fw version
M83  ; extruder relative mode
M104 S215 ; set extruder temp
M140 S55 ; set bed temp
M190 S55 ; wait for bed temp
M109 S215 ; wait for extruder temp
G28 W ; home all without mesh bed level
G80 ; mesh bed leveling
G1 Y-3.0 F1000.0 ; go outside pritn area
G1 X60.0 E9.0  F1000.0 ; intro line
G1 X100.0 E12.5  F1000.0 ; intro line
; Filament gcode

G21 ; set units to millimeters
G90 ; use absolute coordinates
M83 ; use relative distances for extrusion
G1 E-0.80000 F2100.00000
G1 Z0.200 F7200.000
G1 X103.402 Y87.773 F7200.000
G1 E0.80000 F2100.00000
M204 S1000
G1 F2100
G1 X105.464 Y85.466 E0.09308
G1 X107.726 Y83.440 E0.09136
G1 X109.068 Y82.431 E0.05050
G1 X111.638 Y80.819 E0.09125
G1 X114.426 Y79.477 E0.09308
G1 X117.292 Y78.471 E0.09136
G1 X118.944 Y78.047 E0.05130
G1 X121.909 Y77.546 E0.09045
G1 X125.002 Y77.373 E0.09319
G1 X128.091 Y77.546 E0.09308
G1 X131.082 Y78.052 E0.09124
G1 X132.708 Y78.471 E0.05050
G1 X135.574 Y79.477 E0.09136
G1 X138.362 Y80.819 E0.09308
G1 X140.932 Y82.431 E0.09124
G1 X142.274 Y83.440 E0.05051
G1 X144.537 Y85.466 E0.09136
G1 X146.555 Y87.721 E0.09103
G1 X147.569 Y89.068 E0.05071
G1 X149.181 Y91.638 E0.09125
G1 X150.521 Y94.419 E0.09286
G1 X151.547 Y97.350 E0.09340
G1 X152.223 Y100.299 E0.09101
G1 X152.460 Y101.969 E0.05074
G1 X152.627 Y105.002 E0.09136
G1 X152.454 Y108.084 E0.09284
G1 X151.948 Y111.082 E0.09145
G1 X151.529 Y112.708 E0.05052
G1 X150.525 Y115.571 E0.09125
G1 X149.186 Y118.353 E0.09287
G1 X147.585 Y120.909 E0.09075
G1 X146.560 Y122.274 E0.05133
G1 X144.534 Y124.537 E0.09136
G1 X142.274 Y126.560 E0.09124
G1 X140.910 Y127.584 E0.05129
G1 X138.362 Y129.181 E0.09045
G1 X135.574 Y130.523 E0.09308
G1 X132.708 Y131.529 E0.09136
G1 X131.082 Y131.948 E0.05051
G1 X128.091 Y132.454 E0.09124
G1 X124.998 Y132.627 E0.09319
G1 X121.909 Y132.454 E0.09308
G1 X118.918 Y131.948 E0.09124
G1 X117.292 Y131.529 E0.05050
G1 X114.429 Y130.525 E0.09125
G1 X111.692 Y129.210 E0.09136
G1 X110.246 Y128.356 E0.05050
G1 X107.773 Y126.598 E0.09125
G1 X105.466 Y124.536 E0.09308
G1 X103.408 Y122.235 E0.09286
G1 X101.673 Y119.798 E0.09000
G1 X100.796 Y118.318 E0.05172
G1 X99.477 Y115.574 E0.09159
G1 X98.473 Y112.715 E0.09115
G1 X98.052 Y111.082 E0.05072
G1 X97.546 Y108.091 E0.09124
G1 X97.373 Y104.998 E0.09319
G1 X97.546 Y101.916 E0.09287
G1 X98.047 Y98.944 E0.09065
G1 X98.469 Y97.299 E0.05109
G1 X99.475 Y94.429 E0.09146
G1 X100.790 Y91.692 E0.09136
G1 X101.644 Y90.246 E0.05050
G1 X103.367 Y87.822 E0.08944
G1 F5760
G1 X104.826 Y86.183 E-0.76000
G1 E-0.04000 F2100.00000
G1 X106.055 Y89.883 F7200.000
G1 E0.80000 F2100.00000
G1 F1680
G1 X106.928 Y88.850 E0.04069
G1 X107.862 Y87.862 E0.04089
G1 X108.850 Y86.928 E0.04089
G1 X109.888 Y86.051 E0.04090
G1 X110.975 Y85.233 E0.04089
G1 X112.105 Y84.478 E0.04089
G1 X113.276 Y83.787 E0.04089
G1 X114.484 Y83.163 E0.04090
G1 X115.725 Y82.608 E0.04089
G1 X116.995 Y82.123 E0.04089
G1 X118.290 Y81.710 E0.04089
G1 X119.607 Y81.370 E0.04089
G1 X120.940 Y81.105 E0.04089
G1 X122.286 Y80.915 E0.04089
G1 X123.641 Y80.801 E0.04089
G1 X124.993 Y80.763 E0.04069
G1 X126.359 Y80.801 E0.04109
G1 X127.714 Y80.915 E0.04090
G1 X129.060 Y81.105 E0.04089
G1 X130.393 Y81.370 E0.04089
G1 X131.710 Y81.710 E0.04089
G1 X133.005 Y82.123 E0.04089
G1 X134.275 Y82.608 E0.04089
G1 X135.516 Y83.163 E0.04089
G1 X136.724 Y83.787 E0.04090
G1 X137.895 Y84.478 E0.04089
G1 X139.025 Y85.233 E0.04089
G1 X140.112 Y86.051 E0.04089
G1 X141.150 Y86.928 E0.04090
G1 X142.138 Y87.862 E0.04089
G1 X143.072 Y88.850 E0.04089
G1 X143.949 Y89.888 E0.04090
G1 X144.767 Y90.975 E0.04089
G1 X145.522 Y92.105 E0.04089
G1 X146.213 Y93.276 E0.04089
G1 X146.837 Y94.484 E0.04090
G1 X147.392 Y95.725 E0.04089
G1 X147.877 Y96.995 E0.04089
G1 X148.290 Y98.290 E0.04089
G1 X148.630 Y99.607 E0.04089
G1 X148.895 Y100.940 E0.04089
G1 X149.085 Y102.286 E0.04089
G1 X149.199 Y103.641 E0.04089
G1 X149.237 Y105.000 E0.04089
G1 X149.199 Y106.359 E0.04089
G1 X149.085 Y107.714 E0.04089
G1 X148.895 Y109.060 E0.04089
G1 X148.630 Y110.393 E0.04089
G1 X148.290 Y111.710 E0.04089
G1 X147.877 Y113.005 E0.04089
G1 X147.392 Y114.275 E0.04089
G1 X146.837 Y115.516 E0.04089
G1 X146.213 Y116.724 E0.04090
G1 X145.522 Y117.895 E0.04089
G1 X144.767 Y119.025 E0.04089
G1 X143.949 Y120.112 E0.04089
G1 X143.072 Y121.150 E0.04090
G1 X142.138 Y122.138 E0.04089
G1 X141.150 Y123.072 E0.04089
G1 X140.112 Y123.949 E0.04090
G1 X139.025 Y124.767 E0.04089
G1 X137.895 Y125.522 E0.04089
G1 X136.724 Y126.213 E0.04089
G1 X135.516 Y126.837 E0.04090
G1 X134.275 Y127.392 E0.04089
G1 X133.005 Y127.877 E0.04089
G1 X131.710 Y128.290 E0.04089
G1 X130.393 Y128.630 E0.04089
G1 X129.060 Y128.895 E0.04089
G1 X127.714 Y129.085 E0.04089
G1 X126.359 Y129.199 E0.04089
G1 X125.000 Y129.237 E0.04089
G1 X123.641 Y129.199 E0.04089
G1 X122.286 Y129.085 E0.04089
G1 X120.940 Y128.895 E0.04089
G1 X119.613 Y128.631 E0.04069
G1 X118.290 Y128.290 E0.04109
G1 X116.995 Y127.877 E0.04090
G1 X115.725 Y127.392 E0.04089
G1 X114.484 Y126.837 E0.04089
G1 X113.276 Y126.213 E0.04090
G1 X112.105 Y125.522 E0.04089
G1 X110.975 Y124.767 E0.04089
G1 X109.888 Y123.949 E0.04089
G1 X108.850 Y123.072 E0.04090
G1 X107.862 Y122.138 E0.04089
G1 X106.928 Y121.150 E0.04089
G1 X106.051 Y120.112 E0.04090
G1 X105.233 Y119.025 E0.04089
G1 X104.478 Y117.895 E0.04089
G1 X103.787 Y116.724 E0.04089
G1 X103.163 Y115.516 E0.04090
G1 X102.608 Y114.275 E0.04089
G1 X102.123 Y113.005 E0.04089
G1 X101.710 Y111.710 E0.04089
G1 X101.370 Y110.393 E0.04089
G1 X101.105 Y109.060 E0.04090
G1 X100.915 Y107.707 E0.04109
G1 X100.801 Y106.359 E0.04069
G1 X100.763 Y105.000 E0.04089
G1 X100.801 Y103.641 E0.04089
G1 X100.915 Y102.286 E0.04090
G1 X101.107 Y100.934 E0.04109
G1 X101.370 Y99.607 E0.04069
G1 X101.710 Y98.290 E0.04089
G1 X102.123 Y96.995 E0.04089
G1 X102.608 Y95.725 E0.04089
G1 X103.163 Y94.484 E0.04089
G1 X103.787 Y93.276 E0.04090
G1 X104.478 Y92.105 E0.04089
G1 X105.233 Y90.974 E0.04090
G1 X106.019 Y89.931 E0.03929
G1 X106.320 Y90.158 F7200.000
G1 F1260
G1 X107.209 Y89.101 E0.04154
G1 X108.128 Y88.128 E0.04026
G1 X109.101 Y87.209 E0.04026
G1 X110.124 Y86.345 E0.04026
G1 X111.193 Y85.541 E0.04026
G1 X112.306 Y84.797 E0.04026
G1 X113.458 Y84.117 E0.04026
G1 X114.648 Y83.503 E0.04026
G1 X115.869 Y82.956 E0.04026
G1 X117.120 Y82.479 E0.04026
G1 X118.395 Y82.072 E0.04026
G1 X119.691 Y81.738 E0.04026
G1 X121.003 Y81.477 E0.04026
G1 X122.329 Y81.290 E0.04026
G1 X123.662 Y81.177 E0.04026
G1 X124.993 Y81.140 E0.04006
G1 X126.338 Y81.177 E0.04046
G1 X127.671 Y81.290 E0.04026
G1 X128.997 Y81.477 E0.04026
G1 X130.309 Y81.738 E0.04026
G1 X131.605 Y82.072 E0.04026
G1 X132.880 Y82.479 E0.04026
G1 X134.131 Y82.956 E0.04026
G1 X135.352 Y83.503 E0.04026
G1 X136.542 Y84.117 E0.04026
G1 X137.694 Y84.797 E0.04026
G1 X138.807 Y85.541 E0.04026
G1 X139.876 Y86.345 E0.04026
G1 X140.899 Y87.209 E0.04026
G1 X141.872 Y88.128 E0.04026
G1 X142.791 Y89.101 E0.04026
G1 X143.655 Y90.124 E0.04026
G1 X144.459 Y91.193 E0.04026
G1 X145.203 Y92.306 E0.04026
G1 X145.883 Y93.458 E0.04026
G1 X146.497 Y94.648 E0.04026
G1 X147.044 Y95.869 E0.04026
G1 X147.521 Y97.120 E0.04026
G1 X147.928 Y98.395 E0.04026
G1 X148.262 Y99.691 E0.04026
G1 X148.523 Y101.003 E0.04026
G1 X148.710 Y102.329 E0.04026
G1 X148.823 Y103.662 E0.04026
G1 X148.860 Y105.000 E0.04026
G1 X148.823 Y106.338 E0.04026
G1 X148.710 Y107.671 E0.04026
G1 X148.523 Y108.997 E0.04026
G1 X148.262 Y110.309 E0.04026
G1 X147.928 Y111.605 E0.04026
G1 X147.521 Y112.880 E0.04026
G1 X147.044 Y114.131 E0.04026
G1 X146.497 Y115.352 E0.04026
G1 X145.883 Y116.542 E0.04026
G1 X145.203 Y117.694 E0.04026
G1 X144.459 Y118.807 E0.04026
G1 X143.655 Y119.876 E0.04026
G1 X142.791 Y120.899 E0.04026
G1 X141.872 Y121.872 E0.04026
G1 X140.899 Y122.791 E0.04026
G1 X139.876 Y123.655 E0.04026
G1 X138.807 Y124.459 E0.04026
G1 X137.694 Y125.203 E0.04026
G1 X136.542 Y125.883 E0.04026
G1 X135.352 Y126.497 E0.04026
G1 X134.131 Y127.044 E0.04026
G1 X132.880 Y127.521 E0.04026
G1 X131.605 Y127.928 E0.04026
G1 X130.309 Y128.262 E0.04026
G1 X128.997 Y128.523 E0.04026
G1 X127.671 Y128.710 E0.04026
G1 X126.338 Y128.823 E0.04026
G1 X125.000 Y128.860 E0.04026
G1 X123.662 Y128.823 E0.04026
G1 X122.329 Y128.710 E0.04026
G1 X121.003 Y128.523 E0.04026
G1 X119.697 Y128.263 E0.04006
G1 X118.395 Y127.928 E0.04046
G1 X117.120 Y127.521 E0.04026
G1 X115.869 Y127.044 E0.04026
G1 X114.648 Y126.497 E0.04026
G1 X113.458 Y125.883 E0.04026
G1 X112.306 Y125.203 E0.04026
G1 X111.193 Y124.459 E0.04026
G1 X110.124 Y123.655 E0.04026
G1 X109.101 Y122.791 E0.04026
G1 X108.128 Y121.872 E0.04026
G1 X107.209 Y120.899 E0.04026
G1 X106.345 Y119.876 E0.04026
G1 X105.541 Y118.807 E0.04026
G1 X104.797 Y117.694 E0.04026
G1 X104.117 Y116.542 E0.04026
G1 X103.503 Y115.352 E0.04026
G1 X102.956 Y114.131 E0.04026
G1 X102.479 Y112.880 E0.04026
G1 X102.072 Y111.605 E0.04026
G1 X101.738 Y110.309 E0.04026
G1 X101.477 Y108.997 E0.04026
G1 X101.289 Y107.665 E0.04046
G1 X101.177 Y106.338 E0.04006
G1 X101.140 Y105.000 E0.04026
G1 X101.177 Y103.662 E0.04026
G1 X101.290 Y102.328 E0.04026
G1 X101.478 Y100.997 E0.04046
G1 X101.738 Y99.691 E0.04006
G1 X102.072 Y98.395 E0.04026
G1 X102.479 Y97.120 E0.04026
G1 X102.956 Y95.869 E0.04026
G1 X103.503 Y94.648 E0.04026
G1 X104.117 Y93.458 E0.04026
G1 X104.797 Y92.306 E0.04026
G1 X105.541 Y91.193 E0.04026
G1 X106.284 Y90.206 E0.03716
G1 X106.173 Y89.786 F7200.000
G1 X105.643 Y89.723 F7200.000
G1 F1680
G1 X106.610 Y88.566 E0.04538
G1 X107.561 Y87.561 E0.04161
G1 X108.566 Y86.610 E0.04161
G1 X109.623 Y85.718 E0.04161
G1 X110.728 Y84.886 E0.04161
G1 X111.879 Y84.117 E0.04161
G1 X113.070 Y83.415 E0.04161
G1 X114.299 Y82.780 E0.04161
G1 X115.562 Y82.215 E0.04161
G1 X116.854 Y81.721 E0.04161
G1 X118.172 Y81.301 E0.04161
G1 X119.512 Y80.956 E0.04161
G1 X120.869 Y80.686 E0.04161
G1 X122.239 Y80.492 E0.04161
G1 X123.617 Y80.376 E0.04161
G1 X125.007 Y80.338 E0.04182
G1 X126.383 Y80.376 E0.04140
G1 X127.761 Y80.492 E0.04161
G1 X129.131 Y80.686 E0.04161
G1 X130.488 Y80.956 E0.04161
G1 X131.828 Y81.301 E0.04161
G1 X133.146 Y81.721 E0.04161
G1 X134.438 Y82.215 E0.04161
G1 X135.701 Y82.780 E0.04161
G1 X136.930 Y83.415 E0.04161
G1 X138.121 Y84.117 E0.04161
G1 X139.272 Y84.886 E0.04161
G1 X140.377 Y85.718 E0.04161
G1 X141.434 Y86.610 E0.04161
G1 X142.439 Y87.561 E0.04161
G1 X143.390 Y88.566 E0.04161
G1 X144.282 Y89.623 E0.04161
G1 X145.114 Y90.728 E0.04161
G1 X145.883 Y91.879 E0.04161
G1 X146.585 Y93.070 E0.04161
G1 X147.220 Y94.299 E0.04161
G1 X147.785 Y95.562 E0.04161
G1 X148.279 Y96.854 E0.04161
G1 X148.699 Y98.172 E0.04161
G1 X149.044 Y99.512 E0.04161
G1 X149.314 Y100.869 E0.04161
G1 X149.508 Y102.239 E0.04161
G1 X149.624 Y103.617 E0.04161
G1 X149.663 Y105.000 E0.04161
G1 X149.624 Y106.383 E0.04161
G1 X149.508 Y107.761 E0.04161
G1 X149.314 Y109.131 E0.04161
G1 X149.044 Y110.488 E0.04161
G1 X148.699 Y111.828 E0.04161
G1 X148.279 Y113.146 E0.04161
G1 X147.785 Y114.438 E0.04161
G1 X147.220 Y115.701 E0.04161
G1 X146.585 Y116.930 E0.04161
G1 X145.883 Y118.121 E0.04161
G1 X145.118 Y119.266 E0.04140
G1 X144.282 Y120.377 E0.04182
G1 X143.390 Y121.434 E0.04161
G1 X142.439 Y122.439 E0.04161
G1 X141.434 Y123.390 E0.04161
G1 X140.377 Y124.282 E0.04161
G1 X139.266 Y125.118 E0.04182
G1 X138.121 Y125.883 E0.04140
G1 X136.930 Y126.585 E0.04161
G1 X135.701 Y127.220 E0.04161
G1 X134.438 Y127.785 E0.04161
G1 X133.146 Y128.279 E0.04161
G1 X131.828 Y128.699 E0.04161
G1 X130.488 Y129.044 E0.04161
G1 X129.131 Y129.314 E0.04161
G1 X127.761 Y129.508 E0.04161
G1 X126.383 Y129.624 E0.04161
G1 X125.000 Y129.663 E0.04161
G1 X123.617 Y129.624 E0.04161
G1 X122.239 Y129.508 E0.04161
G1 X120.869 Y129.314 E0.04161
G1 X119.512 Y129.044 E0.04161
G1 X118.172 Y128.699 E0.04161
G1 X116.854 Y128.279 E0.04161
G1 X115.562 Y127.785 E0.04161
G1 X114.299 Y127.220 E0.04161
G1 X113.070 Y126.585 E0.04161
G1 X111.879 Y125.883 E0.04161
G1 X110.728 Y125.114 E0.04161
G1 X109.623 Y124.282 E0.04161
G1 X108.566 Y123.390 E0.04161
G1 X107.561 Y122.439 E0.04161
G1 X106.610 Y121.434 E0.04161
G1 X105.718 Y120.377 E0.04161
G1 X104.886 Y119.272 E0.04161
G1 X104.117 Y118.121 E0.04161
G1 X103.415 Y116.930 E0.04161
G1 X102.780 Y115.701 E0.04161
G1 X102.215 Y114.438 E0.04161
G1 X101.721 Y113.146 E0.04161
G1 X101.303 Y111.834 E0.04140
G1 X100.956 Y110.488 E0.04182
G1 X100.686 Y109.131 E0.04161
G1 X100.492 Y107.761 E0.04161
G1 X100.376 Y106.383 E0.04161
G1 X100.337 Y105.000 E0.04161
G1 X100.376 Y103.617 E0.04161
G1 X100.492 Y102.239 E0.04161
G1 X100.686 Y100.869 E0.04161
G1 X100.954 Y99.519 E0.04140
G1 X101.301 Y98.172 E0.04182
G1 X101.721 Y96.854 E0.04161
G1 X102.215 Y95.562 E0.04161
G1 X102.780 Y94.299 E0.04161
G1 X103.415 Y93.070 E0.04161
G1 X104.117 Y91.879 E0.04161
G1 X104.886 Y90.728 E0.04161
G1 X105.607 Y89.771 E0.03604
G1 X105.305 Y89.544 F7200.000
G1 F1260
G1 X106.329 Y88.315 E0.04813
G1 X107.294 Y87.294 E0.04225
G1 X108.315 Y86.329 E0.04225
G1 X109.388 Y85.423 E0.04225
G1 X110.510 Y84.578 E0.04225
G1 X111.678 Y83.798 E0.04225
G1 X112.888 Y83.084 E0.04225
G1 X114.136 Y82.440 E0.04225
G1 X115.418 Y81.866 E0.04225
G1 X116.730 Y81.365 E0.04225
G1 X118.068 Y80.939 E0.04225
G1 X119.428 Y80.588 E0.04225
G1 X120.806 Y80.314 E0.04225
G1 X122.196 Y80.118 E0.04225
G1 X123.596 Y79.999 E0.04225
G1 X125.007 Y79.960 E0.04246
G1 X126.404 Y79.999 E0.04204
G1 X127.804 Y80.118 E0.04225
G1 X129.194 Y80.314 E0.04225
G1 X130.572 Y80.588 E0.04225
G1 X131.932 Y80.939 E0.04225
G1 X133.270 Y81.365 E0.04225
G1 X134.582 Y81.866 E0.04225
G1 X135.864 Y82.440 E0.04225
G1 X137.112 Y83.084 E0.04225
G1 X138.322 Y83.798 E0.04225
G1 X139.490 Y84.578 E0.04225
G1 X140.612 Y85.423 E0.04225
G1 X141.685 Y86.329 E0.04225
G1 X142.706 Y87.294 E0.04225
G1 X143.671 Y88.315 E0.04225
G1 X144.577 Y89.388 E0.04225
G1 X145.422 Y90.510 E0.04225
G1 X146.202 Y91.678 E0.04225
G1 X146.916 Y92.888 E0.04225
G1 X147.560 Y94.136 E0.04225
G1 X148.134 Y95.418 E0.04225
G1 X148.635 Y96.730 E0.04225
G1 X149.061 Y98.068 E0.04225
G1 X149.412 Y99.428 E0.04225
G1 X149.686 Y100.806 E0.04225
G1 X149.882 Y102.196 E0.04225
G1 X150.001 Y103.596 E0.04225
G1 X150.040 Y105.000 E0.04225
G1 X150.001 Y106.404 E0.04225
G1 X149.882 Y107.804 E0.04225
G1 X149.686 Y109.194 E0.04225
G1 X149.412 Y110.572 E0.04225
G1 X149.061 Y111.932 E0.04225
G1 X148.635 Y113.270 E0.04225
G1 X148.134 Y114.582 E0.04225
G1 X147.560 Y115.864 E0.04225
G1 X146.916 Y117.112 E0.04225
G1 X146.202 Y118.322 E0.04225
G1 X145.425 Y119.484 E0.04204
G1 X144.577 Y120.612 E0.04246
G1 X143.671 Y121.685 E0.04225
G1 X142.706 Y122.706 E0.04225
G1 X141.685 Y123.671 E0.04225
G1 X140.612 Y124.577 E0.04225
G1 X139.484 Y125.425 E0.04246
G1 X138.322 Y126.202 E0.04204
G1 X137.112 Y126.916 E0.04225
G1 X135.864 Y127.560 E0.04225
G1 X134.582 Y128.134 E0.04225
G1 X133.270 Y128.635 E0.04225
G1 X131.932 Y129.061 E0.04225
G1 X130.572 Y129.412 E0.04225
G1 X129.194 Y129.686 E0.04225
G1 X127.804 Y129.882 E0.04225
G1 X126.404 Y130.001 E0.04225
G1 X125.000 Y130.040 E0.04225
G1 X123.596 Y130.001 E0.04225
G1 X122.196 Y129.882 E0.04225
G1 X120.806 Y129.686 E0.04225
G1 X119.428 Y129.412 E0.04225
G1 X118.068 Y129.061 E0.04225
G1 X116.730 Y128.635 E0.04225
G1 X115.418 Y128.134 E0.04225
G1 X114.136 Y127.560 E0.04225
G1 X112.888 Y126.916 E0.04225
G1 X111.678 Y126.202 E0.04225
G1 X110.510 Y125.422 E0.04225
G1 X109.388 Y124.577 E0.04225
G1 X108.315 Y123.671 E0.04225
G1 X107.294 Y122.706 E0.04225
G1 X106.329 Y121.685 E0.04225
G1 X105.423 Y120.612 E0.04225
G1 X104.578 Y119.490 E0.04225
G1 X103.798 Y118.322 E0.04225
G1 X103.084 Y117.112 E0.04225
G1 X102.440 Y115.864 E0.04225
G1 X101.866 Y114.582 E0.04225
G1 X101.365 Y113.270 E0.04225
G1 X100.941 Y111.939 E0.04204
G1 X100.588 Y110.572 E0.04246
G1 X100.314 Y109.194 E0.04225
G1 X100.118 Y107.804 E0.04225
G1 X99.999 Y106.404 E0.04225
G1 X99.960 Y105.000 E0.04225
G1 X99.999 Y103.596 E0.04225
