; generated by Slic3r 1.33.8.devel on 2018-07-08 at 10:53:34

; 

; external perimeters extrusion width = 0.60mm
; perimeters extrusion width = 0.43mm
; infill extrusion width = 0.70mm
; solid infill extrusion width = 0.70mm
; top infill extrusion width = 0.43mm
; first layer extrusion width = 0.42mm

M107
M115 U3.0.12 ; tell printer latest fw version
M83  ; extruder relative mode
M104 S215 ; set extruder temp
M140 S55 ; set bed temp
M190 S55 ; wait for bed temp
M109 S215 ; wait for extruder temp
G28 W ; home all without mesh bed level
G80 ; mesh bed leveling
G1 Y-3.0 F1000.0 ; go outside pritn area
G1 X60.0 E9.0  F1000.0 ; intro line
G1 X100.0 E12.5  F1000.0 ; intro line
; Filament gcode

G21 ; set units to millimeters
G90 ; use absolute coordinates
M83 ; use relative distances for extrusion
G1 E-0.80000 F2100.00000
G1 Z0.200 F7200.000
G1 X162.224 Y119.869 F7200.000
G1 E0.80000 F2100.00000
M204 S1000
G1 F2100
G1 X161.886 Y120.519 E0.02202
G1 X157.652 Y124.783 E0.18074
G1 X157.066 Y125.163 E0.02101
G1 X156.395 Y125.356 E0.02101
G1 X110.496 Y127.375 E1.38198
G1 X108.495 Y127.326 E0.06022
G1 X106.526 Y127.106 E0.05959
G1 X104.999 Y126.811 E0.04679
G1 X103.110 Y126.290 E0.05892
G1 X101.648 Y125.760 E0.04679
G1 X99.841 Y124.938 E0.05972
G1 X98.117 Y123.961 E0.05959
G1 X96.835 Y123.094 E0.04656
G1 X95.297 Y121.869 E0.05914
G1 X94.177 Y120.823 E0.04612
G1 X92.840 Y119.361 E0.05958
G1 X91.896 Y118.153 E0.04611
G1 X90.804 Y116.500 E0.05958
G1 X90.062 Y115.159 E0.04611
G1 X89.413 Y113.770 E0.04611
G1 X88.718 Y111.915 E0.05960
G1 X88.190 Y110.005 E0.05958
G1 X87.896 Y108.482 E0.04668
G1 X87.674 Y106.513 E0.05960
G1 X87.623 Y104.600 E0.05756
G1 X87.713 Y102.994 E0.04838
G1 X87.902 Y101.477 E0.04599
G1 X88.295 Y99.558 E0.05892
G1 X88.725 Y98.063 E0.04679
G1 X89.413 Y96.230 E0.05890
G1 X90.062 Y94.841 E0.04612
G1 X91.039 Y93.117 E0.05959
G1 X91.899 Y91.844 E0.04622
G1 X93.131 Y90.297 E0.05948
G1 X94.177 Y89.177 E0.04612
G1 X95.639 Y87.840 E0.05958
G1 X96.866 Y86.883 E0.04680
G1 X98.500 Y85.804 E0.05890
G1 X99.841 Y85.062 E0.04612
G1 X101.645 Y84.242 E0.05959
G1 X103.104 Y83.712 E0.04669
G1 X104.995 Y83.190 E0.05901
G1 X106.522 Y82.895 E0.04679
G1 X108.487 Y82.674 E0.05949
G1 X110.404 Y82.623 E0.05767
G1 X156.226 Y84.626 E1.37964
G1 X156.903 Y84.762 E0.02078
G1 X157.513 Y85.086 E0.02078
G1 X161.785 Y89.328 E0.18108
G1 X162.168 Y89.921 E0.02123
G1 X162.359 Y90.604 E0.02135
G1 X162.348 Y119.147 E0.85857
G1 X162.234 Y119.810 E0.02022
G1 F5760
G1 X161.886 Y120.519 E-0.27347
G1 F5760
G1 X160.896 Y121.515 E-0.48653
G1 E-0.04000 F2100.00000
G1 X90.584 Y105.190 F7200.000
G1 E0.80000 F2100.00000
G1 F1260
G1 X97.705 Y105.190 E0.21419
G1 X97.760 Y106.102 E0.02750
G1 X97.821 Y106.650 E0.01657
G1 X98.018 Y107.735 E0.03317
G1 X98.312 Y108.798 E0.03317
G1 X98.699 Y109.830 E0.03317
G1 X99.178 Y110.824 E0.03317
G1 X99.742 Y111.769 E0.03313
G1 X100.223 Y112.446 E0.02495
G1 X100.566 Y112.876 E0.01655
G1 X101.310 Y113.690 E0.03317
G1 X101.707 Y114.071 E0.01655
G1 X102.338 Y114.609 E0.02495
G1 X103.230 Y115.257 E0.03314
G1 X104.176 Y115.822 E0.03317
G1 X105.170 Y116.301 E0.03317
G1 X106.202 Y116.688 E0.03317
G1 X107.265 Y116.982 E0.03317
G1 X108.350 Y117.179 E0.03317
G1 X108.898 Y117.240 E0.01656
G1 X109.810 Y117.295 E0.02750
G1 X109.810 Y124.416 E0.21419
G1 X108.694 Y124.366 E0.03359
G1 X107.827 Y124.288 E0.02620
G1 X106.964 Y124.171 E0.02620
G1 X106.105 Y124.015 E0.02624
G1 X104.837 Y123.711 E0.03923
G1 X104.002 Y123.460 E0.02624
G1 X103.180 Y123.172 E0.02620
G1 X102.371 Y122.848 E0.02620
G1 X101.578 Y122.488 E0.02620
G1 X100.802 Y122.092 E0.02620
G1 X100.045 Y121.663 E0.02620
G1 X99.307 Y121.199 E0.02620
G1 X98.591 Y120.703 E0.02620
G1 X97.897 Y120.175 E0.02623
G1 X96.905 Y119.328 E0.03923
G1 X96.275 Y118.725 E0.02624
G1 X95.672 Y118.095 E0.02623
G1 X94.825 Y117.103 E0.03923
G1 X94.297 Y116.409 E0.02623
G1 X93.801 Y115.693 E0.02620
G1 X93.337 Y114.955 E0.02620
G1 X92.908 Y114.198 E0.02620
G1 X92.512 Y113.422 E0.02620
G1 X92.152 Y112.629 E0.02620
G1 X91.828 Y111.820 E0.02620
G1 X91.540 Y110.998 E0.02620
G1 X91.289 Y110.163 E0.02624
G1 X90.985 Y108.895 E0.03923
G1 X90.829 Y108.036 E0.02624
G1 X90.712 Y107.173 E0.02620
G1 X90.634 Y106.306 E0.02620
G1 X90.587 Y105.250 E0.03179
G1 X90.576 Y104.790 F7200.000
G1 F5760
G1 X92.781 Y105.231 E-0.76000
G1 E-0.04000 F2100.00000
G1 X98.084 Y105.190 F7200.000
G1 E0.80000 F2100.00000
G1 F840
G1 X105.203 Y105.190 E0.21412
G1 X105.269 Y105.749 E0.01692
G1 X105.355 Y106.170 E0.01295
G1 X105.479 Y106.582 E0.01293
G1 X105.639 Y106.981 E0.01293
G1 X105.834 Y107.364 E0.01293
G1 X106.063 Y107.728 E0.01293
G1 X106.323 Y108.070 E0.01293
G1 X106.613 Y108.387 E0.01293
G1 X106.930 Y108.677 E0.01293
G1 X107.272 Y108.937 E0.01293
G1 X107.636 Y109.166 E0.01293
G1 X108.019 Y109.361 E0.01293
G1 X108.418 Y109.521 E0.01293
G1 X108.830 Y109.645 E0.01293
G1 X109.251 Y109.731 E0.01294
G1 X109.810 Y109.797 E0.01692
G1 X109.810 Y116.916 E0.21412
G1 X108.933 Y116.862 E0.02643
G1 X108.399 Y116.802 E0.01617
G1 X107.350 Y116.612 E0.03208
G1 X106.320 Y116.327 E0.03215
G1 X105.319 Y115.952 E0.03215
G1 X104.357 Y115.489 E0.03211
G1 X103.664 Y115.085 E0.02411
G1 X103.215 Y114.789 E0.01618
G1 X102.367 Y114.143 E0.03207
G1 X101.580 Y113.423 E0.03207
G1 X101.208 Y113.035 E0.01618
G1 X100.688 Y112.425 E0.02411
G1 X100.060 Y111.561 E0.03211
G1 X99.512 Y110.644 E0.03215
G1 X99.048 Y109.681 E0.03215
G1 X98.673 Y108.680 E0.03215
G1 X98.388 Y107.650 E0.03215
G1 X98.198 Y106.601 E0.03207
G1 X98.138 Y106.067 E0.01617
G1 X98.088 Y105.250 E0.02462
G1 X98.074 Y104.790 F7200.000
G1 F5760
G1 X100.282 Y105.231 E-0.76000
G1 E-0.04000 F2100.00000
G1 X105.590 Y105.000 F7200.000
G1 E0.80000 F2100.00000
G1 F840
G1 X105.608 Y104.605 E0.01190
G1 X105.661 Y104.211 E0.01194
G1 X105.776 Y103.733 E0.01481
G1 X105.907 Y103.357 E0.01197
G1 X106.116 Y102.911 E0.01481
G1 X106.319 Y102.570 E0.01194
G1 X106.553 Y102.249 E0.01194
G1 X106.881 Y101.881 E0.01484
G1 X107.249 Y101.553 E0.01484
G1 X107.570 Y101.319 E0.01194
G1 X107.910 Y101.116 E0.01191
G1 X108.267 Y100.945 E0.01190
G1 X108.638 Y100.805 E0.01194
G1 X109.114 Y100.680 E0.01481
G1 X109.507 Y100.617 E0.01197
G1 X109.993 Y100.590 E0.01464
G1 X110.395 Y100.608 E0.01210
G1 X110.787 Y100.661 E0.01190
G1 X111.174 Y100.749 E0.01194
G1 X111.641 Y100.906 E0.01480
G1 X112.003 Y101.071 E0.01198
G1 X112.429 Y101.319 E0.01481
G1 X112.751 Y101.553 E0.01198
G1 X113.119 Y101.881 E0.01484
G1 X113.447 Y102.249 E0.01484
G1 X113.681 Y102.570 E0.01194
G1 X113.884 Y102.911 E0.01194
G1 X114.093 Y103.357 E0.01481
G1 X114.224 Y103.733 E0.01197
G1 X114.339 Y104.211 E0.01481
G1 X114.392 Y104.605 E0.01194
G1 X114.410 Y105.000 E0.01190
G1 X114.392 Y105.395 E0.01190
G1 X114.339 Y105.789 E0.01194
G1 X114.224 Y106.267 E0.01481
G1 X114.093 Y106.643 E0.01197
G1 X113.884 Y107.089 E0.01481
G1 X113.681 Y107.430 E0.01194
G1 X113.447 Y107.751 E0.01194
G1 X113.119 Y108.119 E0.01484
G1 X112.755 Y108.444 E0.01467
G1 X112.430 Y108.681 E0.01210
G1 X112.090 Y108.884 E0.01191
G1 X111.733 Y109.055 E0.01190
G1 X111.362 Y109.195 E0.01194
G1 X110.886 Y109.320 E0.01481
G1 X110.493 Y109.383 E0.01197
G1 X110.001 Y109.410 E0.01481
G1 X109.603 Y109.392 E0.01197
G1 X109.115 Y109.321 E0.01484
G1 X108.638 Y109.195 E0.01484
G1 X108.267 Y109.055 E0.01194
G1 X107.910 Y108.884 E0.01190
G1 X107.570 Y108.681 E0.01191
G1 X107.249 Y108.447 E0.01194
G1 X106.881 Y108.119 E0.01484
G1 X106.553 Y107.751 E0.01484
G1 X106.319 Y107.430 E0.01194
G1 X106.116 Y107.089 E0.01194
G1 X105.907 Y106.643 E0.01481
G1 X105.776 Y106.267 E0.01197
G1 X105.661 Y105.789 E0.01481
G1 X105.608 Y105.395 E0.01194
G1 X105.592 Y105.060 E0.01010
G1 X105.247 Y104.802 F7200.000
G1 F5760
G1 X105.608 Y104.605 E-0.15777
G1 F5760
G1 X105.661 Y104.211 E-0.13747
G1 F5760
G1 X105.776 Y103.733 E-0.17048
G1 F5760
G1 X105.907 Y103.357 E-0.13789
G1 F5760
G1 X106.099 Y102.948 E-0.15640
G1 E-0.04000 F2100.00000
G1 X110.190 Y100.203 F7200.000
G1 E0.80000 F2100.00000
G1 F840
G1 X110.190 Y93.082 E0.21420
G1 X111.334 Y93.165 E0.03450
G1 X112.389 Y93.332 E0.03213
G1 X113.425 Y93.593 E0.03215
G1 X114.433 Y93.946 E0.03211
G1 X115.168 Y94.269 E0.02415
G1 X115.879 Y94.642 E0.02415
G1 X116.782 Y95.209 E0.03208
G1 X117.427 Y95.689 E0.02418
G1 X118.230 Y96.391 E0.03208
G1 X118.791 Y96.965 E0.02415
G1 X119.312 Y97.574 E0.02411
G1 X119.790 Y98.217 E0.02411
G1 X120.224 Y98.891 E0.02411
G1 X120.612 Y99.593 E0.02411
G1 X120.952 Y100.320 E0.02415
G1 X121.327 Y101.318 E0.03208
G1 X121.549 Y102.090 E0.02415
G1 X121.719 Y102.873 E0.02411
G1 X121.835 Y103.667 E0.02413
G1 X121.918 Y104.810 E0.03447
G1 X114.797 Y104.810 E0.21420
G1 X114.731 Y104.251 E0.01692
G1 X114.645 Y103.830 E0.01295
G1 X114.521 Y103.418 E0.01293
G1 X114.361 Y103.019 E0.01293
G1 X114.166 Y102.636 E0.01293
G1 X113.937 Y102.272 E0.01293
G1 X113.677 Y101.930 E0.01293
G1 X113.387 Y101.613 E0.01293
G1 X113.070 Y101.323 E0.01293
G1 X112.728 Y101.063 E0.01293
G1 X112.364 Y100.834 E0.01293
G1 X111.981 Y100.639 E0.01293
G1 X111.582 Y100.479 E0.01293
G1 X111.170 Y100.355 E0.01293
G1 X110.749 Y100.269 E0.01294
G1 X110.250 Y100.210 E0.01512
G1 X109.791 Y100.182 F7200.000
G1 F5760
G1 X110.231 Y98.016 E-0.76000
G1 E-0.04000 F2100.00000
G1 X114.797 Y105.190 F7200.000
G1 E0.80000 F2100.00000
G1 F840
G1 X121.918 Y105.190 E0.21420
G1 X121.835 Y106.334 E0.03450
G1 X121.668 Y107.389 E0.03213
G1 X121.407 Y108.425 E0.03215
G1 X121.054 Y109.433 E0.03211
G1 X120.731 Y110.168 E0.02415
G1 X120.359 Y110.878 E0.02412
G1 X119.931 Y111.575 E0.02460
G1 X119.312 Y112.425 E0.03162
G1 X118.791 Y113.035 E0.02415
G1 X118.230 Y113.609 E0.02415
G1 X117.427 Y114.311 E0.03208
G1 X116.783 Y114.790 E0.02415
G1 X116.109 Y115.224 E0.02411
G1 X115.407 Y115.612 E0.02411
G1 X114.680 Y115.952 E0.02415
G1 X113.682 Y116.327 E0.03208
G1 X112.910 Y116.549 E0.02415
G1 X112.127 Y116.719 E0.02411
G1 X111.333 Y116.835 E0.02413
G1 X110.190 Y116.918 E0.03447
G1 X110.190 Y109.797 E0.21420
G1 X110.749 Y109.731 E0.01692
G1 X111.170 Y109.645 E0.01294
G1 X111.582 Y109.521 E0.01293
G1 X111.981 Y109.361 E0.01293
G1 X112.364 Y109.166 E0.01293
G1 X112.728 Y108.937 E0.01293
G1 X113.070 Y108.677 E0.01293
G1 X113.387 Y108.387 E0.01293
G1 X113.677 Y108.070 E0.01293
G1 X113.937 Y107.728 E0.01293
G1 X114.166 Y107.364 E0.01293
G1 X114.361 Y106.981 E0.01293
G1 X114.521 Y106.582 E0.01293
G1 X114.645 Y106.170 E0.01293
G1 X114.731 Y105.749 E0.01295
G1 X114.790 Y105.250 E0.01512
G1 X114.818 Y104.791 F7200.000
G1 F5760
G1 X116.984 Y105.231 E-0.76000
G1 E-0.04000 F2100.00000
G1 X122.295 Y105.190 F7200.000
G1 E0.80000 F2100.00000
G1 F1260
G1 X129.418 Y105.190 E0.21427
G1 X129.332 Y106.740 E0.04669
G1 X129.171 Y108.036 E0.03930
G1 X128.923 Y109.319 E0.03930
G1 X128.590 Y110.582 E0.03930
G1 X128.172 Y111.820 E0.03930
G1 X127.673 Y113.027 E0.03930
G1 X127.092 Y114.198 E0.03930
G1 X126.435 Y115.327 E0.03930
G1 X125.704 Y116.408 E0.03927
G1 X125.159 Y117.122 E0.02701
G1 X124.327 Y118.095 E0.03852
G1 X123.414 Y119.030 E0.03930
G1 X122.440 Y119.899 E0.03926
G1 X121.758 Y120.444 E0.02627
G1 X120.693 Y121.199 E0.03926
G1 X119.579 Y121.882 E0.03930
G1 X118.423 Y122.487 E0.03926
G1 X117.628 Y122.849 E0.02627
G1 X116.411 Y123.321 E0.03926
G1 X115.164 Y123.711 E0.03930
G1 X113.893 Y124.016 E0.03930
G1 X112.606 Y124.234 E0.03930
G1 X111.307 Y124.366 E0.03926
G1 X110.190 Y124.416 E0.03363
G1 X110.190 Y117.295 E0.21419
G1 X111.102 Y117.240 E0.02750
G1 X111.650 Y117.179 E0.01656
G1 X112.735 Y116.982 E0.03317
G1 X113.798 Y116.688 E0.03317
G1 X114.830 Y116.301 E0.03317
G1 X115.824 Y115.822 E0.03317
G1 X116.770 Y115.257 E0.03317
G1 X117.662 Y114.609 E0.03314
G1 X118.293 Y114.071 E0.02495
G1 X118.690 Y113.690 E0.01655
G1 X119.434 Y112.876 E0.03317
G1 X119.777 Y112.446 E0.01655
G1 X120.258 Y111.769 E0.02495
G1 X120.822 Y110.824 E0.03313
G1 X121.301 Y109.830 E0.03317
G1 X121.688 Y108.798 E0.03317
G1 X121.982 Y107.735 E0.03317
G1 X122.179 Y106.650 E0.03317
G1 X122.240 Y106.102 E0.01657
G1 X122.291 Y105.250 E0.02569
G1 X122.306 Y104.790 F7200.000
G1 X122.295 Y104.810 F7200.000
G1 F1260
G1 X122.240 Y103.898 E0.02750
G1 X122.179 Y103.350 E0.01657
G1 X121.982 Y102.265 E0.03317
G1 X121.688 Y101.202 E0.03317
G1 X121.301 Y100.170 E0.03317
G1 X120.822 Y99.176 E0.03317
G1 X120.258 Y98.231 E0.03313
G1 X119.777 Y97.554 E0.02495
G1 X119.434 Y97.124 E0.01655
G1 X118.690 Y96.310 E0.03317
G1 X118.293 Y95.929 E0.01655
G1 X117.674 Y95.401 E0.02447
G1 X117.224 Y95.057 E0.01703
G1 X116.770 Y94.743 E0.01659
G1 X115.824 Y94.178 E0.03317
G1 X114.830 Y93.699 E0.03317
G1 X113.798 Y93.312 E0.03317
G1 X112.735 Y93.018 E0.03317
G1 X111.650 Y92.821 E0.03317
G1 X111.102 Y92.760 E0.01656
G1 X110.190 Y92.705 E0.02750
G1 X110.190 Y85.582 E0.21427
G1 X111.740 Y85.668 E0.04669
G1 X113.036 Y85.829 E0.03930
G1 X114.319 Y86.077 E0.03930
G1 X115.582 Y86.410 E0.03930
G1 X116.820 Y86.828 E0.03930
G1 X118.027 Y87.327 E0.03930
G1 X119.198 Y87.908 E0.03930
G1 X120.327 Y88.565 E0.03930
G1 X121.408 Y89.296 E0.03926
G1 X122.103 Y89.825 E0.02627
G1 X123.095 Y90.673 E0.03926
G1 X124.030 Y91.586 E0.03930
G1 X124.899 Y92.560 E0.03926
G1 X125.444 Y93.242 E0.02627
G1 X126.199 Y94.307 E0.03926
G1 X126.882 Y95.421 E0.03930
G1 X127.488 Y96.578 E0.03930
G1 X128.014 Y97.773 E0.03926
G1 X128.321 Y98.590 E0.02627
G1 X128.711 Y99.836 E0.03926
G1 X129.016 Y101.107 E0.03930
G1 X129.234 Y102.395 E0.03930
G1 X129.366 Y103.693 E0.03926
G1 X129.416 Y104.810 E0.03363
G1 X122.355 Y104.810 E0.21239
G1 X121.897 Y104.847 F7200.000
G1 F5760
G1 X122.240 Y103.898 E-0.31851
G1 F5760
G1 X122.179 Y103.350 E-0.19075
G1 F5760
G1 X122.049 Y102.638 E-0.25074
G1 E-0.04000 F2100.00000
G1 X109.810 Y100.203 F7200.000
G1 E0.80000 F2100.00000
G1 F840
G1 X109.251 Y100.269 E0.01692
G1 X108.830 Y100.355 E0.01294
G1 X108.418 Y100.479 E0.01293
G1 X108.019 Y100.639 E0.01293
G1 X107.636 Y100.834 E0.01293
G1 X107.272 Y101.063 E0.01293
G1 X106.930 Y101.323 E0.01293
G1 X106.613 Y101.613 E0.01293
G1 X106.323 Y101.930 E0.01293
G1 X106.063 Y102.272 E0.01293
G1 X105.834 Y102.636 E0.01293
G1 X105.639 Y103.019 E0.01293
G1 X105.479 Y103.418 E0.01293
G1 X105.355 Y103.830 E0.01293
G1 X105.269 Y104.251 E0.01295
G1 X105.203 Y104.810 E0.01692
G1 X98.084 Y104.810 E0.21412
G1 X98.138 Y103.933 E0.02643
G1 X98.198 Y103.399 E0.01617
G1 X98.388 Y102.350 E0.03207
G1 X98.673 Y101.320 E0.03215
G1 X99.048 Y100.319 E0.03215
G1 X99.512 Y99.356 E0.03215
G1 X100.060 Y98.439 E0.03215
G1 X100.688 Y97.575 E0.03211
G1 X101.208 Y96.965 E0.02411
G1 X101.580 Y96.577 E0.01618
G1 X102.367 Y95.857 E0.03207
G1 X103.215 Y95.211 E0.03207
G1 X103.664 Y94.915 E0.01618
G1 X104.357 Y94.511 E0.02411
G1 X105.319 Y94.048 E0.03211
G1 X106.320 Y93.673 E0.03215
G1 X107.350 Y93.388 E0.03215
G1 X108.401 Y93.198 E0.03215
G1 X109.462 Y93.102 E0.03204
G1 X109.810 Y93.090 E0.01047
G1 X109.810 Y100.143 E0.21214
G1 X109.848 Y100.601 F7200.000
G1 F5760
G1 X109.251 Y100.269 E-0.19839
G1 F5760
G1 X108.830 Y100.355 E-0.14905
G1 F5760
G1 X108.418 Y100.479 E-0.14886
G1 F5760
G1 X108.019 Y100.639 E-0.14886
G1 F5760
G1 X107.724 Y100.790 E-0.11484
G1 E-0.04000 F2100.00000
G1 X109.810 Y85.587 F7200.000
G1 E0.80000 F2100.00000
G1 F1260
G1 X109.810 Y92.705 E0.21412
G1 X108.898 Y92.760 E0.02750
G1 X108.350 Y92.821 E0.01656
G1 X107.265 Y93.018 E0.03317
G1 X106.202 Y93.312 E0.03317
G1 X105.170 Y93.699 E0.03317
G1 X104.176 Y94.178 E0.03317
G1 X103.230 Y94.743 E0.03317
G1 X102.338 Y95.391 E0.03314
G1 X101.707 Y95.929 E0.02495
G1 X101.310 Y96.310 E0.01655
G1 X100.566 Y97.124 E0.03317
G1 X100.213 Y97.567 E0.01703
G1 X99.743 Y98.230 E0.02447
G1 X99.178 Y99.176 E0.03314
G1 X98.699 Y100.170 E0.03317
G1 X98.312 Y101.202 E0.03317
G1 X98.018 Y102.265 E0.03317
G1 X97.821 Y103.350 E0.03317
G1 X97.760 Y103.898 E0.01657
G1 X97.705 Y104.810 E0.02750
G1 X90.584 Y104.810 E0.21419
G1 X90.634 Y103.694 E0.03359
G1 X90.712 Y102.827 E0.02620
G1 X90.829 Y101.964 E0.02620
G1 X90.985 Y101.105 E0.02624
G1 X91.289 Y99.837 E0.03923
G1 X91.540 Y99.002 E0.02624
G1 X91.828 Y98.180 E0.02620
G1 X92.152 Y97.371 E0.02620
G1 X92.512 Y96.578 E0.02620
G1 X92.908 Y95.802 E0.02620
G1 X93.337 Y95.045 E0.02620
G1 X93.801 Y94.307 E0.02620
G1 X94.297 Y93.591 E0.02620
