; generated by Slic3r 1.33.8.devel on 2018-07-01 at 17:29:44

; 

; external perimeters extrusion width = 0.60mm
; perimeters extrusion width = 0.43mm
; infill extrusion width = 0.70mm
; solid infill extrusion width = 0.70mm
; top infill extrusion width = 0.43mm
; first layer extrusion width = 0.42mm

M107
M115 U3.0.12 ; tell printer latest fw version
M83  ; extruder relative mode
M104 S215 ; set extruder temp
M140 S55 ; set bed temp
M190 S55 ; wait for bed temp
M109 S215 ; wait for extruder temp
G28 W ; home all without mesh bed level
G80 ; mesh bed leveling
G1 Y-3.0 F1000.0 ; go outside pritn area
G1 X60.0 E9.0  F1000.0 ; intro line
G1 X100.0 E12.5  F1000.0 ; intro line
; Filament gcode

G21 ; set units to millimeters
G90 ; use absolute coordinates
M83 ; use relative distances for extrusion
G1 E-0.80000 F2100.00000
G1 Z0.200 F7200.000
G1 X99.640 Y83.921 F7200.000
G1 E0.80000 F2100.00000
M204 S1000
G1 F2100
G1 X101.882 Y81.484 E0.09961
G1 X103.960 Y79.607 E0.08422
G1 X106.649 Y77.601 E0.10092
G1 X109.494 Y75.896 E0.09979
G1 X112.533 Y74.470 E0.10094
G1 X115.706 Y73.360 E0.10115
G1 X118.926 Y72.587 E0.09959
G1 X121.690 Y72.190 E0.08399
G1 X125.009 Y72.023 E0.09996
G1 X128.354 Y72.194 E0.10077
G1 X131.632 Y72.697 E0.09975
G1 X134.882 Y73.538 E0.10096
G1 X137.509 Y74.488 E0.08403
G1 X140.510 Y75.898 E0.09975
G1 X143.388 Y77.626 E0.10096
G1 X146.080 Y79.640 E0.10113
G1 X148.516 Y81.881 E0.09957
G1 X150.389 Y83.955 E0.08406
G1 X152.396 Y86.644 E0.10093
G1 X154.104 Y89.494 E0.09993
G1 X155.527 Y92.528 E0.10081
G1 X156.627 Y95.661 E0.09989
G1 X157.304 Y98.373 E0.08406
G1 X157.806 Y101.644 E0.09955
G1 X157.977 Y105.003 E0.10116
G1 X157.807 Y108.349 E0.10079
G1 X157.304 Y111.627 E0.09974
G1 X156.626 Y114.342 E0.08419
G1 X155.513 Y117.508 E0.10096
G1 X154.102 Y120.509 E0.09974
G1 X152.375 Y123.388 E0.10098
G1 X150.360 Y126.079 E0.10112
G1 X148.119 Y128.516 E0.09960
G1 X146.040 Y130.393 E0.08424
G1 X143.351 Y132.399 E0.10092
G1 X140.506 Y134.104 E0.09979
G1 X137.467 Y135.529 E0.10094
G1 X134.338 Y136.627 E0.09977
G1 X131.627 Y137.304 E0.08405
G1 X128.356 Y137.806 E0.09953
G1 X124.997 Y137.977 E0.10116
G1 X121.646 Y137.806 E0.10095
G1 X118.368 Y137.303 E0.09975
G1 X115.118 Y136.462 E0.10096
G1 X112.491 Y135.512 E0.08403
G1 X109.490 Y134.102 E0.09975
G1 X106.612 Y132.374 E0.10097
G1 X103.920 Y130.360 E0.10113
G1 X101.486 Y128.120 E0.09951
G1 X99.611 Y126.045 E0.08412
G1 X97.601 Y123.352 E0.10107
G1 X95.899 Y120.511 E0.09963
G1 X94.472 Y117.470 E0.10104
G1 X93.373 Y114.340 E0.09977
G1 X92.696 Y111.627 E0.08413
G1 X92.194 Y108.359 E0.09944
G1 X92.023 Y104.998 E0.10123
G1 X92.194 Y101.647 E0.10094
G1 X92.697 Y98.369 E0.09976
G1 X93.537 Y95.124 E0.10081
G1 X94.486 Y92.494 E0.08410
G1 X95.898 Y89.491 E0.09983
G1 X97.629 Y86.607 E0.10116
G1 X99.604 Y83.969 E0.09914
G1 F5760
G1 X101.086 Y82.351 E-0.76000
G1 E-0.04000 F2100.00000
G1 X100.707 Y84.854 F7200.000
G1 E0.80000 F2100.00000
G1 F2100
G1 X101.621 Y83.801 E0.04195
G1 X102.864 Y82.506 E0.05398
G1 X103.837 Y81.588 E0.04024
G1 X104.857 Y80.705 E0.04058
G1 X105.887 Y79.887 E0.03959
G1 X107.450 Y78.771 E0.05775
G1 X108.976 Y77.812 E0.05420
G1 X110.128 Y77.164 E0.03976
G1 X111.826 Y76.322 E0.05700
G1 X113.043 Y75.793 E0.03993
G1 X114.814 Y75.130 E0.05689
G1 X116.068 Y74.731 E0.03957
G1 X117.418 Y74.365 E0.04207
G1 X119.171 Y73.984 E0.05396
G1 X120.507 Y73.762 E0.04073
G1 X121.855 Y73.598 E0.04086
G1 X123.644 Y73.470 E0.05396
G1 X125.044 Y73.441 E0.04209
G1 X126.358 Y73.470 E0.03954
G1 X128.244 Y73.608 E0.05689
G1 X129.560 Y73.772 E0.03988
G1 X131.327 Y74.082 E0.05396
G1 X132.715 Y74.398 E0.04283
G1 X134.441 Y74.886 E0.05396
G1 X135.709 Y75.313 E0.04024
G1 X136.968 Y75.798 E0.04059
G1 X138.174 Y76.322 E0.03956
G1 X139.869 Y77.163 E0.05689
G1 X141.025 Y77.812 E0.03990
G1 X142.582 Y78.792 E0.05534
G1 X144.113 Y79.887 E0.05661
G1 X145.146 Y80.708 E0.03970
G1 X146.200 Y81.622 E0.04195
G1 X147.493 Y82.864 E0.05394
G1 X148.414 Y83.839 E0.04036
G1 X149.294 Y84.856 E0.04046
G1 X150.113 Y85.886 E0.03956
G1 X151.215 Y87.428 E0.05701
G1 X151.928 Y88.543 E0.03980
G1 X152.866 Y90.185 E0.05689
G1 X153.464 Y91.370 E0.03992
G1 X154.229 Y93.098 E0.05686
G1 X154.693 Y94.309 E0.03901
G1 X155.113 Y95.558 E0.03962
G1 X155.601 Y97.284 E0.05396
G1 X155.918 Y98.673 E0.04283
G1 X156.228 Y100.440 E0.05396
G1 X156.392 Y101.755 E0.03988
G1 X156.530 Y103.642 E0.05690
G1 X156.559 Y105.038 E0.04200
G1 X156.530 Y106.357 E0.03968
G1 X156.392 Y108.243 E0.05689
G1 X156.228 Y109.559 E0.03988
G1 X155.919 Y111.326 E0.05396
G1 X155.602 Y112.714 E0.04283
G1 X155.114 Y114.441 E0.05397
G1 X154.684 Y115.716 E0.04049
G1 X154.192 Y116.991 E0.04110
G1 X153.464 Y118.630 E0.05395
G1 X152.867 Y119.814 E0.03987
G1 X151.929 Y121.456 E0.05689
G1 X151.216 Y122.571 E0.03980
G1 X150.113 Y124.112 E0.05701
G1 X149.293 Y125.146 E0.03970
G1 X148.379 Y126.199 E0.04195
G1 X147.136 Y127.494 E0.05398
G1 X146.160 Y128.415 E0.04036
G1 X145.143 Y129.295 E0.04046
G1 X144.113 Y130.113 E0.03959
G1 X142.550 Y131.229 E0.05775
G1 X141.024 Y132.188 E0.05421
G1 X139.807 Y132.870 E0.04195
G1 X138.629 Y133.464 E0.03968
G1 X136.901 Y134.230 E0.05686
G1 X135.690 Y134.694 E0.03901
G1 X134.441 Y135.114 E0.03963
G1 X132.715 Y135.602 E0.05396
G1 X131.327 Y135.918 E0.04283
G1 X129.560 Y136.228 E0.05396
G1 X128.244 Y136.392 E0.03988
G1 X126.357 Y136.530 E0.05691
G1 X124.957 Y136.559 E0.04212
G1 X123.642 Y136.530 E0.03956
G1 X121.756 Y136.392 E0.05689
G1 X120.440 Y136.228 E0.03988
G1 X118.673 Y135.918 E0.05396
G1 X117.285 Y135.602 E0.04283
G1 X115.559 Y135.114 E0.05396
G1 X114.314 Y134.695 E0.03950
G1 X113.099 Y134.230 E0.03913
G1 X111.371 Y133.464 E0.05687
G1 X110.193 Y132.870 E0.03968
G1 X108.976 Y132.188 E0.04195
G1 X107.450 Y131.229 E0.05421
G1 X105.887 Y130.113 E0.05775
G1 X104.857 Y129.295 E0.03958
G1 X103.843 Y128.417 E0.04034
G1 X102.864 Y127.494 E0.04048
G1 X101.622 Y126.200 E0.05394
G1 X100.708 Y125.147 E0.04195
G1 X99.888 Y124.114 E0.03968
G1 X98.804 Y122.599 E0.05604
G1 X97.813 Y121.026 E0.05592
G1 X97.169 Y119.880 E0.03956
G1 X96.537 Y118.632 E0.04207
G1 X95.808 Y116.993 E0.05396
G1 X95.321 Y115.729 E0.04074
G1 X94.887 Y114.442 E0.04086
G1 X94.399 Y112.716 E0.05397
G1 X94.082 Y111.327 E0.04283
G1 X93.772 Y109.560 E0.05396
G1 X93.608 Y108.245 E0.03988
G1 X93.470 Y106.358 E0.05690
G1 X93.441 Y104.962 E0.04200
G1 X93.470 Y103.643 E0.03968
G1 X93.608 Y101.757 E0.05689
G1 X93.772 Y100.441 E0.03988
G1 X94.081 Y98.674 E0.05396
G1 X94.398 Y97.286 E0.04283
G1 X94.886 Y95.559 E0.05397
G1 X95.319 Y94.276 E0.04074
G1 X95.808 Y93.009 E0.04086
G1 X96.536 Y91.370 E0.05396
G1 X97.164 Y90.129 E0.04183
G1 X97.812 Y88.975 E0.03979
G1 X98.803 Y87.402 E0.05592
G1 X99.887 Y85.887 E0.05604
G1 X100.670 Y84.901 E0.03788
G1 X100.965 Y85.136 F7200.000
G1 F2100
G1 X101.897 Y84.058 E0.04284
G1 X103.133 Y82.771 E0.05369
G1 X104.093 Y81.865 E0.03970
G1 X105.095 Y80.998 E0.03986
G1 X106.111 Y80.191 E0.03903
G1 X107.655 Y79.087 E0.05710
G1 X109.172 Y78.134 E0.05389
G1 X110.308 Y77.496 E0.03919
G1 X111.989 Y76.662 E0.05642
G1 X113.189 Y76.141 E0.03936
G1 X114.942 Y75.485 E0.05631
G1 X116.178 Y75.092 E0.03902
G1 X117.503 Y74.733 E0.04128
G1 X119.246 Y74.354 E0.05367
G1 X120.556 Y74.136 E0.03995
G1 X121.887 Y73.974 E0.04031
G1 X123.667 Y73.847 E0.05368
G1 X125.039 Y73.818 E0.04130
G1 X126.335 Y73.847 E0.03899
G1 X128.202 Y73.982 E0.05631
G1 X129.499 Y74.144 E0.03931
G1 X131.257 Y74.452 E0.05368
G1 X132.617 Y74.763 E0.04196
G1 X134.334 Y75.248 E0.05368
G1 X135.585 Y75.669 E0.03970
G1 X136.822 Y76.146 E0.03987
G1 X138.011 Y76.662 E0.03901
G1 X139.688 Y77.494 E0.05630
G1 X140.828 Y78.134 E0.03933
G1 X142.367 Y79.102 E0.05469
G1 X143.890 Y80.191 E0.05630
G1 X144.909 Y81.001 E0.03914
G1 X145.942 Y81.897 E0.04115
G1 X147.229 Y83.132 E0.05365
G1 X148.137 Y84.095 E0.03982
G1 X149.002 Y85.094 E0.03974
G1 X149.809 Y86.110 E0.03902
G1 X150.900 Y87.635 E0.05643
G1 X151.603 Y88.734 E0.03923
G1 X152.532 Y90.359 E0.05631
G1 X153.121 Y91.527 E0.03935
G1 X153.879 Y93.238 E0.05629
G1 X154.337 Y94.433 E0.03852
G1 X154.752 Y95.665 E0.03909
G1 X155.237 Y97.382 E0.05368
G1 X155.548 Y98.742 E0.04196
G1 X155.856 Y100.500 E0.05368
G1 X156.017 Y101.797 E0.03931
G1 X156.153 Y103.664 E0.05632
G1 X156.182 Y105.034 E0.04119
G1 X156.153 Y106.334 E0.03913
G1 X156.018 Y108.201 E0.05631
G1 X155.856 Y109.498 E0.03931
G1 X155.548 Y111.256 E0.05368
G1 X155.238 Y112.616 E0.04196
G1 X154.752 Y114.334 E0.05368
G1 X154.328 Y115.592 E0.03995
G1 X153.846 Y116.842 E0.04031
G1 X153.121 Y118.473 E0.05367
G1 X152.532 Y119.639 E0.03931
G1 X151.604 Y121.265 E0.05631
G1 X150.901 Y122.363 E0.03923
G1 X149.810 Y123.889 E0.05643
G1 X149.000 Y124.908 E0.03914
G1 X148.103 Y125.942 E0.04116
G1 X146.867 Y127.229 E0.05369
G1 X145.904 Y128.137 E0.03982
G1 X144.905 Y129.002 E0.03974
G1 X143.889 Y129.809 E0.03903
G1 X142.345 Y130.913 E0.05710
G1 X140.827 Y131.866 E0.05390
G1 X139.634 Y132.535 E0.04116
G1 X138.472 Y133.121 E0.03913
G1 X136.761 Y133.879 E0.05629
G1 X135.566 Y134.338 E0.03852
G1 X134.334 Y134.752 E0.03909
G1 X132.617 Y135.237 E0.05368
G1 X131.257 Y135.548 E0.04196
G1 X129.499 Y135.856 E0.05368
G1 X128.202 Y136.018 E0.03931
G1 X126.335 Y136.153 E0.05632
G1 X124.962 Y136.182 E0.04131
G1 X123.665 Y136.153 E0.03901
G1 X121.798 Y136.018 E0.05631
G1 X120.501 Y135.856 E0.03931
G1 X118.743 Y135.548 E0.05368
G1 X117.383 Y135.237 E0.04196
G1 X115.666 Y134.752 E0.05368
G1 X114.438 Y134.339 E0.03897
G1 X113.239 Y133.879 E0.03863
G1 X111.528 Y133.121 E0.05629
G1 X110.366 Y132.535 E0.03913
G1 X109.173 Y131.866 E0.04116
G1 X107.655 Y130.913 E0.05390
G1 X106.111 Y129.809 E0.05710
G1 X105.095 Y129.002 E0.03903
G1 X104.093 Y128.135 E0.03986
G1 X103.133 Y127.229 E0.03970
G1 X101.898 Y125.943 E0.05365
G1 X101.001 Y124.909 E0.04115
G1 X100.192 Y123.891 E0.03913
G1 X99.120 Y122.394 E0.05539
G1 X98.135 Y120.829 E0.05561
G1 X97.499 Y119.699 E0.03901
G1 X96.880 Y118.474 E0.04127
G1 X96.155 Y116.844 E0.05367
G1 X95.677 Y115.605 E0.03995
G1 X95.248 Y114.335 E0.04031
G1 X94.763 Y112.618 E0.05368
G1 X94.452 Y111.258 E0.04196
G1 X94.144 Y109.500 E0.05368
G1 X93.983 Y108.203 E0.03931
G1 X93.847 Y106.336 E0.05632
G1 X93.818 Y104.966 E0.04119
G1 X93.847 Y103.666 E0.03913
G1 X93.982 Y101.799 E0.05631
G1 X94.144 Y100.502 E0.03931
G1 X94.452 Y98.744 E0.05368
G1 X94.762 Y97.384 E0.04196
G1 X95.248 Y95.666 E0.05368
G1 X95.672 Y94.408 E0.03995
G1 X96.154 Y93.158 E0.04031
G1 X96.879 Y91.527 E0.05367
G1 X97.495 Y90.310 E0.04103
G1 X98.134 Y89.172 E0.03925
G1 X99.112 Y87.617 E0.05527
G1 X100.191 Y86.111 E0.05573
G1 X100.928 Y85.183 E0.03565
G1 X101.223 Y85.417 F7200.000
G1 F2100
G1 X102.172 Y84.316 E0.04372
G1 X103.402 Y83.035 E0.05341
G1 X104.343 Y82.148 E0.03891
G1 X105.332 Y81.290 E0.03938
G1 X106.334 Y80.495 E0.03848
G1 X107.861 Y79.403 E0.05645
G1 X109.369 Y78.456 E0.05358
G1 X110.489 Y77.827 E0.03863
G1 X112.152 Y77.002 E0.05584
G1 X113.335 Y76.489 E0.03878
G1 X115.070 Y75.840 E0.05573
G1 X116.288 Y75.452 E0.03847
G1 X117.587 Y75.100 E0.04048
G1 X119.322 Y74.723 E0.05339
G1 X120.614 Y74.509 E0.03940
G1 X121.918 Y74.350 E0.03952
G1 X123.689 Y74.223 E0.05339
G1 X125.035 Y74.195 E0.04050
G1 X126.313 Y74.223 E0.03844
G1 X128.160 Y74.357 E0.05573
G1 X129.439 Y74.517 E0.03875
G1 X131.187 Y74.823 E0.05339
G1 X132.519 Y75.127 E0.04110
G1 X134.227 Y75.609 E0.05339
G1 X135.461 Y76.025 E0.03915
G1 X136.675 Y76.493 E0.03915
G1 X137.848 Y77.002 E0.03846
G1 X139.508 Y77.825 E0.05572
G1 X140.631 Y78.456 E0.03876
G1 X142.162 Y79.418 E0.05438
G1 X143.666 Y80.495 E0.05565
G1 X144.671 Y81.293 E0.03859
G1 X145.684 Y82.172 E0.04036
G1 X146.964 Y83.401 E0.05337
G1 X147.860 Y84.351 E0.03927
G1 X148.709 Y85.332 E0.03902
G1 X149.505 Y86.333 E0.03847
G1 X150.585 Y87.843 E0.05584
G1 X151.278 Y88.925 E0.03865
G1 X152.197 Y90.534 E0.05573
G1 X152.778 Y91.684 E0.03877
G1 X153.529 Y93.377 E0.05571
G1 X153.981 Y94.558 E0.03802
G1 X154.390 Y95.772 E0.03855
G1 X154.873 Y97.480 E0.05339
G1 X155.177 Y98.812 E0.04110
G1 X155.483 Y100.561 E0.05339
G1 X155.643 Y101.839 E0.03875
G1 X155.777 Y103.687 E0.05574
G1 X155.805 Y105.029 E0.04039
G1 X155.777 Y106.312 E0.03858
G1 X155.643 Y108.160 E0.05573
G1 X155.484 Y109.438 E0.03875
G1 X155.177 Y111.186 E0.05339
G1 X154.873 Y112.518 E0.04110
G1 X154.391 Y114.227 E0.05339
G1 X153.975 Y115.460 E0.03916
G1 X153.499 Y116.694 E0.03976
G1 X152.778 Y118.315 E0.05338
G1 X152.198 Y119.465 E0.03874
G1 X151.279 Y121.074 E0.05573
G1 X150.586 Y122.156 E0.03865
G1 X149.506 Y123.666 E0.05585
G1 X148.707 Y124.670 E0.03859
G1 X147.828 Y125.684 E0.04036
G1 X146.599 Y126.965 E0.05341
G1 X145.654 Y127.855 E0.03903
G1 X144.668 Y128.709 E0.03926
G1 X143.666 Y129.505 E0.03848
G1 X142.139 Y130.597 E0.05645
G1 X140.631 Y131.545 E0.05359
G1 X139.460 Y132.200 E0.04037
G1 X138.315 Y132.779 E0.03858
G1 X136.622 Y133.529 E0.05571
G1 X135.442 Y133.981 E0.03802
G1 X134.227 Y134.391 E0.03855
G1 X132.519 Y134.873 E0.05339
G1 X131.187 Y135.177 E0.04110
G1 X129.439 Y135.483 E0.05339
G1 X128.160 Y135.643 E0.03875
G1 X126.312 Y135.777 E0.05574
G1 X124.966 Y135.805 E0.04051
G1 X123.687 Y135.777 E0.03846
G1 X121.840 Y135.643 E0.05573
G1 X120.561 Y135.483 E0.03875
G1 X118.813 Y135.177 E0.05339
G1 X117.481 Y134.873 E0.04110
G1 X115.773 Y134.391 E0.05339
G1 X114.562 Y133.983 E0.03843
G1 X113.378 Y133.529 E0.03814
G1 X111.685 Y132.779 E0.05571
G1 X110.540 Y132.200 E0.03858
G1 X109.369 Y131.545 E0.04036
G1 X107.861 Y130.597 E0.05359
G1 X106.334 Y129.505 E0.05645
G1 X105.332 Y128.710 E0.03848
G1 X104.349 Y127.858 E0.03914
G1 X103.402 Y126.965 E0.03915
G1 X102.173 Y125.685 E0.05337
G1 X101.294 Y124.671 E0.04036
G1 X100.495 Y123.667 E0.03858
G1 X99.430 Y122.179 E0.05508
G1 X98.456 Y120.632 E0.05496
G1 X97.830 Y119.518 E0.03846
G1 X97.222 Y118.317 E0.04048
G1 X96.501 Y116.695 E0.05339
G1 X96.033 Y115.481 E0.03916
G1 X95.610 Y114.228 E0.03976
G1 X95.127 Y112.520 E0.05340
G1 X94.823 Y111.188 E0.04110
G1 X94.517 Y109.439 E0.05339
G1 X94.357 Y108.161 E0.03875
G1 X94.223 Y106.313 E0.05574
G1 X94.195 Y104.971 E0.04039
G1 X94.223 Y103.688 E0.03858
G1 X94.357 Y101.840 E0.05573
G1 X94.516 Y100.562 E0.03875
G1 X94.823 Y98.814 E0.05339
G1 X95.127 Y97.482 E0.04110
G1 X95.609 Y95.773 E0.05339
G1 X96.025 Y94.540 E0.03916
G1 X96.501 Y93.306 E0.03976
G1 X97.222 Y91.685 E0.05339
G1 X97.826 Y90.491 E0.04024
G1 X98.455 Y89.369 E0.03870
G1 X99.429 Y87.823 E0.05496
G1 X100.494 Y86.334 E0.05508
G1 X101.186 Y85.464 E0.03341
G1 X101.481 Y85.699 F7200.000
G1 F2100
G1 X102.447 Y84.574 E0.04461
G1 X103.670 Y83.300 E0.05312
G1 X104.598 Y82.425 E0.03837
G1 X105.570 Y81.583 E0.03867
G1 X106.557 Y80.798 E0.03793
G1 X108.066 Y79.719 E0.05580
G1 X109.566 Y78.777 E0.05327
G1 X110.669 Y78.158 E0.03806
G1 X112.315 Y77.342 E0.05526
G1 X113.480 Y76.837 E0.03820
G1 X115.197 Y76.194 E0.05515
G1 X116.399 Y75.813 E0.03792
G1 X117.672 Y75.468 E0.03969
G1 X119.397 Y75.092 E0.05310
G1 X120.672 Y74.881 E0.03885
G1 X121.950 Y74.725 E0.03874
G1 X123.711 Y74.599 E0.05311
G1 X125.031 Y74.572 E0.03971
G1 X126.290 Y74.600 E0.03789
G1 X128.119 Y74.732 E0.05515
G1 X129.378 Y74.889 E0.03818
G1 X131.117 Y75.193 E0.05311
G1 X132.421 Y75.491 E0.04023
G1 X134.120 Y75.971 E0.05311
G1 X135.329 Y76.379 E0.03837
G1 X136.529 Y76.841 E0.03867
G1 X137.685 Y77.342 E0.03791
G1 X139.328 Y78.156 E0.05514
G1 X140.435 Y78.777 E0.03819
G1 X141.956 Y79.734 E0.05407
G1 X143.443 Y80.799 E0.05500
G1 X144.433 Y81.586 E0.03804
G1 X145.427 Y82.448 E0.03957
G1 X146.700 Y83.670 E0.05308
G1 X147.583 Y84.607 E0.03873
G1 X148.416 Y85.570 E0.03831
G1 X149.201 Y86.556 E0.03792
G1 X150.270 Y88.050 E0.05526
G1 X150.953 Y89.116 E0.03808
G1 X151.863 Y90.708 E0.05515
G1 X152.435 Y91.841 E0.03820
G1 X153.178 Y93.517 E0.05513
G1 X153.625 Y94.682 E0.03752
G1 X154.029 Y95.879 E0.03801
G1 X154.509 Y97.578 E0.05311
G1 X154.806 Y98.882 E0.04023
G1 X155.111 Y100.621 E0.05311
G1 X155.268 Y101.881 E0.03818
G1 X155.400 Y103.709 E0.05515
G1 X155.428 Y105.025 E0.03959
G1 X155.400 Y106.289 E0.03803
G1 X155.268 Y108.118 E0.05515
G1 X155.111 Y109.377 E0.03818
G1 X154.807 Y111.116 E0.05311
G1 X154.509 Y112.420 E0.04023
G1 X154.029 Y114.119 E0.05311
G1 X153.619 Y115.336 E0.03861
