; generated by Slic3r 1.33.8.devel on 2018-07-08 at 10:22:40

; 

; external perimeters extrusion width = 0.60mm
; perimeters extrusion width = 0.43mm
; infill extrusion width = 0.70mm
; solid infill extrusion width = 0.70mm
; top infill extrusion width = 0.43mm
; first layer extrusion width = 0.42mm

M107
M115 U3.0.12 ; tell printer latest fw version
M83  ; extruder relative mode
M104 S215 ; set extruder temp
M140 S55 ; set bed temp
M190 S55 ; wait for bed temp
M109 S215 ; wait for extruder temp
G28 W ; home all without mesh bed level
G80 ; mesh bed leveling
G1 Y-3.0 F1000.0 ; go outside pritn area
G1 X60.0 E9.0  F1000.0 ; intro line
G1 X100.0 E12.5  F1000.0 ; intro line
; Filament gcode

G21 ; set units to millimeters
G90 ; use absolute coordinates
M83 ; use relative distances for extrusion
G1 E-0.80000 F2100.00000
G1 Z0.200 F7200.000
G1 X72.227 Y93.870 F7200.000
G1 E0.80000 F2100.00000
M204 S1000
G1 F2100
G1 X177.329 Y93.828 E3.16144
G1 X178.224 Y94.004 E0.02744
G1 X178.989 Y94.508 E0.02755
G1 X179.507 Y95.263 E0.02755
G1 X179.702 Y96.158 E0.02755
G1 X179.691 Y114.023 E0.53738
G1 X179.499 Y114.757 E0.02282
G1 X179.082 Y115.396 E0.02293
G1 X178.489 Y115.868 E0.02282
G1 X177.773 Y116.130 E0.02293
G1 X72.633 Y116.172 E3.16259
G1 X71.840 Y116.021 E0.02429
G1 X71.143 Y115.613 E0.02429
G1 X70.623 Y114.995 E0.02429
G1 X70.340 Y114.239 E0.02429
G1 X70.308 Y95.988 E0.54899
G1 X70.498 Y95.250 E0.02293
G1 X70.912 Y94.610 E0.02293
G1 X71.508 Y94.134 E0.02293
G1 X72.171 Y93.891 E0.02124
G1 F5760
G1 X74.365 Y93.890 E-0.76000
G1 E-0.04000 F2100.00000
G1 X73.262 Y97.417 F7200.000
G1 E0.80000 F2100.00000
G1 F840
G1 X76.738 Y97.417 E0.10455
G1 X76.738 Y112.583 E0.45619
G1 X73.262 Y112.583 E0.10455
G1 X73.262 Y97.477 E0.45438
G1 X72.885 Y97.040 F7200.000
G1 F840
G1 X77.115 Y97.040 E0.12724
G1 X77.115 Y112.960 E0.47887
G1 X72.885 Y112.960 E0.12724
G1 X72.885 Y97.100 E0.47707
G1 X73.247 Y97.209 F7200.000
G1 F5760
G1 X75.079 Y97.069 E-0.76000
G1 E-0.04000 F2100.00000
G1 X76.625 Y98.298 F7200.000
G1 E0.80000 F2100.00000
G1 F2520
G1 X76.026 Y97.700 E0.02565
G1 X75.489 Y97.700 E0.01628
G1 X76.455 Y98.666 E0.04141
G1 X76.455 Y99.203 E0.01628
G1 X74.952 Y97.700 E0.06443
G1 X74.415 Y97.700 E0.01628
G1 X76.455 Y99.740 E0.08746
G1 X76.455 Y100.277 E0.01628
G1 X73.878 Y97.700 E0.11049
G1 X73.545 Y97.700 E0.01008
G1 X73.545 Y97.904 E0.00620
G1 X76.455 Y100.815 E0.12475
G1 X76.455 Y101.352 E0.01628
G1 X73.545 Y98.442 E0.12475
G1 X73.545 Y98.979 E0.01628
G1 X76.455 Y101.889 E0.12475
G1 X76.455 Y102.426 E0.01628
G1 X73.545 Y99.516 E0.12475
G1 X73.545 Y100.053 E0.01628
G1 X76.455 Y102.963 E0.12475
G1 X76.455 Y103.501 E0.01628
G1 X73.545 Y100.590 E0.12475
G1 X73.545 Y101.128 E0.01628
G1 X76.455 Y104.038 E0.12475
G1 X76.455 Y104.575 E0.01628
G1 X73.545 Y101.665 E0.12475
G1 X73.545 Y102.202 E0.01628
G1 X76.455 Y105.112 E0.12475
G1 X76.455 Y105.649 E0.01628
G1 X73.545 Y102.739 E0.12475
G1 X73.545 Y103.276 E0.01628
G1 X76.455 Y106.187 E0.12475
G1 X76.455 Y106.724 E0.01628
G1 X73.545 Y103.814 E0.12475
G1 X73.545 Y104.351 E0.01628
G1 X76.455 Y107.261 E0.12475
G1 X76.455 Y107.798 E0.01628
G1 X73.545 Y104.888 E0.12475
G1 X73.545 Y105.425 E0.01628
G1 X76.455 Y108.335 E0.12475
G1 X76.455 Y108.873 E0.01628
G1 X73.545 Y105.962 E0.12475
G1 X73.545 Y106.500 E0.01628
G1 X76.455 Y109.410 E0.12475
G1 X76.455 Y109.947 E0.01628
G1 X73.545 Y107.037 E0.12475
G1 X73.545 Y107.574 E0.01628
G1 X76.455 Y110.484 E0.12475
G1 X76.455 Y111.021 E0.01628
G1 X73.545 Y108.111 E0.12475
G1 X73.545 Y108.648 E0.01628
G1 X76.455 Y111.559 E0.12475
G1 X76.455 Y112.096 E0.01628
G1 X73.545 Y109.185 E0.12475
G1 X73.545 Y109.723 E0.01628
G1 X76.122 Y112.300 E0.11048
G1 X75.585 Y112.300 E0.01628
G1 X73.545 Y110.260 E0.08746
G1 X73.545 Y110.797 E0.01628
G1 X75.048 Y112.300 E0.06443
G1 X74.511 Y112.300 E0.01628
G1 X73.545 Y111.334 E0.04140
G1 X73.545 Y111.871 E0.01628
G1 X74.143 Y112.470 E0.02565
G1 F5760
G1 X73.545 Y111.871 E-0.29308
G1 F5760
G1 X73.545 Y111.334 E-0.18606
G1 F5760
G1 X74.118 Y111.908 E-0.28086
G1 E-0.04000 F2100.00000
G1 X83.262 Y112.470 F7200.000
G1 E0.80000 F2100.00000
G1 F840
G1 X83.262 Y97.417 E0.45278
G1 X86.738 Y97.417 E0.10455
G1 X86.738 Y100.474 E0.09194
G1 X86.513 Y100.633 E0.00828
G1 X85.961 Y101.138 E0.02252
G1 X85.479 Y101.715 E0.02262
G1 X85.079 Y102.352 E0.02262
G1 X84.771 Y103.030 E0.02242
G1 X84.612 Y103.520 E0.01548
G1 X84.462 Y104.250 E0.02242
G1 X84.412 Y105.000 E0.02262
G1 X84.462 Y105.750 E0.02262
G1 X84.612 Y106.480 E0.02242
G1 X84.771 Y106.970 E0.01548
G1 X85.079 Y107.648 E0.02242
G1 X85.479 Y108.285 E0.02262
G1 X85.961 Y108.862 E0.02262
G1 X86.513 Y109.367 E0.02252
G1 X86.738 Y109.526 E0.00828
G1 X86.738 Y112.583 E0.09194
G1 X83.262 Y112.583 E0.10455
G1 X83.262 Y112.530 E0.00160
G1 X82.885 Y112.960 F7200.000
G1 F1260
G1 X82.885 Y97.040 E0.47887
G1 X87.115 Y97.040 E0.12724
G1 X87.115 Y100.669 E0.10915
G1 X86.751 Y100.927 E0.01344
G1 X86.234 Y101.399 E0.02105
G1 X85.785 Y101.937 E0.02109
G1 X85.412 Y102.531 E0.02109
G1 X85.123 Y103.167 E0.02102
G1 X84.977 Y103.616 E0.01420
G1 X84.837 Y104.301 E0.02102
G1 X84.790 Y105.000 E0.02109
G1 X84.837 Y105.699 E0.02109
G1 X84.977 Y106.384 E0.02102
G1 X85.123 Y106.833 E0.01420
G1 X85.412 Y107.469 E0.02102
G1 X85.785 Y108.063 E0.02109
G1 X86.234 Y108.601 E0.02109
G1 X86.751 Y109.073 E0.02105
G1 X87.115 Y109.331 E0.01344
G1 X87.115 Y112.960 E0.10915
G1 X82.945 Y112.960 E0.12543
G1 X82.998 Y112.576 F7200.000
G1 F5760
G1 X82.937 Y110.766 E-0.76000
G1 E-0.04000 F2100.00000
G1 X84.143 Y112.470 F7200.000
G1 E0.80000 F2100.00000
G1 F2520
G1 X83.545 Y111.871 E0.02565
G1 X83.545 Y111.334 E0.01628
G1 X84.511 Y112.300 E0.04140
G1 X85.048 Y112.300 E0.01628
G1 X83.545 Y110.797 E0.06443
G1 X83.545 Y110.260 E0.01628
G1 X85.585 Y112.300 E0.08746
G1 X86.122 Y112.300 E0.01628
G1 X83.545 Y109.723 E0.11048
G1 X83.545 Y109.185 E0.01628
G1 X86.455 Y112.096 E0.12475
G1 X86.455 Y111.559 E0.01628
G1 X83.545 Y108.648 E0.12475
G1 X83.545 Y108.111 E0.01628
G1 X86.455 Y111.021 E0.12475
G1 X86.455 Y110.484 E0.01628
G1 X83.545 Y107.574 E0.12475
G1 X83.545 Y107.037 E0.01628
G1 X86.625 Y110.117 E0.13202
G1 F5760
G1 X85.073 Y108.565 E-0.76000
G1 E-0.04000 F2100.00000
G1 X85.371 Y108.326 F7200.000
G1 E0.80000 F2100.00000
G1 F2520
G1 X83.545 Y106.500 E0.07827
G1 X83.545 Y105.962 E0.01628
G1 X84.435 Y106.853 E0.03817
G1 X84.338 Y106.553 E0.00957
G1 X84.252 Y106.132 E0.01301
G1 X83.545 Y105.425 E0.03030
G1 X83.545 Y104.888 E0.01628
G1 X84.162 Y105.505 E0.02646
G1 X84.132 Y104.938 E0.01721
G1 X83.545 Y104.351 E0.02518
G1 X83.545 Y103.814 E0.01628
G1 X84.166 Y104.435 E0.02663
G1 X84.181 Y104.212 E0.00678
G1 X84.232 Y103.964 E0.00768
G1 X83.545 Y103.276 E0.02946
G1 X83.545 Y102.739 E0.01628
G1 X84.323 Y103.518 E0.03337
G1 X84.449 Y103.106 E0.01305
G1 X83.545 Y102.202 E0.03875
G1 X83.545 Y101.665 E0.01628
G1 X84.601 Y102.721 E0.04526
G1 X84.769 Y102.351 E0.01230
G1 X83.545 Y101.128 E0.05245
G1 X83.545 Y100.590 E0.01628
G1 X84.962 Y102.007 E0.06073
G1 X85.169 Y101.677 E0.01181
G1 X83.545 Y100.053 E0.06961
G1 X83.545 Y99.516 E0.01628
G1 X85.399 Y101.370 E0.07947
G1 X85.643 Y101.077 E0.01156
G1 X83.545 Y98.979 E0.08995
G1 X83.545 Y98.442 E0.01628
G1 X85.907 Y100.804 E0.10126
G1 X86.188 Y100.547 E0.01153
G1 X83.545 Y97.904 E0.11329
G1 X83.545 Y97.700 E0.00620
G1 X83.878 Y97.700 E0.01008
G1 X86.455 Y100.277 E0.11049
G1 X86.455 Y99.740 E0.01628
G1 X84.415 Y97.700 E0.08746
G1 X84.952 Y97.700 E0.01628
G1 X86.455 Y99.203 E0.06443
G1 X86.455 Y98.666 E0.01628
G1 X85.489 Y97.700 E0.04141
G1 X86.026 Y97.700 E0.01628
G1 X86.625 Y98.298 E0.02565
G1 F5760
G1 X86.026 Y97.700 E-0.29314
G1 F5760
G1 X85.489 Y97.700 E-0.18606
G1 F5760
G1 X86.062 Y98.273 E-0.28080
G1 E-0.04000 F2100.00000
G1 X93.262 Y97.417 F7200.000
G1 E0.80000 F2100.00000
G1 F840
G1 X96.738 Y97.417 E0.10455
G1 X96.738 Y112.583 E0.45619
G1 X93.262 Y112.583 E0.10455
G1 X93.262 Y109.526 E0.09194
G1 X93.487 Y109.367 E0.00828
G1 X94.039 Y108.862 E0.02252
G1 X94.521 Y108.285 E0.02262
G1 X94.921 Y107.648 E0.02262
G1 X95.229 Y106.970 E0.02242
G1 X95.388 Y106.480 E0.01548
G1 X95.538 Y105.750 E0.02242
G1 X95.588 Y105.000 E0.02262
G1 X95.538 Y104.250 E0.02261
G1 X95.390 Y103.525 E0.02226
G1 X95.229 Y103.031 E0.01563
G1 X94.921 Y102.352 E0.02242
G1 X94.521 Y101.715 E0.02262
G1 X94.039 Y101.138 E0.02262
G1 X93.487 Y100.633 E0.02252
G1 X93.262 Y100.474 E0.00828
G1 X93.262 Y97.477 E0.09014
G1 X92.885 Y97.040 F7200.000
G1 F1260
G1 X97.115 Y97.040 E0.12724
G1 X97.115 Y112.960 E0.47887
G1 X92.885 Y112.960 E0.12724
G1 X92.885 Y109.331 E0.10915
G1 X93.249 Y109.073 E0.01344
G1 X93.766 Y108.601 E0.02105
G1 X94.215 Y108.063 E0.02109
G1 X94.588 Y107.469 E0.02109
G1 X94.877 Y106.833 E0.02102
G1 X95.023 Y106.384 E0.01420
G1 X95.163 Y105.699 E0.02101
G1 X95.210 Y105.000 E0.02109
G1 X95.163 Y104.301 E0.02109
G1 X95.024 Y103.621 E0.02086
G1 X94.877 Y103.167 E0.01436
G1 X94.588 Y102.531 E0.02102
G1 X94.215 Y101.937 E0.02109
G1 X93.766 Y101.399 E0.02109
G1 X93.249 Y100.927 E0.02105
G1 X92.885 Y100.669 E0.01344
G1 X92.885 Y97.100 E0.10734
G1 X93.237 Y97.229 F7200.000
G1 F5760
G1 X95.079 Y97.069 E-0.76000
G1 E-0.04000 F2100.00000
G1 X96.625 Y98.298 F7200.000
G1 E0.80000 F2100.00000
G1 F2520
G1 X96.026 Y97.700 E0.02565
G1 X95.489 Y97.700 E0.01628
G1 X96.455 Y98.666 E0.04141
G1 X96.455 Y99.203 E0.01628
G1 X94.952 Y97.700 E0.06443
G1 X94.415 Y97.700 E0.01628
G1 X96.455 Y99.740 E0.08746
G1 X96.455 Y100.277 E0.01628
G1 X93.878 Y97.700 E0.11049
G1 X93.545 Y97.700 E0.01008
G1 X93.545 Y97.904 E0.00620
G1 X96.455 Y100.815 E0.12475
G1 X96.455 Y101.352 E0.01628
G1 X93.545 Y98.442 E0.12475
G1 X93.545 Y98.979 E0.01628
G1 X96.455 Y101.889 E0.12475
G1 X96.455 Y102.426 E0.01628
G1 X93.545 Y99.516 E0.12475
G1 X93.545 Y100.053 E0.01628
G1 X96.455 Y102.963 E0.12475
G1 X96.455 Y103.501 E0.01628
G1 X95.169 Y102.214 E0.05515
G1 X95.494 Y102.928 E0.02378
G1 X95.564 Y103.147 E0.00698
G1 X96.455 Y104.038 E0.03818
G1 X96.455 Y104.575 E0.01628
G1 X95.748 Y103.868 E0.03029
G1 X95.819 Y104.212 E0.01063
G1 X95.838 Y104.495 E0.00859
G1 X96.455 Y105.112 E0.02646
G1 X96.455 Y105.649 E0.01628
G1 X95.868 Y105.062 E0.02518
G1 X95.834 Y105.565 E0.01529
G1 X96.455 Y106.187 E0.02664
G1 X96.455 Y106.724 E0.01628
G1 X95.768 Y106.036 E0.02946
G1 X95.677 Y106.482 E0.01380
G1 X96.455 Y107.261 E0.03337
G1 X96.455 Y107.798 E0.01628
G1 X95.551 Y106.894 E0.03875
G1 X95.399 Y107.279 E0.01255
G1 X96.455 Y108.335 E0.04526
G1 X96.455 Y108.873 E0.01628
G1 X95.231 Y107.649 E0.05246
G1 X95.038 Y107.993 E0.01196
G1 X96.455 Y109.410 E0.06073
G1 X96.455 Y109.947 E0.01628
G1 X94.831 Y108.323 E0.06961
G1 X94.601 Y108.630 E0.01163
G1 X96.455 Y110.484 E0.07947
G1 X96.455 Y111.021 E0.01628
G1 X94.357 Y108.923 E0.08995
G1 X94.244 Y109.058 E0.00532
G1 X94.093 Y109.196 E0.00622
G1 X96.455 Y111.559 E0.10127
G1 X96.455 Y112.096 E0.01628
G1 X93.812 Y109.453 E0.11330
G1 X93.545 Y109.672 E0.01049
G1 X93.545 Y109.723 E0.00152
G1 X96.122 Y112.300 E0.11048
G1 X95.585 Y112.300 E0.01628
G1 X93.545 Y110.260 E0.08746
G1 X93.545 Y110.797 E0.01628
G1 X95.048 Y112.300 E0.06443
G1 X94.511 Y112.300 E0.01628
G1 X93.545 Y111.334 E0.04140
G1 X93.545 Y111.871 E0.01628
G1 X94.143 Y112.470 E0.02565
G1 F5760
G1 X93.545 Y111.871 E-0.29308
G1 F5760
G1 X93.545 Y111.334 E-0.18606
G1 F5760
G1 X94.118 Y111.908 E-0.28086
G1 E-0.04000 F2100.00000
G1 X103.262 Y112.470 F7200.000
G1 E0.80000 F2100.00000
G1 F840
G1 X103.262 Y97.417 E0.45278
G1 X106.738 Y97.417 E0.10455
G1 X106.738 Y112.583 E0.45619
G1 X103.262 Y112.583 E0.10455
G1 X103.262 Y112.530 E0.00160
G1 X102.885 Y112.960 F7200.000
G1 F840
G1 X102.885 Y97.040 E0.47887
G1 X107.115 Y97.040 E0.12724
G1 X107.115 Y112.960 E0.47887
G1 X102.945 Y112.960 E0.12543
G1 X102.920 Y112.561 F7200.000
G1 F5760
G1 X102.937 Y110.766 E-0.76000
G1 E-0.04000 F2100.00000
G1 X104.143 Y112.470 F7200.000
G1 E0.80000 F2100.00000
G1 F2520
G1 X103.545 Y111.871 E0.02565
G1 X103.545 Y111.334 E0.01628
G1 X104.511 Y112.300 E0.04140
G1 X105.048 Y112.300 E0.01628
G1 X103.545 Y110.797 E0.06443
G1 X103.545 Y110.260 E0.01628
G1 X105.585 Y112.300 E0.08746
G1 X106.122 Y112.300 E0.01628
G1 X103.545 Y109.723 E0.11048
G1 X103.545 Y109.185 E0.01628
G1 X106.455 Y112.096 E0.12475
G1 X106.455 Y111.559 E0.01628
G1 X103.545 Y108.648 E0.12475
G1 X103.545 Y108.111 E0.01628
G1 X106.455 Y111.021 E0.12475
G1 X106.455 Y110.484 E0.01628
G1 X103.545 Y107.574 E0.12475
G1 X103.545 Y107.037 E0.01628
G1 X106.455 Y109.947 E0.12475
G1 X106.455 Y109.410 E0.01628
G1 X103.545 Y106.500 E0.12475
G1 X103.545 Y105.962 E0.01628
G1 X106.455 Y108.873 E0.12475
G1 X106.455 Y108.335 E0.01628
G1 X103.545 Y105.425 E0.12475
G1 X103.545 Y104.888 E0.01628
G1 X106.455 Y107.798 E0.12475
G1 X106.455 Y107.261 E0.01628
G1 X103.545 Y104.351 E0.12475
G1 X103.545 Y103.814 E0.01628
G1 X106.455 Y106.724 E0.12475
G1 X106.455 Y106.187 E0.01628
G1 X103.545 Y103.276 E0.12475
G1 X103.545 Y102.739 E0.01628
G1 X106.455 Y105.649 E0.12475
G1 X106.455 Y105.112 E0.01628
G1 X103.545 Y102.202 E0.12475
G1 X103.545 Y101.665 E0.01628
G1 X106.455 Y104.575 E0.12475
G1 X106.455 Y104.038 E0.01628
G1 X103.545 Y101.128 E0.12475
G1 X103.545 Y100.590 E0.01628
G1 X106.455 Y103.501 E0.12475
G1 X106.455 Y102.963 E0.01628
G1 X103.545 Y100.053 E0.12475
G1 X103.545 Y99.516 E0.01628
G1 X106.455 Y102.426 E0.12475
G1 X106.455 Y101.889 E0.01628
G1 X103.545 Y98.979 E0.12475
G1 X103.545 Y98.442 E0.01628
G1 X106.455 Y101.352 E0.12475
G1 X106.455 Y100.815 E0.01628
G1 X103.545 Y97.904 E0.12475
G1 X103.545 Y97.700 E0.00620
G1 X103.878 Y97.700 E0.01008
G1 X106.455 Y100.277 E0.11049
G1 X106.455 Y99.740 E0.01628
G1 X104.415 Y97.700 E0.08746
G1 X104.952 Y97.700 E0.01628
G1 X106.455 Y99.203 E0.06443
G1 X106.455 Y98.666 E0.01628
G1 X105.489 Y97.700 E0.04141
G1 X106.026 Y97.700 E0.01628
G1 X106.625 Y98.298 E0.02565
G1 F5760
G1 X106.026 Y97.700 E-0.29314
G1 F5760
G1 X105.489 Y97.700 E-0.18606
G1 F5760
G1 X106.062 Y98.273 E-0.28080
G1 E-0.04000 F2100.00000
G1 X113.262 Y97.417 F7200.000
G1 E0.80000 F2100.00000
G1 F840
G1 X116.738 Y97.417 E0.10455
G1 X116.738 Y112.583 E0.45619
G1 X113.262 Y112.583 E0.10455
G1 X113.262 Y97.477 E0.45438
G1 X112.885 Y97.040 F7200.000
G1 F840
G1 X117.115 Y97.040 E0.12724
G1 X117.115 Y112.960 E0.47887
G1 X112.885 Y112.960 E0.12724
G1 X112.885 Y97.100 E0.47707
G1 X113.247 Y97.209 F7200.000
G1 F5760
G1 X115.079 Y97.069 E-0.76000
G1 E-0.04000 F2100.00000
G1 X116.625 Y98.298 F7200.000
G1 E0.80000 F2100.00000
G1 F2520
G1 X116.026 Y97.700 E0.02565
G1 X115.489 Y97.700 E0.01628
G1 X116.455 Y98.666 E0.04141
G1 X116.455 Y99.203 E0.01628
G1 X114.952 Y97.700 E0.06443
G1 X114.415 Y97.700 E0.01628
G1 X116.455 Y99.740 E0.08746
G1 X116.455 Y100.277 E0.01628
G1 X113.878 Y97.700 E0.11049
G1 X113.545 Y97.700 E0.01008
G1 X113.545 Y97.904 E0.00620
G1 X116.455 Y100.815 E0.12475
G1 X116.455 Y101.352 E0.01628
G1 X113.545 Y98.442 E0.12475
G1 X113.545 Y98.979 E0.01628
G1 X116.455 Y101.889 E0.12475
G1 X116.455 Y102.426 E0.01628
G1 X113.545 Y99.516 E0.12475
G1 X113.545 Y100.053 E0.01628
G1 X116.455 Y102.963 E0.12475
G1 X116.455 Y103.501 E0.01628
G1 X113.545 Y100.590 E0.12475
G1 X113.545 Y101.128 E0.01628
G1 X116.455 Y104.038 E0.12475
G1 X116.455 Y104.575 E0.01628
G1 X113.545 Y101.665 E0.12475
G1 X113.545 Y102.202 E0.01628
G1 X116.455 Y105.112 E0.12475
G1 X116.455 Y105.649 E0.01628
G1 X113.545 Y102.739 E0.12475
G1 X113.545 Y103.276 E0.01628
G1 X116.455 Y106.187 E0.12475
G1 X116.455 Y106.724 E0.01628
G1 X113.545 Y103.814 E0.12475
G1 X113.545 Y104.351 E0.01628
G1 X116.455 Y107.261 E0.12475
G1 X116.455 Y107.798 E0.01628
G1 X113.545 Y104.888 E0.12475
G1 X113.545 Y105.425 E0.01628
G1 X116.455 Y108.335 E0.12475
G1 X116.455 Y108.873 E0.01628
G1 X113.545 Y105.962 E0.12475
G1 X113.545 Y106.500 E0.01628
G1 X116.455 Y109.410 E0.12475
G1 X116.455 Y109.947 E0.01628
G1 X113.545 Y107.037 E0.12475
G1 X113.545 Y107.574 E0.01628
G1 X116.455 Y110.484 E0.12475
G1 X116.455 Y111.021 E0.01628
G1 X113.545 Y108.111 E0.12475
G1 X113.545 Y108.648 E0.01628
G1 X116.455 Y111.559 E0.12475
G1 X116.455 Y112.096 E0.01628
G1 X113.545 Y109.185 E0.12475
G1 X113.545 Y109.723 E0.01628
G1 X116.122 Y112.300 E0.11048
