; generated by Slic3r 1.33.8.devel on 2017-12-03 at 08:55:29

; 

; external perimeters extrusion width = 0.60mm
; perimeters extrusion width = 0.43mm
; infill extrusion width = 0.70mm
; solid infill extrusion width = 0.70mm
; top infill extrusion width = 0.43mm
; support material extrusion width = 0.35mm
; first layer extrusion width = 0.42mm

M107
M115 U3.0.12 ; tell printer latest fw version
M83  ; extruder relative mode
M104 S215 ; set extruder temp
M140 S55 ; set bed temp
M190 S55 ; wait for bed temp
M109 S215 ; wait for extruder temp
G28 W ; home all without mesh bed level
G80 ; mesh bed leveling
G1 Y-3.0 F1000.0 ; go outside pritn area
G1 X60.0 E9.0  F1000.0 ; intro line
G1 X100.0 E12.5  F1000.0 ; intro line
; Filament gcode

G21 ; set units to millimeters
G90 ; use absolute coordinates
M83 ; use relative distances for extrusion
G1 E-0.80000 F2100.00000
G1 Z0.200 F7200.000
G1 X109.042 Y96.360 F7200.000
G1 E0.80000 F2100.00000
M204 S1000
G1 F2077
G1 X109.439 Y95.408 E0.03102
G1 X111.113 Y93.011 E0.08796
G1 X111.579 Y92.522 E0.02030
G1 X114.832 Y90.022 E0.12342
G1 X119.813 Y87.525 E0.16759
G1 X120.751 Y87.347 E0.02871
G1 X132.873 Y87.347 E0.36463
G1 X133.886 Y87.540 E0.03102
G1 X134.757 Y88.092 E0.03102
G1 X137.278 Y90.669 E0.10845
G1 X137.653 Y91.303 E0.02213
G1 X137.846 Y92.008 E0.02201
G1 X137.871 Y123.471 E0.94640
G1 X137.812 Y124.033 E0.01699
G1 X137.523 Y124.806 E0.02482
G1 X137.022 Y125.456 E0.02470
G1 X136.347 Y125.931 E0.02482
G1 X135.562 Y126.185 E0.02482
G1 X125.308 Y126.221 E0.30844
G1 X124.747 Y126.162 E0.01699
G1 X123.860 Y125.807 E0.02871
G1 X123.149 Y125.171 E0.02871
G1 X109.300 Y106.551 E0.69802
G1 X109.073 Y105.963 E0.01895
G1 X108.984 Y105.340 E0.01895
G1 X108.983 Y96.909 E0.25359
G1 X109.036 Y96.419 E0.01482
G1 X109.412 Y96.434 F7200.000
G1 F2077
G1 X109.758 Y95.610 E0.02688
G1 X111.413 Y93.240 E0.08694
G1 X111.827 Y92.806 E0.01805
G1 X115.029 Y90.344 E0.12151
G1 X119.961 Y87.872 E0.16591
G1 X120.758 Y87.724 E0.02440
G1 X132.873 Y87.724 E0.36442
G1 X133.754 Y87.893 E0.02699
G1 X134.507 Y88.375 E0.02688
G1 X136.971 Y90.889 E0.10589
G1 X137.306 Y91.450 E0.01964
G1 X137.475 Y92.076 E0.01953
G1 X137.494 Y123.471 E0.94433
G1 X137.442 Y123.959 E0.01475
G1 X137.188 Y124.633 E0.02169
G1 X136.743 Y125.200 E0.02169
G1 X136.148 Y125.608 E0.02169
G1 X135.459 Y125.819 E0.02169
G1 X125.305 Y125.844 E0.30544
G1 X124.821 Y125.793 E0.01464
G1 X124.054 Y125.484 E0.02485
G1 X123.440 Y124.932 E0.02485
G1 X109.633 Y106.374 E0.69577
G1 X109.436 Y105.863 E0.01646
G1 X109.361 Y105.321 E0.01646
G1 X109.411 Y96.494 E0.26552
G1 F5760
G1 X109.758 Y95.610 E-0.32880
G1 F5760
G1 X110.470 Y94.589 E-0.43120
G1 E-0.04000 F2100.00000
G1 X111.738 Y105.268 F7200.000
G1 E0.80000 F2100.00000
G1 F2077
G1 X111.738 Y96.926 E0.25093
G1 X112.492 Y96.926 E0.02268
G1 X112.492 Y105.098 E0.24583
G1 X113.246 Y105.098 E0.02268
G1 X113.246 Y96.926 E0.24583
G1 X113.326 Y96.926 E0.00241
G1 X113.326 Y94.651 E0.06843
G1 X114.000 Y94.651 E0.02027
G1 X114.000 Y105.098 E0.31426
G1 X114.754 Y105.098 E0.02268
G1 X114.754 Y94.651 E0.31426
G1 X115.508 Y94.651 E0.02268
G1 X115.508 Y105.098 E0.31426
G1 X116.262 Y105.098 E0.02268
G1 X116.262 Y92.376 E0.38269
G1 X117.017 Y92.376 E0.02268
G1 X117.017 Y105.268 E0.38779
G1 F5760
G1 X117.017 Y103.074 E-0.76000
G1 E-0.04000 F2100.00000
G1 X118.749 Y99.998 F7200.000
G1 E0.80000 F2100.00000
G1 F2077
G1 X118.749 Y95.325 E0.11338
G1 X119.224 Y95.325 E0.01152
G1 X119.224 Y99.874 E0.11038
G1 X119.699 Y99.874 E0.01152
G1 X119.699 Y95.325 E0.11038
G1 X120.174 Y95.325 E0.01152
G1 X120.174 Y99.998 E0.11338
G1 X120.648 Y99.998 F7200.000
G1 F2077
G1 X120.648 Y98.040 E0.04751
G1 X120.648 Y97.723 F7200.000
G1 F2077
G1 X120.648 Y95.325 E0.05819
G1 X121.123 Y95.325 E0.01152
G1 X121.123 Y97.600 E0.05519
G1 X121.598 Y97.600 E0.01152
G1 X121.598 Y95.325 E0.05519
G1 X122.073 Y95.325 E0.01152
G1 X122.073 Y97.600 E0.05519
G1 X122.548 Y97.600 E0.01152
G1 X122.548 Y95.325 E0.05519
G1 X123.023 Y95.325 E0.01152
G1 X123.023 Y97.723 E0.05819
G1 F5760
G1 X123.023 Y95.529 E-0.76000
G1 E-0.04000 F2100.00000
G1 X123.498 Y96.561 F7200.000
G1 E0.80000 F2100.00000
G1 F2077
G1 X123.498 Y97.600 E0.02521
G1 X123.973 Y97.600 E0.01152
G1 X123.973 Y96.545 E0.02558
G1 X124.448 Y96.400 E0.01205
G1 X124.448 Y97.600 E0.02910
G1 X124.922 Y97.600 E0.01152
G1 X124.922 Y96.255 E0.03262
G1 X125.397 Y96.110 E0.01205
G1 X125.397 Y97.723 E0.03913
G1 F5760
G1 X125.397 Y96.110 E-0.55873
G1 F5760
G1 X124.922 Y96.255 E-0.17197
G1 F5760
G1 X124.922 Y96.340 E-0.02930
G1 E-0.04000 F2100.00000
G1 X123.498 Y95.645 F7200.000
G1 E0.80000 F2100.00000
G1 F2077
G1 X123.498 Y93.050 E0.06297
G1 X123.973 Y93.050 E0.01152
G1 X123.973 Y95.298 E0.05454
G1 X124.448 Y95.123 E0.01228
G1 X124.448 Y93.050 E0.05030
G1 X124.922 Y93.050 E0.01152
G1 X124.922 Y95.111 E0.05000
G1 X125.015 Y95.187 E0.00292
G1 X125.189 Y95.212 E0.00426
G1 X125.210 Y95.238 E0.00079
G1 X125.397 Y95.276 E0.00465
G1 X125.397 Y93.050 E0.05401
G1 X125.872 Y93.050 E0.01152
G1 X125.872 Y97.600 E0.11038
G1 X126.347 Y97.600 E0.01152
G1 X126.347 Y93.050 E0.11038
G1 X126.822 Y93.050 E0.01152
G1 X126.822 Y97.600 E0.11038
G1 X127.297 Y97.600 E0.01152
G1 X127.297 Y93.050 E0.11038
G1 X127.772 Y93.050 E0.01152
G1 X127.772 Y97.600 E0.11038
G1 X128.247 Y97.600 E0.01152
G1 X128.247 Y93.050 E0.11038
G1 X128.722 Y93.050 E0.01152
G1 X128.722 Y97.600 E0.11038
G1 X129.196 Y97.600 E0.01152
G1 X129.196 Y93.050 E0.11038
G1 X129.671 Y93.050 E0.01152
G1 X129.671 Y97.723 E0.11338
G1 X129.837 Y100.718 F7200.000
G1 F2077
G1 X129.837 Y97.926 E0.08400
G1 X129.083 Y97.926 E0.02268
G1 X129.083 Y100.548 E0.07889
G1 X128.329 Y100.548 E0.02268
G1 X128.329 Y97.926 E0.07889
G1 X127.575 Y97.926 E0.02268
G1 X127.575 Y100.548 E0.07889
G1 X126.821 Y100.548 E0.02268
G1 X126.821 Y97.926 E0.07889
G1 X126.067 Y97.926 E0.02268
G1 X126.067 Y100.548 E0.07889
G1 X125.312 Y100.548 E0.02268
G1 X125.312 Y97.926 E0.07889
G1 X124.558 Y97.926 E0.02268
G1 X124.558 Y100.548 E0.07889
G1 X123.804 Y100.548 E0.02268
G1 X123.804 Y97.926 E0.07889
G1 X123.050 Y97.926 E0.02268
G1 X123.050 Y102.823 E0.14732
G1 X122.296 Y102.823 E0.02268
G1 X122.296 Y97.926 E0.14732
G1 X121.542 Y97.926 E0.02268
G1 X121.542 Y102.823 E0.14732
G1 X121.499 Y102.823 E0.00129
G1 X121.499 Y105.098 E0.06843
G1 X120.787 Y105.098 E0.02139
G1 X120.787 Y100.200 E0.14732
G1 X120.033 Y100.200 E0.02268
G1 X120.033 Y105.098 E0.14732
G1 X119.279 Y105.098 E0.02268
G1 X119.279 Y100.200 E0.14732
G1 X118.525 Y100.200 E0.02268
G1 X118.525 Y105.098 E0.14732
G1 X117.771 Y105.098 E0.02268
G1 X117.771 Y92.376 E0.38269
G1 X118.525 Y92.376 E0.02268
G1 X118.525 Y94.999 E0.07889
G1 X119.279 Y94.999 E0.02268
G1 X119.279 Y92.376 E0.07889
G1 X120.033 Y92.376 E0.02268
G1 X120.033 Y94.999 E0.07889
G1 X120.787 Y94.999 E0.02268
G1 X120.787 Y90.101 E0.14732
G1 X121.542 Y90.101 E0.02268
G1 X121.542 Y94.999 E0.14732
G1 X122.296 Y94.999 E0.02268
G1 X122.296 Y90.101 E0.14732
G1 X123.050 Y90.101 E0.02268
G1 X123.050 Y92.724 E0.07889
G1 X123.804 Y92.724 E0.02268
G1 X123.804 Y90.101 E0.07889
G1 X124.558 Y90.101 E0.02268
G1 X124.558 Y92.724 E0.07889
G1 X125.312 Y92.724 E0.02268
G1 X125.312 Y90.101 E0.07889
G1 X126.067 Y90.101 E0.02268
G1 X126.067 Y92.724 E0.07889
G1 X126.821 Y92.724 E0.02268
G1 X126.821 Y90.101 E0.07889
G1 X127.575 Y90.101 E0.02268
G1 X127.575 Y92.724 E0.07889
G1 X128.329 Y92.724 E0.02268
G1 X128.329 Y90.101 E0.07889
G1 X129.083 Y90.101 E0.02268
G1 X129.083 Y92.724 E0.07889
G1 X129.837 Y92.724 E0.02268
G1 X129.837 Y90.101 E0.07889
G1 X130.591 Y90.101 E0.02268
G1 X130.591 Y100.548 E0.31426
G1 X131.346 Y100.548 E0.02268
G1 X131.346 Y90.101 E0.31426
G1 X132.100 Y90.101 E0.02268
G1 X132.100 Y100.548 E0.31426
G1 X132.854 Y100.548 E0.02268
G1 X132.854 Y90.101 E0.31426
G1 X132.873 Y90.101 E0.00057
G1 X132.873 Y92.376 E0.06843
G1 X133.608 Y92.376 E0.02211
G1 X133.608 Y100.548 E0.24583
G1 X134.362 Y100.548 E0.02268
G1 X134.362 Y92.376 E0.24583
G1 X135.116 Y92.376 E0.02268
G1 X135.116 Y100.718 E0.25093
G1 F5760
G1 X135.116 Y98.524 E-0.76000
G1 E-0.04000 F2100.00000
G1 X135.116 Y123.467 F7200.000
G1 E0.80000 F2100.00000
G1 F2077
G1 X135.116 Y112.850 E0.31936
G1 X134.362 Y112.850 E0.02268
G1 X134.362 Y123.297 E0.31426
G1 X133.608 Y123.297 E0.02268
G1 X133.608 Y112.850 E0.31426
G1 X132.854 Y112.850 E0.02268
G1 X132.854 Y123.297 E0.31426
G1 X132.100 Y123.297 E0.02268
G1 X132.100 Y112.850 E0.31426
G1 X131.346 Y112.850 E0.02268
G1 X131.346 Y123.297 E0.31426
G1 X130.591 Y123.297 E0.02268
G1 X130.591 Y112.850 E0.31426
G1 X129.837 Y112.850 E0.02268
G1 X129.837 Y123.297 E0.31426
G1 X129.083 Y123.297 E0.02268
G1 X129.083 Y112.850 E0.31426
G1 X128.329 Y112.850 E0.02268
G1 X128.329 Y123.297 E0.31426
G1 X127.575 Y123.297 E0.02268
G1 X127.575 Y112.850 E0.31426
G1 X126.975 Y112.850 E0.01803
G1 X126.975 Y115.125 E0.06843
G1 X126.821 Y115.125 E0.00465
G1 X126.821 Y123.297 E0.24583
G1 X126.067 Y123.297 E0.02268
G1 X126.067 Y115.125 E0.24583
G1 X125.312 Y115.125 E0.02268
G1 X125.312 Y123.467 E0.25093
M106 S255
G1 F5760
G1 X125.312 Y121.273 E-0.76000
G1 E-0.04000 F2100.00000
G1 Z0.350 F7200.000
M104 S210 ; set temperature
G1 X129.671 Y97.723 F7200.000
G1 E0.80000 F2100.00000
G1 F900
G1 X129.671 Y93.050 E0.08928
G1 X129.196 Y93.050 E0.00907
G1 X129.196 Y97.600 E0.08691
G1 X128.722 Y97.600 E0.00907
G1 X128.722 Y93.050 E0.08691
G1 X128.247 Y93.050 E0.00907
G1 X128.247 Y97.600 E0.08691
G1 X127.772 Y97.600 E0.00907
G1 X127.772 Y93.050 E0.08691
G1 X127.297 Y93.050 E0.00907
G1 X127.297 Y97.600 E0.08691
G1 X126.822 Y97.600 E0.00907
G1 X126.822 Y95.935 E0.03180
G1 X126.347 Y96.080 E0.00948
G1 X126.347 Y97.600 E0.02903
G1 X125.872 Y97.600 E0.00907
G1 X125.872 Y96.225 E0.02626
G1 X125.397 Y96.370 E0.00948
G1 X125.397 Y97.600 E0.02349
G1 X124.922 Y97.600 E0.00907
G1 X124.922 Y96.515 E0.02072
G1 X124.448 Y96.660 E0.00948
G1 X124.448 Y97.600 E0.01795
G1 X123.973 Y97.600 E0.00907
G1 X123.973 Y96.805 E0.01519
G1 X123.498 Y96.950 E0.00948
G1 X123.498 Y97.600 E0.01242
G1 X123.023 Y97.600 E0.00907
G1 X123.023 Y97.094 E0.00965
G1 X122.548 Y97.239 E0.00948
G1 X122.548 Y97.600 E0.00688
G1 X122.073 Y97.600 E0.00907
G1 X122.073 Y97.384 E0.00411
G1 X121.735 Y97.487 E0.00674
G1 X121.598 Y97.319 E0.00415
G1 X121.598 Y97.600 E0.00536
G1 X121.123 Y97.600 E0.00907
G1 X121.123 Y95.325 E0.04346
G1 X121.598 Y95.325 E0.00907
G1 X121.598 Y96.448 E0.02146
G1 X121.711 Y96.285 E0.00379
G1 X121.847 Y96.171 E0.00339
G1 X122.073 Y96.022 E0.00517
G1 X122.073 Y95.325 E0.01332
G1 X122.548 Y95.325 E0.00907
G1 X122.548 Y95.693 E0.00704
G1 X123.023 Y95.382 E0.01085
G1 X123.023 Y95.325 E0.00109
G1 X123.100 Y95.325 E0.00146
G1 X123.100 Y93.050 E0.04346
G1 X123.498 Y93.050 E0.00761
G1 X123.498 Y95.146 E0.04004
G1 X123.973 Y94.953 E0.00979
G1 X123.973 Y93.050 E0.03635
G1 X124.448 Y93.050 E0.00907
G1 X124.448 Y94.765 E0.03277
G1 X124.599 Y94.739 E0.00294
G1 X124.922 Y94.732 E0.00618
G1 X124.922 Y93.050 E0.03214
G1 X125.397 Y93.050 E0.00907
G1 X125.397 Y94.771 E0.03288
G1 X125.872 Y94.819 E0.00912
G1 X125.872 Y93.050 E0.03380
G1 X126.347 Y93.050 E0.00907
G1 X126.347 Y94.878 E0.03492
G1 X126.822 Y94.942 E0.00915
G1 X126.822 Y92.926 E0.03852
G1 F5760
G1 X126.822 Y94.942 E-0.69839
G1 F5760
G1 X126.646 Y94.919 E-0.06161
G1 E-0.04000 F2100.00000
G1 X120.648 Y97.723 F7200.000
G1 E0.80000 F2100.00000
G1 F900
G1 X120.648 Y95.325 E0.04582
G1 X120.174 Y95.325 E0.00907
G1 X120.174 Y97.600 E0.04346
G1 X119.699 Y97.600 E0.00907
G1 X119.699 Y95.325 E0.04346
G1 X119.224 Y95.325 E0.00907
G1 X119.224 Y97.600 E0.04346
G1 X118.749 Y97.600 E0.00907
G1 X118.749 Y95.201 E0.04582
G1 F5760
G1 X118.749 Y97.395 E-0.76000
G1 E-0.04000 F2100.00000
G1 Z0.450 F7200.000
G1 X118.749 Y95.201 F7200.000
G1 E0.80000 F2100.00000
G1 F900
G1 X118.749 Y97.912 E0.03617
G1 F900
G1 X118.749 Y99.874 E0.05654
G1 X119.224 Y99.874 E0.01368
G1 X119.224 Y97.912 E0.05654
G1 F900
G1 X119.224 Y95.325 E0.03452
G1 X119.699 Y95.325 E0.00634
G1 X119.699 Y97.912 E0.03452
G1 F900
G1 X119.699 Y99.874 E0.05654
G1 X120.174 Y99.874 E0.01368
G1 X120.174 Y97.912 E0.05654
G1 F900
G1 X120.174 Y95.325 E0.03452
G1 X120.648 Y95.325 E0.00634
G1 X120.648 Y96.859 E0.02047
G1 X120.649 Y97.600 F7200.000
G1 F900
G1 X120.219 Y97.600 E0.00574
G1 X120.648 Y98.040 F7200.000
G1 F900
G1 X120.648 Y99.998 E0.05642
G1 F5760
G1 X120.648 Y98.040 E-0.67830
G1 E-0.12170 F2100.00000
G1 X122.027 Y97.600 F7200.000
G1 E0.80000 F2100.00000
G1 F900
G1 X127.498 Y97.600 E0.07299
G1 X127.772 Y97.723 F7200.000
G1 F900
G1 X127.772 Y95.975 E0.02332
G1 X128.247 Y95.830 E0.00662
G1 X128.247 Y97.723 E0.02525
G1 F5760
G1 X128.247 Y95.830 E-0.65557
G1 F5760
G1 X127.958 Y95.919 E-0.10443
G1 E-0.04000 F2100.00000
G1 X129.671 Y97.723 F7200.000
G1 E0.80000 F2100.00000
G1 F900
G1 X129.671 Y93.050 E0.06235
G1 X129.196 Y93.050 E0.00634
G1 X129.196 Y97.600 E0.06070
G1 X128.722 Y97.600 E0.00634
G1 X128.722 Y93.050 E0.06070
G1 X128.247 Y93.050 E0.00634
G1 X128.247 Y94.726 E0.02236
G1 X127.772 Y94.573 E0.00666
G1 X127.772 Y93.050 E0.02032
G1 X127.297 Y93.050 E0.00634
G1 X127.297 Y94.479 E0.01906
G1 X126.822 Y94.400 E0.00642
G1 X126.822 Y93.050 E0.01801
G1 X126.347 Y93.050 E0.00634
G1 X126.347 Y94.358 E0.01745
G1 X125.872 Y94.323 E0.00635
G1 X125.872 Y93.050 E0.01699
G1 X125.397 Y93.050 E0.00634
G1 X125.397 Y94.293 E0.01659
G1 X124.922 Y94.277 E0.00634
G1 X124.922 Y93.050 E0.01637
G1 X124.448 Y93.050 E0.00634
G1 X124.448 Y94.341 E0.01722
G1 X124.242 Y94.395 E0.00284
G1 X123.973 Y94.518 E0.00395
G1 X123.973 Y93.050 E0.01958
G1 X123.498 Y93.050 E0.00634
G1 X123.498 Y94.853 E0.02405
G1 X122.691 Y95.325 F7200.000
G1 F900
G1 X120.976 Y95.325 E0.02289
G1 X118.399 Y97.600 F7200.000
G1 F900
G1 X118.237 Y97.600 E0.00215
G1 F900
G1 X116.275 Y97.600 E0.05654
G1 X116.275 Y99.874 E0.06554
G1 X114.000 Y99.874 E0.06554
G1 X118.275 Y99.874 E0.12316
G1 X118.275 Y100.149 E0.00792
G1 X118.550 Y100.149 E0.00792
G1 X118.550 Y102.149 E0.05762
G1 X113.876 Y102.149 E0.13465
G1 F5760
G1 X116.071 Y102.149 E-0.76000
G1 E-0.04000 F2100.00000
G1 X132.323 Y97.600 F7200.000
G1 E0.80000 F2100.00000
G1 F900
G1 X130.237 Y97.600 E0.06010
G1 F900
G1 X130.199 Y97.600 E0.00050
G1 X130.199 Y95.325 E0.03035
G1 X130.237 Y95.325 E0.00050
G1 F900
G1 X132.323 Y95.325 E0.06010
G1 F5760
G1 X130.237 Y95.325 E-0.72255
G1 E-0.07745 F2100.00000
G1 X132.323 Y115.799 F7200.000
G1 E0.80000 F2100.00000
G1 F900
G1 X129.924 Y115.799 E0.06911
G1 X129.924 Y118.074 E0.06554
G1 X127.649 Y118.074 E0.06554
G1 X132.199 Y118.074 E0.13108
G1 X132.199 Y120.348 E0.06554
G1 X127.526 Y120.348 E0.13465
G1 F5760
G1 X129.720 Y120.348 E-0.76000
G1 E-0.04000 F2100.00000
G1 Z0.550 F7200.000
G1 X123.860 Y125.807 F7200.000
G1 E0.80000 F2100.00000
G1 F900
G1 X123.149 Y125.171 E0.04418
G1 X109.300 Y106.551 E1.07402
G1 X109.073 Y105.963 E0.02916
G1 X108.984 Y105.340 E0.02916
G1 X108.983 Y96.909 E0.39018
G1 X109.042 Y96.360 E0.02557
G1 X109.439 Y95.408 E0.04773
G1 X111.113 Y93.011 E0.13534
G1 X111.579 Y92.522 E0.03123
G1 X114.832 Y90.022 E0.18990
G1 X119.813 Y87.525 E0.25787
G1 X120.751 Y87.347 E0.04418
G1 X132.873 Y87.347 E0.56105
G1 X133.886 Y87.540 E0.04773
G1 X134.757 Y88.092 E0.04773
G1 X137.278 Y90.669 E0.16687
G1 X137.653 Y91.303 E0.03405
G1 X137.846 Y92.008 E0.03387
G1 X137.871 Y123.471 E1.45619
G1 X137.812 Y124.033 E0.02614
G1 X137.523 Y124.806 E0.03819
G1 X137.022 Y125.456 E0.03800
G1 X136.347 Y125.931 E0.03819
G1 X135.562 Y126.185 E0.03819
G1 X125.308 Y126.221 E0.47458
G1 X124.747 Y126.162 E0.02614
G1 X123.916 Y125.830 E0.04140
G1 F5760
G1 X123.149 Y125.171 E-0.35022
G1 F5760
G1 X122.443 Y124.222 E-0.40978
G1 E-0.04000 F2100.00000
G1 X123.434 Y96.065 F7200.000
G1 E0.80000 F2100.00000
M204 S800
G1 F900
G1 X123.677 Y95.934 E0.01998
G1 X124.623 Y95.548 E0.07408
G1 X124.871 Y95.528 E0.01798
G1 X125.210 Y95.560 E0.02474
G1 F1200
G1 X125.294 Y95.567 E0.00417
G1 X125.212 Y95.593 E0.00426
G1 F900
G1 X123.249 Y96.192 E0.14875
G1 F1200
G1 X123.248 Y96.190 E0.00009
G1 F900
G1 X123.384 Y96.099 E0.01190
M204 S1000
G1 X123.597 Y96.288 F7200.000
G1 F5760
G1 X123.677 Y95.934 E-0.11619
G1 F5760
G1 X124.623 Y95.548 E-0.35401
G1 F5760
G1 X124.871 Y95.528 E-0.08592
G1 F5760
