; generated by Slic3r 1.33.8.devel on 2017-09-15 at 19:30:22

; 

; external perimeters extrusion width = 0.45mm
; perimeters extrusion width = 0.45mm
; infill extrusion width = 0.45mm
; solid infill extrusion width = 0.45mm
; top infill extrusion width = 0.40mm
; first layer extrusion width = 0.42mm

M107
M115 U3.0.12 ; tell printer latest fw version
M83  ; extruder relative mode
M104 S215 ; set extruder temp
M140 S55 ; set bed temp
M190 S55 ; wait for bed temp
M109 S215 ; wait for extruder temp
G28 W ; home all without mesh bed level
G80 ; mesh bed leveling
G1 Y-3.0 F1000.0 ; go outside pritn area
G1 X60.0 E9.0  F1000.0 ; intro line
G1 X100.0 E12.5  F1000.0 ; intro line
; Filament gcode

G21 ; set units to millimeters
G90 ; use absolute coordinates
M83 ; use relative distances for extrusion
G1 E-0.80000 F2100.00000
G1 Z0.200 F7200.000
G1 X116.136 Y86.633 F7200.000
G1 E0.80000 F2100.00000
M204 S1000
G1 F2100
G1 X116.479 Y85.942 E0.02323
G1 X117.001 Y85.372 E0.02323
G1 X117.664 Y84.969 E0.02335
G1 X118.410 Y84.767 E0.02323
G1 X131.254 Y84.746 E0.38635
G1 X132.263 Y84.939 E0.03090
G1 X133.131 Y85.488 E0.03090
G1 X133.737 Y86.317 E0.03090
G1 X133.998 Y87.315 E0.03102
G1 X134.004 Y122.512 E1.05873
G1 X133.864 Y123.367 E0.02604
G1 X133.514 Y124.068 E0.02360
G1 X132.983 Y124.641 E0.02348
G1 X132.309 Y125.042 E0.02360
G1 X131.549 Y125.238 E0.02360
G1 X118.725 Y125.254 E0.38574
G1 X117.883 Y125.114 E0.02567
G1 X117.148 Y124.740 E0.02482
G1 X116.554 Y124.162 E0.02494
G1 X116.159 Y123.433 E0.02494
G1 X115.999 Y122.624 E0.02482
G1 X115.996 Y87.492 E1.05676
G1 X116.126 Y86.693 E0.02435
G1 X116.494 Y86.753 F7200.000
G1 F2100
G1 X116.796 Y86.147 E0.02037
G1 X117.256 Y85.651 E0.02033
G1 X117.836 Y85.306 E0.02033
G1 X118.490 Y85.137 E0.02033
G1 X131.254 Y85.123 E0.38392
G1 X132.131 Y85.292 E0.02688
G1 X132.881 Y85.771 E0.02677
G1 X133.403 Y86.492 E0.02677
G1 X133.623 Y87.358 E0.02688
G1 X133.627 Y122.508 E1.05729
G1 X133.505 Y123.252 E0.02270
G1 X133.200 Y123.860 E0.02044
G1 X132.733 Y124.358 E0.02055
G1 X132.143 Y124.703 E0.02055
G1 X131.479 Y124.866 E0.02055
G1 X118.731 Y124.877 E0.38347
G1 X117.998 Y124.755 E0.02236
G1 X117.362 Y124.430 E0.02146
G1 X116.850 Y123.928 E0.02157
G1 X116.510 Y123.297 E0.02157
G1 X116.375 Y122.592 E0.02157
G1 X116.373 Y87.492 E1.05581
G1 X116.485 Y86.812 E0.02073
G1 F5760
G1 X116.796 Y86.147 E-0.25452
G1 F5760
G1 X117.256 Y85.651 E-0.23403
G1 F5760
G1 X117.836 Y85.306 E-0.23403
G1 F5760
G1 X117.941 Y85.279 E-0.03741
G1 E-0.04000 F2100.00000
G1 X124.804 Y113.569 F7200.000
G1 E0.80000 F2100.00000
G1 F840
G1 X125.318 Y113.417 E0.01613
G1 X125.847 Y113.331 E0.01613
G1 X126.377 Y113.314 E0.01593
G1 X126.918 Y113.365 E0.01637
G1 X127.441 Y113.485 E0.01614
G1 X127.945 Y113.670 E0.01614
G1 X128.421 Y113.918 E0.01614
G1 X128.862 Y114.225 E0.01616
G1 X129.259 Y114.586 E0.01614
G1 X129.606 Y114.995 E0.01613
G1 X129.900 Y115.445 E0.01615
G1 X130.132 Y115.929 E0.01615
G1 X130.301 Y116.438 E0.01614
G1 X130.403 Y116.964 E0.01613
G1 X130.438 Y117.500 E0.01615
G1 X130.403 Y118.036 E0.01615
G1 X130.301 Y118.562 E0.01613
G1 X130.132 Y119.071 E0.01614
G1 X129.900 Y119.555 E0.01615
G1 X129.606 Y120.005 E0.01615
G1 X129.259 Y120.414 E0.01613
G1 X128.862 Y120.775 E0.01614
G1 X128.421 Y121.082 E0.01616
G1 X127.945 Y121.330 E0.01614
G1 X127.441 Y121.515 E0.01614
G1 X126.919 Y121.635 E0.01612
G1 X126.384 Y121.686 E0.01617
G1 X125.847 Y121.669 E0.01614
G1 X125.318 Y121.583 E0.01613
G1 X124.804 Y121.431 E0.01613
G1 X124.313 Y121.213 E0.01614
G1 X123.853 Y120.935 E0.01617
G1 X123.434 Y120.600 E0.01613
G1 X123.061 Y120.215 E0.01614
G1 X122.740 Y119.785 E0.01615
G1 X122.477 Y119.318 E0.01612
G1 X122.275 Y118.820 E0.01615
G1 X122.139 Y118.301 E0.01616
G1 X122.070 Y117.768 E0.01616
G1 X122.071 Y117.225 E0.01634
G1 X122.139 Y116.699 E0.01593
G1 X122.275 Y116.180 E0.01616
G1 X122.477 Y115.682 E0.01615
G1 X122.740 Y115.215 E0.01612
G1 X123.061 Y114.785 E0.01615
G1 X123.434 Y114.400 E0.01614
G1 X123.853 Y114.065 E0.01613
G1 X124.313 Y113.787 E0.01617
G1 X124.749 Y113.594 E0.01434
G1 X124.902 Y113.939 F7200.000
G1 F840
G1 X125.402 Y113.785 E0.01575
G1 X125.884 Y113.707 E0.01468
G1 X126.365 Y113.692 E0.01448
G1 X126.858 Y113.738 E0.01491
G1 X127.334 Y113.847 E0.01467
G1 X127.792 Y114.016 E0.01469
G1 X128.225 Y114.242 E0.01469
G1 X128.626 Y114.521 E0.01470
G1 X128.987 Y114.849 E0.01468
G1 X129.304 Y115.221 E0.01468
G1 X129.570 Y115.630 E0.01469
G1 X129.782 Y116.070 E0.01469
G1 X129.936 Y116.534 E0.01468
G1 X130.029 Y117.013 E0.01468
G1 X130.060 Y117.500 E0.01469
G1 X130.029 Y117.987 E0.01469
G1 X129.936 Y118.466 E0.01468
G1 X129.782 Y118.930 E0.01468
G1 X129.570 Y119.370 E0.01469
G1 X129.304 Y119.779 E0.01469
G1 X128.987 Y120.151 E0.01468
G1 X128.626 Y120.479 E0.01468
G1 X128.225 Y120.758 E0.01470
G1 X127.792 Y120.984 E0.01469
G1 X127.334 Y121.153 E0.01469
G1 X126.859 Y121.262 E0.01467
G1 X126.372 Y121.309 E0.01471
G1 X125.884 Y121.293 E0.01469
G1 X125.402 Y121.215 E0.01468
G1 X124.934 Y121.076 E0.01468
G1 X124.488 Y120.878 E0.01469
G1 X124.070 Y120.625 E0.01470
G1 X123.688 Y120.321 E0.01467
G1 X123.349 Y119.970 E0.01469
G1 X123.057 Y119.579 E0.01469
G1 X122.817 Y119.153 E0.01468
G1 X122.633 Y118.701 E0.01470
G1 X122.509 Y118.228 E0.01469
G1 X122.447 Y117.744 E0.01469
G1 X122.448 Y117.249 E0.01489
G1 X122.509 Y116.772 E0.01448
G1 X122.633 Y116.299 E0.01469
G1 X122.817 Y115.847 E0.01470
G1 X123.057 Y115.421 E0.01468
G1 X123.349 Y115.030 E0.01469
G1 X123.688 Y114.679 E0.01469
G1 X124.070 Y114.375 E0.01467
G1 X124.488 Y114.122 E0.01470
G1 X124.847 Y113.963 E0.01181
G1 X124.967 Y113.544 F7200.000
G1 F5760
G1 X125.402 Y113.785 E-0.20198
G1 F5760
G1 X125.884 Y113.707 E-0.16899
G1 F5760
G1 X126.365 Y113.692 E-0.16675
G1 F5760
G1 X126.858 Y113.738 E-0.17168
G1 F5760
G1 X127.001 Y113.771 E-0.05061
G1 E-0.04000 F2100.00000
G1 X125.847 Y96.669 F7200.000
G1 E0.80000 F2100.00000
G1 F840
G1 X125.318 Y96.583 E0.01613
G1 X124.804 Y96.431 E0.01613
G1 X124.313 Y96.213 E0.01614
G1 X123.853 Y95.935 E0.01617
G1 X123.434 Y95.600 E0.01613
G1 X123.061 Y95.215 E0.01614
G1 X122.740 Y94.785 E0.01615
G1 X122.477 Y94.317 E0.01612
G1 X122.275 Y93.820 E0.01615
G1 X122.139 Y93.301 E0.01616
G1 X122.070 Y92.768 E0.01614
G1 X122.070 Y92.232 E0.01614
G1 X122.139 Y91.699 E0.01614
G1 X122.275 Y91.180 E0.01616
G1 X122.477 Y90.683 E0.01615
G1 X122.740 Y90.215 E0.01612
G1 X123.061 Y89.785 E0.01615
G1 X123.434 Y89.400 E0.01614
G1 X123.853 Y89.065 E0.01613
G1 X124.313 Y88.787 E0.01617
G1 X124.804 Y88.569 E0.01614
G1 X125.318 Y88.417 E0.01613
G1 X125.847 Y88.331 E0.01613
G1 X126.377 Y88.314 E0.01593
G1 X126.918 Y88.365 E0.01637
G1 X127.441 Y88.485 E0.01614
G1 X127.945 Y88.670 E0.01614
G1 X128.421 Y88.918 E0.01614
G1 X128.862 Y89.225 E0.01617
G1 X129.259 Y89.586 E0.01614
G1 X129.606 Y89.995 E0.01613
G1 X129.900 Y90.445 E0.01615
G1 X130.132 Y90.929 E0.01615
G1 X130.301 Y91.438 E0.01614
G1 X130.403 Y91.964 E0.01613
G1 X130.438 Y92.500 E0.01615
G1 X130.403 Y93.036 E0.01615
G1 X130.301 Y93.562 E0.01613
G1 X130.132 Y94.071 E0.01614
G1 X129.900 Y94.555 E0.01615
G1 X129.606 Y95.005 E0.01615
G1 X129.259 Y95.414 E0.01613
G1 X128.862 Y95.775 E0.01614
G1 X128.421 Y96.082 E0.01617
G1 X127.945 Y96.330 E0.01614
G1 X127.441 Y96.515 E0.01614
G1 X126.919 Y96.635 E0.01612
G1 X126.384 Y96.686 E0.01617
G1 X125.907 Y96.671 E0.01434
G1 X125.920 Y96.294 F7200.000
G1 F840
G1 X125.402 Y96.215 E0.01574
G1 X124.934 Y96.076 E0.01468
G1 X124.488 Y95.878 E0.01469
G1 X124.070 Y95.625 E0.01470
G1 X123.688 Y95.321 E0.01467
G1 X123.349 Y94.970 E0.01469
G1 X123.057 Y94.579 E0.01469
G1 X122.817 Y94.153 E0.01468
G1 X122.633 Y93.701 E0.01469
G1 X122.509 Y93.228 E0.01469
G1 X122.447 Y92.744 E0.01469
G1 X122.447 Y92.256 E0.01469
G1 X122.509 Y91.772 E0.01469
G1 X122.633 Y91.299 E0.01469
G1 X122.817 Y90.847 E0.01470
G1 X123.057 Y90.421 E0.01468
G1 X123.349 Y90.030 E0.01469
G1 X123.688 Y89.679 E0.01469
G1 X124.070 Y89.375 E0.01467
G1 X124.488 Y89.122 E0.01470
G1 X124.934 Y88.924 E0.01469
G1 X125.402 Y88.785 E0.01468
G1 X125.884 Y88.707 E0.01468
G1 X126.365 Y88.692 E0.01448
G1 X126.858 Y88.738 E0.01491
G1 X127.334 Y88.847 E0.01467
G1 X127.792 Y89.016 E0.01469
G1 X128.225 Y89.242 E0.01468
G1 X128.626 Y89.521 E0.01471
G1 X128.987 Y89.849 E0.01468
G1 X129.304 Y90.221 E0.01468
G1 X129.570 Y90.630 E0.01469
G1 X129.782 Y91.070 E0.01469
G1 X129.936 Y91.534 E0.01468
G1 X130.029 Y92.013 E0.01468
G1 X130.060 Y92.500 E0.01469
G1 X130.029 Y92.987 E0.01469
G1 X129.936 Y93.466 E0.01468
G1 X129.782 Y93.930 E0.01468
G1 X129.570 Y94.370 E0.01469
G1 X129.304 Y94.779 E0.01469
G1 X128.987 Y95.151 E0.01468
G1 X128.626 Y95.479 E0.01468
G1 X128.225 Y95.758 E0.01471
G1 X127.792 Y95.984 E0.01468
G1 X127.334 Y96.153 E0.01469
G1 X126.859 Y96.262 E0.01467
G1 X126.372 Y96.308 E0.01471
G1 X125.979 Y96.296 E0.01180
G1 X125.689 Y96.621 F7200.000
G1 F5760
G1 X125.402 Y96.215 E-0.20193
G1 F5760
G1 X124.934 Y96.076 E-0.16902
G1 F5760
G1 X124.488 Y95.878 E-0.16915
G1 F5760
G1 X124.070 Y95.625 E-0.16931
G1 F5760
G1 X123.955 Y95.534 E-0.05060
G1 E-0.04000 F2100.00000
G1 X130.663 Y88.087 F7200.000
G1 E0.80000 F2100.00000
G1 F1680
G1 X130.663 Y121.913 E1.01748
G1 X119.337 Y121.913 E0.34068
G1 X119.337 Y88.087 E1.01748
G1 X130.603 Y88.087 E0.33887
G1 X131.040 Y87.710 F7200.000
G1 F1260
G1 X131.040 Y122.290 E1.04016
G1 X118.960 Y122.290 E0.36336
G1 X118.960 Y87.710 E1.04016
G1 X130.980 Y87.710 E0.36156
G1 X130.995 Y88.107 F7200.000
G1 F5760
G1 X130.984 Y89.904 E-0.76000
G1 E-0.04000 F2100.00000
G1 X130.550 Y89.036 F7200.000
G1 E0.80000 F2100.00000
G1 F1680
G1 X129.883 Y88.370 E0.03107
G1 X129.301 Y88.370 E0.01920
G1 X130.380 Y89.449 E0.05031
G1 X130.380 Y90.031 E0.01920
G1 X128.549 Y88.200 E0.08538
G1 X128.148 Y88.559 F7200.000
G1 F1680
G1 X128.070 Y88.392 E0.00267
G1 X127.798 Y88.343 E0.00399
G1 F1680
G1 X127.535 Y88.296 E0.00181
G1 F5760
G1 X127.798 Y88.343 E-0.09246
G1 E-0.70754 F2100.00000
G1 X124.982 Y88.297 F7200.000
G1 E0.80000 F2100.00000
G1 F1680
G1 X124.298 Y88.411 E0.00152
G1 X123.376 Y88.200 F7200.000
G1 F1680
G1 X123.889 Y88.713 E0.02211
G1 X123.567 Y88.931 E0.01187
G1 X123.006 Y88.370 E0.02423
G1 X122.465 Y88.370 E0.01649
G1 X123.267 Y89.172 E0.03458
G1 X122.998 Y89.443 E0.01166
G1 X121.925 Y88.370 E0.04631
G1 X121.384 Y88.370 E0.01649
G1 X122.747 Y89.733 E0.05880
G1 X122.516 Y90.042 E0.01178
G1 X120.844 Y88.370 E0.07215
G1 X120.303 Y88.370 E0.01649
G1 X122.319 Y90.386 E0.08698
G1 X122.222 Y90.559 E0.00607
G1 X122.144 Y90.751 E0.00631
G1 X119.763 Y88.370 E0.10272
G1 X119.620 Y88.370 E0.00436
G1 X119.620 Y88.767 E0.01213
G1 X121.993 Y91.140 E0.10237
G1 X121.881 Y91.569 E0.01350
G1 X119.620 Y89.308 E0.09752
G1 X119.620 Y89.848 E0.01649
G1 X121.810 Y92.038 E0.09447
G1 X121.787 Y92.213 E0.00539
G1 X121.787 Y92.556 E0.01045
G1 X119.620 Y90.389 E0.09349
G1 X119.620 Y90.929 E0.01649
G1 X121.833 Y93.143 E0.09547
G1 X121.860 Y93.355 E0.00653
G1 X121.987 Y93.837 E0.01520
G1 X119.620 Y91.470 E0.10211
G1 X119.620 Y92.010 E0.01649
G1 X130.380 Y102.771 E0.46419
G1 X130.380 Y102.230 E0.01649
G1 X124.906 Y96.756 E0.23616
G1 X125.255 Y96.860 E0.01111
G1 X125.607 Y96.916 E0.01088
G1 X130.380 Y101.690 E0.20591
G1 X130.380 Y101.149 E0.01649
G1 X126.194 Y96.963 E0.18059
G1 X126.393 Y96.969 E0.00607
G1 X126.710 Y96.939 E0.00973
G1 X130.380 Y100.609 E0.15832
G1 X130.380 Y100.068 E0.01649
G1 X127.177 Y96.866 E0.13816
G1 X127.608 Y96.755 E0.01355
G1 X130.380 Y99.528 E0.11960
G1 X130.380 Y98.987 E0.01649
G1 X128.003 Y96.610 E0.10256
G1 X128.364 Y96.430 E0.01230
G1 X130.380 Y98.447 E0.08698
G1 X130.380 Y97.906 E0.01649
G1 X128.703 Y96.229 E0.07233
G1 X129.022 Y96.008 E0.01184
G1 X130.380 Y97.366 E0.05859
G1 X130.380 Y96.825 E0.01649
G1 X129.307 Y95.752 E0.04630
G1 X129.574 Y95.479 E0.01166
G1 X130.380 Y96.285 E0.03476
G1 X130.380 Y95.744 E0.01649
G1 X129.823 Y95.187 E0.02404
G1 X130.038 Y94.861 E0.01190
G1 X130.550 Y95.374 E0.02209
G1 X130.336 Y94.440 F7200.000
G1 F1680
G1 X130.432 Y93.903 E0.00532
G1 F1680
G1 X130.453 Y93.770 E0.00036
G1 F5760
G1 X130.432 Y93.903 E-0.04668
G1 E-0.75332 F2100.00000
G1 X130.453 Y91.230 F7200.000
G1 E0.80000 F2100.00000
G1 F1680
G1 X130.410 Y90.964 E0.00073
G1 F1680
G1 X130.336 Y90.560 E0.00386
G1 F5760
G1 X130.410 Y90.964 E-0.14233
G1 E-0.65767 F2100.00000
G1 X130.550 Y103.481 F7200.000
G1 E0.80000 F2100.00000
G1 F1680
G1 X119.620 Y92.551 E0.47151
G1 X119.620 Y93.091 E0.01649
G1 X130.380 Y103.852 E0.46419
G1 X130.380 Y104.392 E0.01649
G1 X119.620 Y93.632 E0.46419
G1 X119.620 Y94.172 E0.01649
G1 X130.380 Y104.933 E0.46419
G1 X130.380 Y105.473 E0.01649
G1 X119.620 Y94.713 E0.46419
G1 X119.620 Y95.253 E0.01649
G1 X130.380 Y106.014 E0.46419
G1 X130.380 Y106.554 E0.01649
G1 X119.620 Y95.794 E0.46419
G1 X119.620 Y96.334 E0.01649
G1 X130.380 Y107.094 E0.46419
G1 X130.380 Y107.635 E0.01649
G1 X119.620 Y96.875 E0.46419
G1 X119.620 Y97.415 E0.01649
G1 X130.380 Y108.175 E0.46419
G1 X130.380 Y108.716 E0.01649
G1 X119.620 Y97.956 E0.46419
G1 X119.620 Y98.496 E0.01649
G1 X130.380 Y109.256 E0.46419
G1 X130.380 Y109.797 E0.01649
G1 X119.620 Y99.037 E0.46419
G1 X119.620 Y99.577 E0.01649
G1 X130.380 Y110.337 E0.46419
G1 X130.380 Y110.878 E0.01649
G1 X119.620 Y100.118 E0.46419
G1 X119.620 Y100.658 E0.01649
G1 X130.380 Y111.418 E0.46419
G1 X130.380 Y111.959 E0.01649
G1 X119.620 Y101.199 E0.46419
G1 X119.620 Y101.739 E0.01649
G1 X130.380 Y112.499 E0.46419
G1 X130.380 Y113.040 E0.01649
G1 X119.620 Y102.280 E0.46419
G1 X119.620 Y102.820 E0.01649
G1 X130.380 Y113.580 E0.46419
G1 X130.380 Y114.121 E0.01649
G1 X119.620 Y103.361 E0.46419
G1 X119.620 Y103.901 E0.01649
G1 X130.380 Y114.661 E0.46419
G1 X130.380 Y115.202 E0.01649
G1 X119.620 Y104.441 E0.46419
G1 X119.620 Y104.982 E0.01649
G1 X128.043 Y113.405 E0.36335
G1 X127.522 Y113.213 E0.01692
G1 X127.248 Y113.151 E0.00858
G1 X119.620 Y105.522 E0.32907
G1 X119.620 Y106.063 E0.01649
G1 X126.609 Y113.052 E0.30150
G1 X126.385 Y113.031 E0.00684
G1 X126.058 Y113.041 E0.01000
G1 X119.620 Y106.603 E0.27773
G1 X119.620 Y107.144 E0.01649
G1 X125.566 Y113.090 E0.25651
G1 X125.255 Y113.141 E0.00962
G1 X125.117 Y113.181 E0.00439
G1 X119.620 Y107.684 E0.23714
G1 X119.620 Y108.225 E0.01649
G1 X124.701 Y113.306 E0.21919
G1 X124.326 Y113.472 E0.01250
G1 X119.620 Y108.765 E0.20302
G1 X119.620 Y109.306 E0.01649
G1 X123.975 Y113.661 E0.18787
G1 X123.644 Y113.870 E0.01195
G1 X119.620 Y109.846 E0.17359
G1 X119.620 Y110.387 E0.01649
G1 X123.343 Y114.110 E0.16063
G1 X123.066 Y114.373 E0.01166
G1 X119.620 Y110.927 E0.14866
G1 X119.620 Y111.468 E0.01649
G1 X122.806 Y114.654 E0.13745
G1 X122.575 Y114.963 E0.01178
G1 X119.620 Y112.008 E0.12748
G1 X119.620 Y112.549 E0.01649
G1 X122.369 Y115.298 E0.11859
G1 X122.184 Y115.653 E0.01222
G1 X119.620 Y113.089 E0.11061
G1 X119.620 Y113.630 E0.01649
G1 X122.027 Y116.037 E0.10386
G1 X121.909 Y116.459 E0.01337
G1 X119.620 Y114.170 E0.09876
G1 X119.620 Y114.711 E0.01649
G1 X121.825 Y116.916 E0.09515
G1 X121.788 Y117.206 E0.00891
G1 X121.788 Y117.419 E0.00649
G1 X119.620 Y115.251 E0.09352
G1 X119.620 Y115.792 E0.01649
G1 X121.813 Y117.984 E0.09459
G1 X121.860 Y118.355 E0.01139
G1 X121.938 Y118.650 E0.00931
G1 X119.620 Y116.332 E0.10000
G1 X119.620 Y116.873 E0.01649
G1 X122.795 Y120.048 E0.13699
G1 F5760
G1 X121.244 Y118.497 E-0.76000
G1 E-0.04000 F2100.00000
G1 X124.007 Y121.800 F7200.000
G1 E0.80000 F2100.00000
G1 F1680
G1 X119.620 Y117.413 E0.18924
G1 X119.620 Y117.954 E0.01649
G1 X123.296 Y121.630 E0.15860
G1 X122.756 Y121.630 E0.01649
G1 X119.620 Y118.494 E0.13529
G1 X119.620 Y119.035 E0.01649
G1 X122.215 Y121.630 E0.11197
G1 X121.675 Y121.630 E0.01649
G1 X119.620 Y119.575 E0.08865
G1 X119.620 Y120.116 E0.01649
G1 X121.134 Y121.630 E0.06534
G1 X120.594 Y121.630 E0.01649
G1 X119.620 Y120.656 E0.04202
G1 X119.620 Y121.196 E0.01649
G1 X120.223 Y121.800 E0.02603
G1 F5760
G1 X119.620 Y121.196 E-0.29552
G1 F5760
G1 X119.620 Y120.656 E-0.18720
G1 F5760
G1 X120.186 Y121.222 E-0.27728
G1 E-0.04000 F2100.00000
G1 X124.298 Y121.589 F7200.000
G1 E0.80000 F2100.00000
G1 F1680
G1 X124.983 Y121.703 E0.00152
G1 F5760
G1 X124.298 Y121.589 E-0.24022
G1 E-0.55978 F2100.00000
