; generated by Slic3r 1.33.8.devel on 2017-10-03 at 21:09:00

; 

; external perimeters extrusion width = 0.45mm
; perimeters extrusion width = 0.45mm
; infill extrusion width = 0.45mm
; solid infill extrusion width = 0.45mm
; top infill extrusion width = 0.45mm
; first layer extrusion width = 0.42mm

M107
M115 U3.0.12 ; tell printer latest fw version
M83  ; extruder relative mode
M104 S215 ; set extruder temp
M140 S55 ; set bed temp
M190 S55 ; wait for bed temp
M109 S215 ; wait for extruder temp
G28 W ; home all without mesh bed level
G80 ; mesh bed leveling
G1 Y-3.0 F1000.0 ; go outside pritn area
G1 X60.0 E9.0  F1000.0 ; intro line
G1 X100.0 E12.5  F1000.0 ; intro line
; Filament gcode

G21 ; set units to millimeters
G90 ; use absolute coordinates
M83 ; use relative distances for extrusion
G1 E-0.80000 F2100.00000
G1 Z0.200 F7200.000
G1 X181.120 Y63.308 F7200.000
G1 E0.80000 F2100.00000
M204 S1000
G1 F2100
G1 X181.635 Y64.065 E0.02755
G1 X181.827 Y64.965 E0.02767
G1 X181.827 Y145.030 E2.40837
G1 X181.748 Y145.606 E0.01749
G1 X181.531 Y146.150 E0.01760
G1 X181.187 Y146.623 E0.01760
G1 X180.738 Y146.998 E0.01760
G1 X180.124 Y147.280 E0.02033
G1 X179.459 Y147.377 E0.02021
G1 X94.180 Y147.362 E2.56517
G1 X93.388 Y147.127 E0.02485
G1 X69.463 Y135.014 E0.80665
G1 X68.954 Y134.661 E0.01862
G1 X68.553 Y134.189 E0.01862
G1 X68.272 Y133.579 E0.02021
G1 X68.173 Y132.915 E0.02021
G1 X68.173 Y77.070 E1.67981
G1 X68.252 Y76.494 E0.01749
G1 X68.469 Y75.950 E0.01760
G1 X68.813 Y75.477 E0.01760
G1 X69.262 Y75.102 E0.01760
G1 X93.387 Y62.874 E0.81355
G1 X94.182 Y62.638 E0.02496
G1 X179.454 Y62.623 E2.56496
G1 X180.352 Y62.801 E0.02755
G1 X181.070 Y63.275 E0.02586
G1 F5760
G1 X181.635 Y64.065 E-0.33659
G1 F5760
G1 X181.827 Y64.965 E-0.31856
G1 F5760
G1 X181.827 Y65.267 E-0.10485
G1 E-0.04000 F2100.00000
G1 X167.414 Y76.036 F7200.000
G1 E0.80000 F2100.00000
G1 F1680
G1 X167.414 Y133.964 E1.74247
G1 X149.486 Y133.964 E0.53928
G1 X149.486 Y76.036 E1.74247
G1 X167.354 Y76.036 E0.53748
G1 X167.037 Y76.413 F7200.000
G1 F1680
G1 X167.037 Y133.587 E1.71979
G1 X149.863 Y133.587 E0.51660
G1 X149.863 Y76.413 E1.71979
G1 X166.977 Y76.413 E0.51479
G1 X166.660 Y76.790 F7200.000
G1 F1050
G1 X166.660 Y133.210 E1.69711
G1 X150.240 Y133.210 E0.49391
G1 X150.240 Y76.790 E1.69711
G1 X166.600 Y76.790 E0.49211
G1 X167.024 Y76.624 F7200.000
G1 F5760
G1 X166.602 Y78.984 E-0.76000
G1 E-0.04000 F2100.00000
G1 X116.604 Y91.287 F7200.000
G1 E0.80000 F2100.00000
G1 F840
G1 X116.829 Y91.843 E0.01805
G1 X116.902 Y92.215 E0.01138
G1 X116.902 Y92.785 E0.01717
G1 X116.829 Y93.157 E0.01138
G1 X116.616 Y93.684 E0.01713
G1 X116.427 Y93.974 E0.01041
G1 X116.203 Y94.239 E0.01042
G1 X115.732 Y94.614 E0.01811
G1 X115.182 Y94.857 E0.01809
G1 X114.813 Y94.941 E0.01139
G1 X114.244 Y94.960 E0.01711
G1 X113.870 Y94.899 E0.01139
G1 X113.335 Y94.702 E0.01715
G1 X113.012 Y94.506 E0.01137
G1 X112.591 Y94.124 E0.01712
G1 X112.365 Y93.821 E0.01136
G1 X112.103 Y93.279 E0.01810
G1 X111.989 Y92.689 E0.01810
G1 X111.989 Y92.311 E0.01135
G1 X112.103 Y91.721 E0.01810
G1 X112.365 Y91.179 E0.01810
G1 X112.591 Y90.876 E0.01135
G1 X113.012 Y90.494 E0.01712
G1 X113.335 Y90.298 E0.01137
G1 X113.870 Y90.101 E0.01715
G1 X114.244 Y90.040 E0.01139
G1 X114.813 Y90.059 E0.01711
G1 X115.182 Y90.143 E0.01139
G1 X115.704 Y90.374 E0.01718
G1 X115.987 Y90.572 E0.01039
G1 X116.245 Y90.805 E0.01044
G1 X116.568 Y91.239 E0.01630
G1 X116.266 Y91.464 F7200.000
G1 F840
G1 X116.466 Y91.951 E0.01584
G1 X116.525 Y92.251 E0.00919
G1 X116.525 Y92.749 E0.01497
G1 X116.466 Y93.049 E0.00919
G1 X116.280 Y93.509 E0.01494
G1 X116.124 Y93.749 E0.00860
G1 X115.939 Y93.967 E0.00860
G1 X115.535 Y94.289 E0.01554
G1 X115.063 Y94.498 E0.01553
G1 X114.764 Y94.566 E0.00920
G1 X114.268 Y94.582 E0.01493
G1 X113.966 Y94.533 E0.00920
G1 X113.500 Y94.361 E0.01495
G1 X113.239 Y94.203 E0.00918
G1 X112.871 Y93.869 E0.01494
G1 X112.689 Y93.624 E0.00918
G1 X112.464 Y93.159 E0.01554
G1 X112.366 Y92.652 E0.01553
G1 X112.366 Y92.348 E0.00917
G1 X112.464 Y91.841 E0.01553
G1 X112.689 Y91.376 E0.01554
G1 X112.871 Y91.131 E0.00917
G1 X113.239 Y90.797 E0.01494
G1 X113.500 Y90.639 E0.00918
G1 X113.966 Y90.467 E0.01495
G1 X114.268 Y90.418 E0.00920
G1 X114.764 Y90.434 E0.01493
G1 X115.063 Y90.502 E0.00920
G1 X115.518 Y90.704 E0.01498
G1 X115.752 Y90.867 E0.00858
G1 X115.964 Y91.060 E0.00862
G1 X116.230 Y91.416 E0.01338
G1 X115.942 Y91.660 F7200.000
G1 F840
G1 X116.103 Y92.059 E0.01296
G1 X116.148 Y92.288 E0.00700
G1 X116.148 Y92.712 E0.01277
G1 X116.103 Y92.941 E0.00700
G1 X115.944 Y93.334 E0.01276
G1 X115.821 Y93.523 E0.00679
G1 X115.675 Y93.695 E0.00678
G1 X115.338 Y93.964 E0.01297
G1 X114.943 Y94.138 E0.01297
G1 X114.716 Y94.190 E0.00702
G1 X114.293 Y94.204 E0.01274
G1 X114.062 Y94.166 E0.00701
G1 X113.664 Y94.020 E0.01276
G1 X113.466 Y93.899 E0.00699
G1 X113.152 Y93.614 E0.01276
G1 X113.013 Y93.428 E0.00700
G1 X112.825 Y93.039 E0.01297
G1 X112.743 Y92.616 E0.01297
G1 X112.743 Y92.384 E0.00699
G1 X112.825 Y91.961 E0.01297
G1 X113.013 Y91.572 E0.01297
G1 X113.152 Y91.386 E0.00699
G1 X113.466 Y91.101 E0.01276
G1 X113.664 Y90.980 E0.00699
G1 X114.062 Y90.834 E0.01276
G1 X114.293 Y90.796 E0.00701
G1 X114.716 Y90.810 E0.01274
G1 X114.943 Y90.862 E0.00702
G1 X115.332 Y91.034 E0.01277
G1 X115.516 Y91.163 E0.00677
G1 X115.684 Y91.315 E0.00681
G1 X115.906 Y91.612 E0.01116
G1 X116.341 Y91.673 F7200.000
G1 F5760
G1 X116.103 Y92.059 E-0.16939
G1 F5760
G1 X116.148 Y92.288 E-0.08063
G1 F5760
G1 X116.148 Y92.712 E-0.14699
G1 F5760
G1 X116.103 Y92.941 E-0.08064
G1 F5760
G1 X115.944 Y93.334 E-0.14689
G1 F5760
G1 X115.821 Y93.523 E-0.07820
G1 F5760
G1 X115.714 Y93.649 E-0.05726
G1 E-0.04000 F2100.00000
G1 X114.213 Y115.039 F7200.000
G1 E0.80000 F2100.00000
G1 F840
G1 X114.813 Y115.058 E0.01806
G1 X115.182 Y115.143 E0.01140
G1 X115.704 Y115.373 E0.01716
G1 X115.987 Y115.571 E0.01039
G1 X116.245 Y115.804 E0.01045
G1 X116.604 Y116.288 E0.01814
G1 X116.829 Y116.844 E0.01803
G1 X116.902 Y117.214 E0.01135
G1 X116.902 Y117.786 E0.01720
G1 X116.829 Y118.156 E0.01136
G1 X116.616 Y118.684 E0.01713
G1 X116.427 Y118.973 E0.01038
G1 X116.203 Y119.239 E0.01044
G1 X115.756 Y119.595 E0.01721
G1 X115.420 Y119.770 E0.01140
G1 X114.844 Y119.941 E0.01808
G1 X114.243 Y119.960 E0.01808
G1 X113.902 Y119.904 E0.01040
G1 X113.599 Y119.815 E0.00948
G1 X113.308 Y119.686 E0.00960
G1 X113.012 Y119.505 E0.01043
G1 X112.591 Y119.123 E0.01709
G1 X112.365 Y118.821 E0.01135
G1 X112.103 Y118.280 E0.01809
G1 X111.989 Y117.688 E0.01812
G1 X111.989 Y117.312 E0.01134
G1 X112.103 Y116.720 E0.01812
G1 X112.365 Y116.179 E0.01809
G1 X112.591 Y115.877 E0.01135
G1 X113.012 Y115.495 E0.01709
G1 X113.308 Y115.314 E0.01043
G1 X113.627 Y115.173 E0.01050
G1 X114.154 Y115.053 E0.01626
G1 X114.238 Y115.420 F7200.000
G1 F840
G1 X114.764 Y115.434 E0.01584
G1 X115.063 Y115.502 E0.00921
G1 X115.518 Y115.703 E0.01496
G1 X115.751 Y115.867 E0.00858
G1 X115.964 Y116.059 E0.00863
G1 X116.273 Y116.474 E0.01556
G1 X116.466 Y116.952 E0.01550
G1 X116.525 Y117.251 E0.00917
G1 X116.525 Y117.749 E0.01499
G1 X116.466 Y118.048 E0.00917
G1 X116.280 Y118.509 E0.01495
G1 X116.124 Y118.748 E0.00858
G1 X115.939 Y118.967 E0.00862
G1 X115.549 Y119.278 E0.01499
G1 X115.278 Y119.419 E0.00921
G1 X114.783 Y119.565 E0.01552
G1 X114.268 Y119.582 E0.01551
G1 X113.986 Y119.536 E0.00859
G1 X113.730 Y119.460 E0.00803
G1 X113.483 Y119.351 E0.00811
G1 X113.239 Y119.202 E0.00861
G1 X112.871 Y118.869 E0.01492
G1 X112.689 Y118.624 E0.00917
G1 X112.464 Y118.160 E0.01552
G1 X112.366 Y117.652 E0.01555
G1 X112.366 Y117.348 E0.00916
G1 X112.464 Y116.840 E0.01555
G1 X112.689 Y116.376 E0.01552
G1 X112.871 Y116.131 E0.00917
G1 X113.239 Y115.798 E0.01492
G1 X113.483 Y115.649 E0.00861
G1 X113.746 Y115.532 E0.00866
G1 X114.179 Y115.434 E0.01336
G1 X114.286 Y115.796 F7200.000
G1 F840
G1 X114.716 Y115.810 E0.01295
G1 X114.943 Y115.862 E0.00702
G1 X115.332 Y116.033 E0.01276
G1 X115.516 Y116.162 E0.00677
G1 X115.684 Y116.314 E0.00681
G1 X115.942 Y116.660 E0.01298
G1 X116.103 Y117.060 E0.01296
G1 X116.148 Y117.288 E0.00698
G1 X116.148 Y117.712 E0.01278
G1 X116.103 Y117.940 E0.00698
G1 X115.944 Y118.334 E0.01277
G1 X115.821 Y118.523 E0.00678
G1 X115.675 Y118.695 E0.00680
G1 X115.343 Y118.960 E0.01277
G1 X115.136 Y119.068 E0.00702
G1 X114.723 Y119.190 E0.01297
G1 X114.292 Y119.204 E0.01295
G1 X114.069 Y119.167 E0.00679
G1 X113.860 Y119.106 E0.00658
G1 X113.658 Y119.016 E0.00662
G1 X113.466 Y118.899 E0.00679
G1 X113.152 Y118.614 E0.01275
G1 X113.013 Y118.428 E0.00699
G1 X112.825 Y118.040 E0.01296
G1 X112.743 Y117.616 E0.01298
G1 X112.743 Y117.384 E0.00699
G1 X112.825 Y116.960 E0.01298
G1 X113.013 Y116.572 E0.01296
G1 X113.152 Y116.386 E0.00699
G1 X113.466 Y116.101 E0.01275
G1 X113.658 Y115.984 E0.00679
G1 X113.866 Y115.892 E0.00682
G1 X114.227 Y115.810 E0.01115
G1 X114.459 Y115.436 F7200.000
G1 F5760
G1 X114.716 Y115.810 E-0.16929
G1 F5760
G1 X114.943 Y115.862 E-0.08083
G1 F5760
G1 X115.332 Y116.033 E-0.14698
G1 F5760
G1 X115.516 Y116.162 E-0.07800
G1 F5760
G1 X115.684 Y116.314 E-0.07838
G1 F5760
G1 X115.942 Y116.660 E-0.14946
G1 F5760
G1 X116.003 Y116.813 E-0.05706
G1 E-0.04000 F2100.00000
G1 X95.414 Y144.036 F7200.000
G1 E0.80000 F2100.00000
G1 F1680
G1 X95.414 Y65.964 E2.34838
G1 X178.486 Y65.964 E2.49878
G1 X178.486 Y144.036 E2.34838
G1 X95.474 Y144.036 E2.49698
G1 X95.037 Y144.413 F7200.000
G1 F1680
G1 X95.037 Y65.587 E2.37107
G1 X178.863 Y65.587 E2.52147
G1 X178.863 Y144.413 E2.37107
G1 X95.097 Y144.413 E2.51966
G1 X94.660 Y144.790 F7200.000
G1 F1050
G1 X94.660 Y65.210 E2.39375
G1 X179.240 Y65.210 E2.54415
G1 X179.240 Y144.790 E2.39375
G1 X94.720 Y144.790 E2.54235
G1 X94.767 Y144.405 F7200.000
G1 F5760
G1 X94.718 Y142.596 E-0.76000
G1 E-0.04000 F2100.00000
G1 X96.291 Y143.923 F7200.000
G1 E0.80000 F2100.00000
G1 F1680
G1 X95.697 Y143.329 E0.02530
G1 X95.697 Y142.795 E0.01609
G1 X96.655 Y143.753 E0.04083
G1 X97.189 Y143.753 E0.01609
G1 X95.697 Y142.261 E0.06358
G1 X95.697 Y141.727 E0.01609
G1 X97.723 Y143.753 E0.08634
G1 X98.257 Y143.753 E0.01609
G1 X95.697 Y141.193 E0.10910
G1 X95.697 Y140.658 E0.01609
G1 X98.792 Y143.753 E0.13186
G1 X99.326 Y143.753 E0.01609
G1 X95.697 Y140.124 E0.15461
G1 X95.697 Y139.590 E0.01609
G1 X99.860 Y143.753 E0.17737
G1 X100.394 Y143.753 E0.01609
G1 X95.697 Y139.056 E0.20013
G1 X95.697 Y138.522 E0.01609
G1 X100.928 Y143.753 E0.22289
G1 X101.462 Y143.753 E0.01609
G1 X95.697 Y137.988 E0.24565
G1 X95.697 Y137.454 E0.01609
G1 X101.996 Y143.753 E0.26840
G1 X102.530 Y143.753 E0.01609
G1 X95.697 Y136.920 E0.29116
G1 X95.697 Y136.386 E0.01609
G1 X103.064 Y143.753 E0.31392
G1 X103.598 Y143.753 E0.01609
G1 X95.697 Y135.852 E0.33668
G1 X95.697 Y135.317 E0.01609
G1 X104.133 Y143.753 E0.35943
G1 X104.667 Y143.753 E0.01609
G1 X95.697 Y134.783 E0.38219
G1 X95.697 Y134.249 E0.01609
G1 X105.201 Y143.753 E0.40495
G1 X105.735 Y143.753 E0.01609
G1 X95.697 Y133.715 E0.42771
G1 X95.697 Y133.181 E0.01609
G1 X106.269 Y143.753 E0.45046
G1 X106.803 Y143.753 E0.01609
G1 X95.697 Y132.647 E0.47322
G1 X95.697 Y132.113 E0.01609
G1 X107.337 Y143.753 E0.49598
G1 X107.871 Y143.753 E0.01609
G1 X95.697 Y131.579 E0.51874
G1 X95.697 Y131.045 E0.01609
G1 X108.405 Y143.753 E0.54150
G1 X108.940 Y143.753 E0.01609
G1 X95.697 Y130.510 E0.56425
G1 X95.697 Y129.976 E0.01609
G1 X109.474 Y143.753 E0.58701
G1 X110.008 Y143.753 E0.01609
G1 X95.697 Y129.442 E0.60977
G1 X95.697 Y128.908 E0.01609
G1 X110.542 Y143.753 E0.63253
G1 X111.076 Y143.753 E0.01609
G1 X95.697 Y128.374 E0.65528
G1 X95.697 Y127.840 E0.01609
G1 X111.610 Y143.753 E0.67804
G1 X112.144 Y143.753 E0.01609
G1 X95.697 Y127.306 E0.70080
G1 X95.697 Y126.772 E0.01609
G1 X112.678 Y143.753 E0.72356
G1 X113.212 Y143.753 E0.01609
G1 X95.697 Y126.238 E0.74631
G1 X95.697 Y125.703 E0.01609
G1 X113.747 Y143.753 E0.76907
G1 X114.281 Y143.753 E0.01609
G1 X95.697 Y125.169 E0.79183
G1 X95.697 Y124.635 E0.01609
G1 X114.815 Y143.753 E0.81459
G1 X115.349 Y143.753 E0.01609
G1 X95.697 Y124.101 E0.83735
G1 X95.697 Y123.567 E0.01609
G1 X115.883 Y143.753 E0.86010
G1 X116.417 Y143.753 E0.01609
G1 X95.697 Y123.033 E0.88286
G1 X95.697 Y122.499 E0.01609
G1 X116.951 Y143.753 E0.90562
G1 X117.485 Y143.753 E0.01609
G1 X95.697 Y121.965 E0.92838
G1 X95.697 Y121.431 E0.01609
G1 X118.019 Y143.753 E0.95113
G1 X118.554 Y143.753 E0.01609
G1 X95.697 Y120.896 E0.97389
G1 X95.697 Y120.362 E0.01609
G1 X119.088 Y143.753 E0.99665
G1 X119.622 Y143.753 E0.01609
G1 X95.697 Y119.828 E1.01941
G1 X95.697 Y119.294 E0.01609
G1 X120.156 Y143.753 E1.04217
G1 X120.690 Y143.753 E0.01609
G1 X95.697 Y118.760 E1.06492
G1 X95.697 Y118.226 E0.01609
G1 X121.224 Y143.753 E1.08768
G1 X121.758 Y143.753 E0.01609
G1 X95.697 Y117.692 E1.11044
G1 X95.697 Y117.158 E0.01609
G1 X122.292 Y143.753 E1.13320
G1 X122.826 Y143.753 E0.01609
G1 X95.697 Y116.624 E1.15595
G1 X95.697 Y116.090 E0.01609
G1 X123.360 Y143.753 E1.17871
G1 X123.895 Y143.753 E0.01609
G1 X95.697 Y115.555 E1.20147
G1 X95.697 Y115.021 E0.01609
G1 X124.429 Y143.753 E1.22423
G1 X124.963 Y143.753 E0.01609
G1 X95.697 Y114.487 E1.24698
G1 X95.697 Y113.953 E0.01609
G1 X125.497 Y143.753 E1.26974
G1 X126.031 Y143.753 E0.01609
G1 X95.697 Y113.419 E1.29250
G1 X95.697 Y112.885 E0.01609
G1 X126.565 Y143.753 E1.31526
G1 X127.099 Y143.753 E0.01609
G1 X95.697 Y112.351 E1.33802
G1 X95.697 Y111.817 E0.01609
G1 X127.633 Y143.753 E1.36077
G1 X128.167 Y143.753 E0.01609
G1 X95.697 Y111.283 E1.38353
G1 X95.697 Y110.748 E0.01609
G1 X128.702 Y143.753 E1.40629
G1 X129.236 Y143.753 E0.01609
G1 X95.697 Y110.214 E1.42905
G1 X95.697 Y109.680 E0.01609
G1 X129.770 Y143.753 E1.45180
G1 X130.304 Y143.753 E0.01609
G1 X95.697 Y109.146 E1.47456
G1 X95.697 Y108.612 E0.01609
G1 X130.838 Y143.753 E1.49732
G1 X131.372 Y143.753 E0.01609
G1 X95.697 Y108.078 E1.52008
G1 X95.697 Y107.544 E0.01609
G1 X131.906 Y143.753 E1.54284
G1 X132.440 Y143.753 E0.01609
G1 X95.697 Y107.010 E1.56559
G1 X95.697 Y106.476 E0.01609
G1 X132.974 Y143.753 E1.58835
G1 X133.509 Y143.753 E0.01609
G1 X95.697 Y105.941 E1.61111
G1 X95.697 Y105.407 E0.01609
G1 X134.043 Y143.753 E1.63387
G1 X134.577 Y143.753 E0.01609
G1 X95.697 Y104.873 E1.65662
G1 X95.697 Y104.339 E0.01609
G1 X135.111 Y143.753 E1.67938
G1 X135.645 Y143.753 E0.01609
G1 X95.697 Y103.805 E1.70214
G1 X95.697 Y103.271 E0.01609
G1 X136.349 Y143.923 E1.73213
G1 F5760
G1 X134.797 Y142.371 E-0.76000
G1 E-0.04000 F2100.00000
G1 X144.360 Y143.923 F7200.000
G1 E0.80000 F2100.00000
G1 F1680
G1 X117.034 Y116.597 E1.16432
G1 X117.102 Y116.763 E0.00539
G1 X117.185 Y117.186 E0.01301
G1 X117.185 Y117.281 E0.00286
G1 X143.657 Y143.753 E1.12793
G1 X143.122 Y143.753 E0.01609
G1 X117.185 Y117.815 E1.10518
G1 X117.093 Y118.258 E0.01362
G1 X142.588 Y143.753 E1.08632
G1 X142.054 Y143.753 E0.01609
G1 X116.939 Y118.638 E1.07011
G1 X116.868 Y118.816 E0.00577
G1 X116.755 Y118.988 E0.00620
G1 X141.520 Y143.753 E1.05521
G1 X140.986 Y143.753 E0.01609
G1 X116.527 Y119.294 E1.04218
G1 X116.402 Y119.442 E0.00585
G1 X116.257 Y119.558 E0.00558
G1 X140.452 Y143.753 E1.03093
G1 X139.918 Y143.753 E0.01609
G1 X115.959 Y119.795 E1.02084
G1 X115.617 Y119.986 E0.01182
G1 X139.384 Y143.753 E1.01267
G1 X138.850 Y143.753 E0.01609
G1 X115.221 Y120.124 E1.00681
G1 X114.889 Y120.222 E0.01042
G1 X114.788 Y120.225 E0.00304
G1 X138.315 Y143.753 E1.00248
G1 X137.781 Y143.753 E0.01609
G1 X114.270 Y120.242 E1.00179
G1 X113.839 Y120.180 E0.01312
G1 X113.606 Y120.112 E0.00731
G1 X137.247 Y143.753 E1.00732
G1 X136.713 Y143.753 E0.01609
G1 X95.697 Y102.737 E1.74765
G1 X95.697 Y102.203 E0.01609
G1 X111.825 Y118.331 E0.68721
G1 X111.706 Y117.678 E0.02001
G1 X95.697 Y101.669 E0.68213
G1 X95.697 Y101.135 E0.01609
G1 X111.729 Y117.166 E0.68310
G1 X111.816 Y116.719 E0.01373
G1 X95.697 Y100.600 E0.68679
G1 X95.697 Y100.066 E0.01609
G1 X111.972 Y116.342 E0.69348
G1 X112.154 Y115.989 E0.01195
G1 X95.697 Y99.532 E0.70122
G1 X95.697 Y98.998 E0.01609
G1 X112.383 Y115.684 E0.71096
G1 X112.663 Y115.430 E0.01139
G1 X95.697 Y98.464 E0.72289
G1 X95.697 Y97.930 E0.01609
G1 X112.961 Y115.194 E0.73561
G1 X113.306 Y115.005 E0.01186
G1 X95.697 Y97.396 E0.75032
G1 X95.697 Y96.862 E0.01609
