; generated by Slic3r 1.33.8.devel on 2017-09-16 at 12:07:49

; 

; external perimeters extrusion width = 0.45mm
; perimeters extrusion width = 0.45mm
; infill extrusion width = 0.45mm
; solid infill extrusion width = 0.45mm
; top infill extrusion width = 0.40mm
; first layer extrusion width = 0.42mm

M107
M115 U3.0.12 ; tell printer latest fw version
M83  ; extruder relative mode
M104 S215 ; set extruder temp
M140 S55 ; set bed temp
M190 S55 ; wait for bed temp
M109 S215 ; wait for extruder temp
G28 W ; home all without mesh bed level
G80 ; mesh bed leveling
G1 Y-3.0 F1000.0 ; go outside pritn area
G1 X60.0 E9.0  F1000.0 ; intro line
G1 X100.0 E12.5  F1000.0 ; intro line
; Filament gcode

G21 ; set units to millimeters
G90 ; use absolute coordinates
M83 ; use relative distances for extrusion
G1 E-0.80000 F2100.00000
G1 Z0.200 F7200.000
G1 X117.920 Y94.695 F7200.000
G1 E0.80000 F2100.00000
M204 S1000
G1 F1638
G1 X118.421 Y94.244 E0.02030
G1 X119.013 Y93.929 E0.02018
G1 X119.668 Y93.766 E0.02030
G1 X130.004 Y93.746 E0.31091
G1 X130.982 Y93.927 E0.02993
G1 X131.832 Y94.444 E0.02993
G1 X132.443 Y95.229 E0.02993
G1 X132.736 Y96.180 E0.02993
G1 X132.754 Y113.541 E0.52221
G1 X132.673 Y114.162 E0.01883
G1 X132.457 Y114.745 E0.01871
G1 X132.067 Y115.320 E0.02091
G1 X131.545 Y115.780 E0.02091
G1 X130.925 Y116.094 E0.02091
G1 X130.242 Y116.243 E0.02103
G1 X119.930 Y116.253 E0.31018
G1 X119.326 Y116.170 E0.01834
G1 X118.755 Y115.957 E0.01834
G1 X118.164 Y115.553 E0.02152
G1 X117.698 Y115.011 E0.02152
G1 X117.386 Y114.367 E0.02152
G1 X117.251 Y113.661 E0.02164
G1 X117.246 Y96.455 E0.51754
G1 X117.327 Y95.838 E0.01871
G1 X117.543 Y95.255 E0.01871
G1 X117.886 Y94.745 E0.01849
G1 X118.197 Y94.957 F7200.000
G1 F1638
G1 X118.655 Y94.540 E0.01865
G1 X119.175 Y94.271 E0.01760
G1 X119.748 Y94.136 E0.01771
G1 X130.004 Y94.123 E0.30849
G1 X130.856 Y94.283 E0.02609
G1 X131.595 Y94.737 E0.02609
G1 X132.121 Y95.427 E0.02609
G1 X132.364 Y96.256 E0.02598
G1 X132.377 Y113.534 E0.51974
G1 X132.306 Y114.077 E0.01646
G1 X132.113 Y114.589 E0.01646
G1 X131.773 Y115.084 E0.01805
G1 X131.316 Y115.479 E0.01817
G1 X130.775 Y115.747 E0.01817
G1 X130.184 Y115.870 E0.01817
G1 X119.947 Y115.876 E0.30793
G1 X119.416 Y115.804 E0.01612
G1 X118.911 Y115.613 E0.01623
G1 X118.402 Y115.260 E0.01862
G1 X118.002 Y114.788 E0.01862
G1 X117.737 Y114.228 E0.01862
G1 X117.626 Y113.619 E0.01862
G1 X117.623 Y96.466 E0.51597
G1 X117.694 Y95.923 E0.01646
G1 X117.887 Y95.411 E0.01646
G1 X118.163 Y95.007 E0.01472
G1 F5760
G1 X118.655 Y94.540 E-0.23497
G1 F5760
G1 X119.175 Y94.271 E-0.20265
G1 F5760
G1 X119.748 Y94.136 E-0.20396
G1 F5760
G1 X120.090 Y94.136 E-0.11842
G1 E-0.04000 F2100.00000
G1 X123.007 Y104.678 F7200.000
G1 E0.80000 F2100.00000
G1 F840
G1 X123.511 Y104.455 E0.01660
G1 X124.041 Y104.298 E0.01662
G1 X124.586 Y104.209 E0.01660
G1 X125.130 Y104.192 E0.01638
G1 X125.687 Y104.245 E0.01684
G1 X126.227 Y104.368 E0.01664
G1 X126.745 Y104.559 E0.01662
G1 X127.234 Y104.814 E0.01659
G1 X127.687 Y105.130 E0.01661
G1 X128.096 Y105.501 E0.01661
G1 X128.455 Y105.922 E0.01663
G1 X128.755 Y106.385 E0.01661
G1 X128.995 Y106.882 E0.01661
G1 X129.170 Y107.407 E0.01662
G1 X129.275 Y107.949 E0.01661
G1 X129.310 Y108.500 E0.01661
G1 X129.275 Y109.051 E0.01661
G1 X129.170 Y109.593 E0.01661
G1 X128.995 Y110.118 E0.01662
G1 X128.755 Y110.615 E0.01661
G1 X128.455 Y111.078 E0.01661
G1 X128.096 Y111.499 E0.01663
G1 X127.687 Y111.870 E0.01661
G1 X127.234 Y112.186 E0.01661
G1 X126.745 Y112.441 E0.01659
G1 X126.227 Y112.632 E0.01662
G1 X125.688 Y112.755 E0.01664
G1 X125.138 Y112.808 E0.01661
G1 X124.586 Y112.791 E0.01661
G1 X124.041 Y112.702 E0.01660
G1 X123.511 Y112.545 E0.01662
G1 X123.007 Y112.322 E0.01660
G1 X122.534 Y112.035 E0.01664
G1 X122.103 Y111.691 E0.01660
G1 X121.718 Y111.294 E0.01662
G1 X121.388 Y110.851 E0.01661
G1 X121.116 Y110.370 E0.01662
G1 X120.909 Y109.858 E0.01662
G1 X120.769 Y109.324 E0.01660
G1 X120.698 Y108.776 E0.01662
G1 X120.698 Y108.224 E0.01662
G1 X120.769 Y107.676 E0.01662
G1 X120.909 Y107.142 E0.01660
G1 X121.116 Y106.630 E0.01662
G1 X121.388 Y106.149 E0.01662
G1 X121.718 Y105.706 E0.01661
G1 X122.103 Y105.309 E0.01662
G1 X122.534 Y104.965 E0.01660
G1 X122.955 Y104.709 E0.01483
G1 X123.024 Y104.279 F7200.000
G1 F5760
G1 X123.511 Y104.455 E-0.21178
G1 F5760
G1 X124.041 Y104.298 E-0.19142
G1 F5760
G1 X124.586 Y104.209 E-0.19109
G1 F5760
G1 X125.064 Y104.194 E-0.16572
G1 E-0.04000 F2100.00000
G1 X120.587 Y106.933 F7200.000
G1 E0.80000 F2100.00000
G1 F840
G1 X120.587 Y97.087 E0.29616
G1 X129.413 Y97.087 E0.26548
G1 X129.413 Y106.944 E0.29649
G1 X129.345 Y106.740 E0.00645
G1 X129.085 Y106.200 E0.01805
G1 X128.758 Y105.696 E0.01807
G1 X128.367 Y105.238 E0.01809
G1 X127.923 Y104.835 E0.01807
G1 X127.430 Y104.491 E0.01807
G1 X126.898 Y104.213 E0.01805
G1 X126.334 Y104.005 E0.01808
G1 X125.747 Y103.872 E0.01811
G1 X125.142 Y103.814 E0.01829
G1 X124.549 Y103.833 E0.01783
G1 X123.957 Y103.929 E0.01805
G1 X123.381 Y104.100 E0.01808
G1 X122.832 Y104.343 E0.01805
G1 X122.317 Y104.655 E0.01810
G1 X121.848 Y105.029 E0.01805
G1 X121.430 Y105.461 E0.01808
G1 X121.071 Y105.942 E0.01807
G1 X120.776 Y106.466 E0.01807
G1 X120.610 Y106.877 E0.01335
G1 F5760
G1 X120.605 Y104.683 E-0.76000
G1 E-0.04000 F2100.00000
G1 X126.556 Y112.913 F7200.000
G1 E0.80000 F2100.00000
G1 F840
G1 X126.898 Y112.787 E0.01097
G1 X127.430 Y112.509 E0.01805
G1 X127.923 Y112.165 E0.01807
G1 X128.367 Y111.762 E0.01807
G1 X128.758 Y111.304 E0.01809
G1 X129.085 Y110.800 E0.01807
G1 X129.345 Y110.260 E0.01805
G1 X129.413 Y110.056 E0.00645
G1 X129.413 Y112.913 E0.08593
G1 X126.616 Y112.913 E0.08413
G1 F5760
G1 X126.898 Y112.787 E-0.10707
G1 F5760
G1 X127.430 Y112.509 E-0.20783
G1 F5760
G1 X127.923 Y112.165 E-0.20803
G1 F5760
G1 X128.367 Y111.762 E-0.20803
G1 F5760
G1 X128.422 Y111.698 E-0.02905
G1 E-0.04000 F2100.00000
G1 X123.425 Y112.913 F7200.000
G1 E0.80000 F2100.00000
G1 F840
G1 X120.587 Y112.913 E0.08537
G1 X120.587 Y110.067 E0.08560
G1 X120.776 Y110.534 E0.01515
G1 X121.071 Y111.058 E0.01807
G1 X121.430 Y111.539 E0.01807
G1 X121.848 Y111.971 E0.01808
G1 X122.317 Y112.345 E0.01805
G1 X122.832 Y112.657 E0.01810
G1 X123.368 Y112.894 E0.01764
G1 F5760
G1 X121.174 Y112.909 E-0.76000
G1 E-0.04000 F2100.00000
G1 X120.210 Y113.290 F7200.000
G1 E0.80000 F2100.00000
G1 F1260
G1 X120.210 Y96.710 E0.49872
G1 X129.790 Y96.710 E0.28817
G1 X129.790 Y113.290 E0.49872
G1 X120.270 Y113.290 E0.28636
G1 X120.280 Y112.896 F7200.000
G1 F5760
G1 X120.262 Y111.096 E-0.76000
G1 E-0.04000 F2100.00000
G1 X121.667 Y112.800 F7200.000
G1 E0.80000 F2100.00000
G1 F1310
G1 X120.870 Y112.003 E0.04097
G1 X120.870 Y111.672 E0.01203
G1 X121.108 Y111.601 E0.00903
G1 X122.034 Y112.527 E0.04761
G1 X122.173 Y112.475 F7200.000
G1 F1310
G1 X122.254 Y112.724 E0.00027
G1 F5760
G1 X122.173 Y112.475 E-0.09083
G1 E-0.70917 F2100.00000
G1 X123.612 Y112.940 F7200.000
G1 E0.80000 F2100.00000
G1 F1310
G1 X123.790 Y112.966 E0.00335
G1 F1310
G1 X124.270 Y113.016 E0.00634
G1 F1310
G1 X124.566 Y113.040 E0.00183
G1 X125.437 Y113.035 E0.00537
G1 F1310
G1 X125.947 Y112.997 E0.00600
G1 F1310
G1 X126.371 Y112.949 E0.00765
G1 F5760
G1 X125.947 Y112.997 E-0.14761
G1 E-0.65239 F2100.00000
G1 X127.503 Y112.705 F7200.000
G1 E0.80000 F2100.00000
G1 F1310
G1 X127.874 Y112.603 E0.00003
G1 X128.145 Y112.116 F7200.000
G1 F1310
G1 X128.659 Y112.630 E0.02230
G1 X129.130 Y112.630 E0.01445
G1 X129.130 Y112.558 E0.00222
G1 X128.550 Y111.978 E0.02516
G1 X128.803 Y111.687 E0.01182
G1 X129.300 Y112.184 E0.02156
G1 F5760
G1 X128.803 Y111.687 E-0.24345
G1 F5760
G1 X128.550 Y111.978 E-0.13342
G1 F5760
G1 X129.130 Y112.558 E-0.28408
G1 F5760
G1 X129.130 Y112.630 E-0.02508
G1 F5760
G1 X128.917 Y112.630 E-0.07396
G1 E-0.04000 F2100.00000
G1 X129.126 Y111.126 F7200.000
G1 E0.80000 F2100.00000
G1 F1310
G1 X129.206 Y110.992 E0.00005
G1 F5760
G1 X129.126 Y111.126 E-0.05409
G1 E-0.74591 F2100.00000
G1 X129.443 Y109.870 F7200.000
G1 E0.80000 F2100.00000
G1 F1310
G1 X129.494 Y109.473 E0.00715
G1 F1310
G1 X129.531 Y109.089 E0.00502
G1 F1310
G1 X129.550 Y108.497 E0.00406
G1 X129.513 Y107.719 E0.00534
G1 F1310
G1 X129.474 Y107.318 E0.00523
G1 F1310
G1 X129.443 Y107.130 E0.00341
G1 F5760
G1 X129.474 Y107.318 E-0.06608
G1 E-0.73392 F2100.00000
G1 X129.206 Y106.008 F7200.000
G1 E0.80000 F2100.00000
G1 F1310
G1 X129.126 Y105.874 E0.00005
G1 F5760
G1 X129.206 Y106.008 E-0.05409
G1 E-0.74591 F2100.00000
G1 X129.300 Y97.981 F7200.000
G1 E0.80000 F2100.00000
G1 F1310
G1 X128.688 Y97.370 E0.02666
G1 X128.142 Y97.370 E0.01683
G1 X129.130 Y98.358 E0.04307
G1 X129.130 Y98.904 E0.01683
G1 X127.596 Y97.370 E0.06687
G1 X127.050 Y97.370 E0.01683
G1 X129.130 Y99.450 E0.09067
G1 X129.130 Y99.996 E0.01683
G1 X126.504 Y97.370 E0.11447
G1 X125.958 Y97.370 E0.01683
G1 X129.130 Y100.542 E0.13827
G1 X129.130 Y101.088 E0.01683
G1 X125.412 Y97.370 E0.16207
G1 X124.866 Y97.370 E0.01683
G1 X129.130 Y101.634 E0.18588
G1 X129.130 Y102.180 E0.01683
G1 X124.320 Y97.370 E0.20968
G1 X123.775 Y97.370 E0.01683
G1 X129.130 Y102.725 E0.23348
G1 X129.130 Y103.271 E0.01683
G1 X123.229 Y97.370 E0.25728
G1 X122.683 Y97.370 E0.01683
G1 X129.130 Y103.817 E0.28108
G1 X129.130 Y104.363 E0.01683
G1 X122.137 Y97.370 E0.30488
G1 X121.591 Y97.370 E0.01683
G1 X129.130 Y104.909 E0.32868
G1 X129.130 Y105.455 E0.01683
G1 X121.045 Y97.370 E0.35248
G1 X120.870 Y97.370 E0.00539
G1 X120.870 Y97.741 E0.01144
G1 X127.159 Y104.030 E0.27418
G1 X127.013 Y103.954 E0.00508
G1 X126.415 Y103.734 E0.01965
G1 X126.288 Y103.705 E0.00402
G1 X120.870 Y98.287 E0.23619
G1 X120.870 Y98.833 E0.01683
G1 X125.612 Y103.575 E0.20672
G1 X125.026 Y103.535 E0.01809
G1 X120.870 Y99.379 E0.18119
G1 X120.870 Y99.925 E0.01683
G1 X124.500 Y103.555 E0.15825
G1 X124.030 Y103.631 E0.01467
G1 X120.870 Y100.471 E0.13777
G1 X120.870 Y101.017 E0.01683
G1 X123.595 Y103.742 E0.11879
G1 X123.185 Y103.878 E0.01332
G1 X120.870 Y101.563 E0.10092
G1 X120.870 Y102.109 E0.01683
G1 X122.806 Y104.045 E0.08442
G1 X122.456 Y104.241 E0.01237
G1 X120.870 Y102.655 E0.06913
G1 X120.870 Y103.201 E0.01683
G1 X122.120 Y104.451 E0.05449
G1 X121.816 Y104.693 E0.01197
G1 X120.870 Y103.747 E0.04126
G1 X120.870 Y104.293 E0.01683
G1 X121.529 Y104.952 E0.02876
G1 X121.261 Y105.229 E0.01190
G1 X120.700 Y104.669 E0.02443
G1 X120.900 Y105.632 F7200.000
G1 F1310
G1 X120.788 Y106.009 E0.00307
G1 F5760
G1 X120.900 Y105.632 E-0.13617
G1 E-0.66383 F2100.00000
G1 X120.557 Y107.119 F7200.000
G1 E0.80000 F2100.00000
G1 F1310
G1 X120.493 Y107.616 E0.00926
G1 F1310
G1 X120.454 Y108.204 E0.00639
G1 F1310
G1 X120.454 Y108.789 E0.00258
G1 X120.473 Y109.084 E0.00131
G1 F1310
G1 X120.525 Y109.633 E0.00587
G1 F1310
G1 X120.557 Y109.881 E0.00463
G1 F5760
G1 X120.525 Y109.633 E-0.08674
G1 E-0.71326 F2100.00000
G1 X120.788 Y110.991 F7200.000
G1 E0.80000 F2100.00000
G1 F1310
G1 X120.900 Y111.368 E0.00307
M106 S252.45
G1 F5760
G1 X120.788 Y110.991 E-0.13617
G1 E-0.66383 F2100.00000
G1 Z0.400 F7200.000
M104 S210 ; set temperature
G1 X130.982 Y93.927 F7200.000
G1 E0.80000 F2100.00000
G1 F900
G1 X131.832 Y94.444 E0.02993
G1 X132.443 Y95.229 E0.02993
G1 X132.736 Y96.180 E0.02993
G1 X132.754 Y113.541 E0.52221
G1 X132.673 Y114.162 E0.01883
G1 X132.457 Y114.745 E0.01871
G1 X132.067 Y115.320 E0.02091
G1 X131.545 Y115.780 E0.02091
G1 X130.925 Y116.094 E0.02091
G1 X130.242 Y116.243 E0.02103
G1 X119.930 Y116.253 E0.31018
G1 X119.326 Y116.170 E0.01834
G1 X118.755 Y115.957 E0.01834
G1 X118.164 Y115.553 E0.02152
G1 X117.698 Y115.011 E0.02152
G1 X117.386 Y114.367 E0.02152
G1 X117.251 Y113.661 E0.02164
G1 X117.246 Y96.455 E0.51754
G1 X117.327 Y95.838 E0.01871
G1 X117.543 Y95.255 E0.01871
G1 X117.920 Y94.695 E0.02030
G1 X118.421 Y94.244 E0.02030
G1 X119.013 Y93.929 E0.02018
G1 X119.668 Y93.766 E0.02030
G1 X130.004 Y93.746 E0.31091
G1 X130.923 Y93.916 E0.02812
G1 F5760
G1 X131.832 Y94.444 E-0.36409
G1 F5760
G1 X132.443 Y95.229 E-0.34459
G1 F5760
G1 X132.487 Y95.371 E-0.05132
G1 E-0.04000 F2100.00000
G1 X126.751 Y104.545 F7200.000
G1 E0.80000 F2100.00000
M204 S800
G1 F901
G1 X127.242 Y104.801 E0.01803
G1 X127.697 Y105.118 E0.01806
G1 X128.107 Y105.491 E0.01805
G1 X128.467 Y105.913 E0.01807
G1 X128.768 Y106.378 E0.01805
G1 X129.009 Y106.877 E0.01805
G1 X129.184 Y107.403 E0.01806
G1 X129.290 Y107.947 E0.01805
G1 X129.325 Y108.500 E0.01806
G1 X129.290 Y109.053 E0.01806
G1 X129.184 Y109.597 E0.01805
G1 X129.009 Y110.123 E0.01806
G1 X128.768 Y110.622 E0.01805
G1 X128.467 Y111.087 E0.01805
G1 X128.107 Y111.509 E0.01807
G1 X127.697 Y111.882 E0.01805
G1 X127.242 Y112.199 E0.01806
G1 X126.751 Y112.455 E0.01803
G1 X126.231 Y112.647 E0.01806
G1 X125.690 Y112.770 E0.01808
G1 X125.138 Y112.823 E0.01806
G1 X124.584 Y112.806 E0.01805
G1 X124.038 Y112.717 E0.01803
G1 X123.506 Y112.559 E0.01807
G1 X123.000 Y112.335 E0.01804
G1 X122.525 Y112.048 E0.01808
G1 X122.092 Y111.702 E0.01804
G1 X121.706 Y111.304 E0.01806
G1 X121.375 Y110.860 E0.01805
G1 X121.103 Y110.377 E0.01806
G1 X120.895 Y109.863 E0.01806
G1 X120.755 Y109.327 E0.01804
G1 X120.683 Y108.777 E0.01806
G1 X120.683 Y108.223 E0.01807
G1 X120.755 Y107.673 E0.01806
G1 X120.895 Y107.137 E0.01804
G1 X121.103 Y106.623 E0.01806
G1 X121.375 Y106.140 E0.01806
G1 X121.706 Y105.696 E0.01805
G1 X122.092 Y105.298 E0.01806
G1 X122.525 Y104.952 E0.01804
G1 X123.000 Y104.665 E0.01808
G1 X123.506 Y104.441 E0.01804
G1 X124.038 Y104.283 E0.01807
G1 X124.584 Y104.194 E0.01803
G1 X125.115 Y104.177 E0.01730
G1 X125.689 Y104.230 E0.01878
G1 X126.231 Y104.353 E0.01810
G1 X126.695 Y104.524 E0.01610
M204 S1000
G1 X127.075 Y104.309 F7200.000
G1 F5760
G1 X127.242 Y104.801 E-0.21235
G1 F5760
G1 X127.697 Y105.118 E-0.19198
G1 F5760
G1 X128.107 Y105.491 E-0.19196
G1 F5760
G1 X128.414 Y105.850 E-0.16371
G1 E-0.04000 F2100.00000
G1 X129.368 Y106.684 F7200.000
G1 E0.80000 F2100.00000
M204 S800
G1 F900
G1 X129.124 Y106.178 E0.01831
G1 X128.794 Y105.669 E0.01975
G1 X128.400 Y105.207 E0.01978
G1 X127.951 Y104.799 E0.01975
G1 X127.454 Y104.452 E0.01975
G1 X126.917 Y104.172 E0.01973
G1 X126.347 Y103.962 E0.01977
G1 X125.753 Y103.827 E0.01984
G1 X125.127 Y103.770 E0.02048
G1 X124.545 Y103.788 E0.01897
G1 X123.947 Y103.885 E0.01974
G1 X123.365 Y104.058 E0.01977
G1 X122.811 Y104.303 E0.01974
G1 X122.292 Y104.618 E0.01979
G1 X121.818 Y104.996 E0.01974
G1 X121.396 Y105.432 E0.01976
G1 X121.033 Y105.918 E0.01976
G1 X120.735 Y106.446 E0.01976
G1 X120.632 Y106.702 E0.00897
G1 X120.632 Y97.132 E0.31172
G1 X129.368 Y97.132 E0.28456
G1 X129.368 Y106.624 E0.30919
M204 S1000
G1 F5760
G1 X129.124 Y106.178 E-0.17617
G1 F5760
G1 X128.794 Y105.669 E-0.21005
G1 F5760
G1 X128.400 Y105.207 E-0.21029
G1 F5760
G1 X128.050 Y104.890 E-0.16348
G1 E-0.04000 F2100.00000
G1 X129.368 Y110.316 F7200.000
G1 E0.80000 F2100.00000
M204 S800
G1 F900
G1 X129.368 Y112.868 E0.08312
G1 X126.809 Y112.868 E0.08337
G1 X127.454 Y112.548 E0.02345
G1 X127.951 Y112.201 E0.01975
G1 X128.400 Y111.793 E0.01975
G1 X128.794 Y111.331 E0.01978
G1 X129.124 Y110.822 E0.01975
G1 X129.342 Y110.370 E0.01635
M204 S1000
G1 F5760
G1 X129.365 Y112.564 E-0.76000
G1 E-0.04000 F2100.00000
G1 X123.198 Y112.868 F7200.000
G1 E0.80000 F2100.00000
M204 S800
G1 F900
G1 X120.632 Y112.868 E0.08357
G1 X120.632 Y110.298 E0.08370
G1 X120.735 Y110.554 E0.00897
G1 X121.033 Y111.082 E0.01976
G1 X121.396 Y111.568 E0.01976
G1 X121.818 Y112.004 E0.01976
G1 X122.292 Y112.382 E0.01974
G1 X122.811 Y112.697 E0.01979
G1 X123.143 Y112.844 E0.01182
M204 S1000
G1 F5760
G1 X120.949 Y112.865 E-0.76000
G1 E-0.04000 F2100.00000
G1 X120.225 Y113.275 F7200.000
G1 E0.80000 F2100.00000
M204 S800
G1 F1352
G1 X120.225 Y96.725 E0.53911
G1 X129.775 Y96.725 E0.31109
G1 X129.775 Y113.275 E0.53911
G1 X120.285 Y113.275 E0.30913
M204 S1000
G1 X120.294 Y112.881 F7200.000
G1 X120.803 Y112.746 F7200.000
M204 S2000
G1 F900
G1 X121.468 Y112.081 E0.03438
G1 X121.152 Y111.753 E0.01665
G1 X120.754 Y112.151 E0.02059
M204 S1000
G1 F5760
G1 X121.152 Y111.753 E-0.19503
G1 F5760
G1 X121.468 Y112.081 E-0.15768
G1 F5760
G1 X120.803 Y112.746 E-0.32561
G1 E-0.12168 F2100.00000
G1 X121.928 Y112.535 F7200.000
G1 E0.80000 F2100.00000
G1 F900
