; generated by Slic3r 1.33.8.devel on 2017-09-16 at 16:49:02

; 

; external perimeters extrusion width = 0.45mm
; perimeters extrusion width = 0.45mm
; infill extrusion width = 0.45mm
; solid infill extrusion width = 0.45mm
; top infill extrusion width = 0.40mm
; first layer extrusion width = 0.42mm

M107
M115 U3.0.12 ; tell printer latest fw version
M83  ; extruder relative mode
M104 S215 ; set extruder temp
M140 S55 ; set bed temp
M190 S55 ; wait for bed temp
M109 S215 ; wait for extruder temp
G28 W ; home all without mesh bed level
G80 ; mesh bed leveling
G1 Y-3.0 F1000.0 ; go outside pritn area
G1 X60.0 E9.0  F1000.0 ; intro line
G1 X100.0 E12.5  F1000.0 ; intro line
; Filament gcode

G21 ; set units to millimeters
G90 ; use absolute coordinates
M83 ; use relative distances for extrusion
G1 E-0.80000 F2100.00000
G1 Z0.200 F7200.000
G1 X68.602 Y85.577 F7200.000
G1 E0.80000 F2100.00000
M204 S1000
G1 F2100
G1 X69.236 Y85.249 E0.02146
G1 X69.995 Y85.123 E0.02316
G1 X180.004 Y85.123 E3.30905
G1 X180.899 Y85.299 E0.02744
G1 X181.664 Y85.803 E0.02755
G1 X182.182 Y86.558 E0.02755
G1 X182.377 Y87.453 E0.02755
G1 X182.375 Y122.603 E1.05729
G1 X182.239 Y123.299 E0.02135
G1 X181.903 Y123.924 E0.02135
G1 X181.398 Y124.423 E0.02135
G1 X180.764 Y124.751 E0.02146
G1 X180.005 Y124.877 E0.02316
G1 X69.970 Y124.877 E3.30985
G1 X69.251 Y124.756 E0.02191
G1 X68.603 Y124.423 E0.02191
G1 X68.086 Y123.910 E0.02191
G1 X67.749 Y123.264 E0.02191
G1 X67.623 Y122.509 E0.02304
G1 X67.625 Y87.409 E1.05581
G1 X67.759 Y86.708 E0.02146
G1 X68.095 Y86.079 E0.02146
G1 X68.560 Y85.619 E0.01965
G1 F5760
G1 X69.236 Y85.249 E-0.26700
G1 F5760
G1 X69.995 Y85.123 E-0.26663
G1 F5760
G1 X70.649 Y85.123 E-0.22637
G1 E-0.04000 F2100.00000
G1 X170.971 Y116.162 F7200.000
G1 E0.80000 F2100.00000
G1 F840
G1 X171.175 Y115.658 E0.01637
G1 X171.442 Y115.184 E0.01637
G1 X171.767 Y114.748 E0.01636
G1 X172.146 Y114.357 E0.01637
G1 X172.571 Y114.018 E0.01635
G1 X173.037 Y113.736 E0.01638
G1 X173.534 Y113.516 E0.01635
G1 X174.056 Y113.361 E0.01638
G1 X174.597 Y113.274 E0.01649
G1 X175.136 Y113.257 E0.01621
G1 X175.677 Y113.309 E0.01636
G1 X176.208 Y113.430 E0.01639
G1 X176.714 Y113.616 E0.01622
G1 X177.200 Y113.870 E0.01649
G1 X177.647 Y114.181 E0.01637
G1 X178.049 Y114.546 E0.01636
G1 X178.403 Y114.961 E0.01637
G1 X178.699 Y115.417 E0.01636
G1 X178.935 Y115.907 E0.01636
G1 X179.107 Y116.423 E0.01637
G1 X179.210 Y116.957 E0.01636
G1 X179.245 Y117.500 E0.01636
G1 X179.210 Y118.043 E0.01636
G1 X179.107 Y118.577 E0.01636
G1 X178.935 Y119.093 E0.01637
G1 X178.699 Y119.583 E0.01636
G1 X178.403 Y120.039 E0.01636
G1 X178.049 Y120.454 E0.01638
G1 X177.643 Y120.822 E0.01651
G1 X177.200 Y121.130 E0.01622
G1 X176.719 Y121.382 E0.01634
G1 X176.208 Y121.570 E0.01636
G1 X175.677 Y121.691 E0.01639
G1 X175.136 Y121.743 E0.01637
G1 X174.587 Y121.725 E0.01651
G1 X174.056 Y121.639 E0.01620
G1 X173.534 Y121.484 E0.01637
G1 X173.037 Y121.264 E0.01635
G1 X172.575 Y120.985 E0.01624
G1 X172.146 Y120.643 E0.01649
G1 X171.764 Y120.248 E0.01652
G1 X171.442 Y119.816 E0.01621
G1 X171.175 Y119.342 E0.01637
G1 X170.971 Y118.838 E0.01637
G1 X170.833 Y118.312 E0.01636
G1 X170.763 Y117.772 E0.01636
G1 X170.763 Y117.228 E0.01637
G1 X170.833 Y116.688 E0.01636
G1 X170.956 Y116.220 E0.01455
G1 X170.705 Y115.863 F7200.000
G1 F5760
G1 X171.175 Y115.658 E-0.20907
G1 F5760
G1 X171.442 Y115.184 E-0.18846
G1 F5760
G1 X171.767 Y114.748 E-0.18838
G1 F5760
G1 X172.117 Y114.387 E-0.17410
G1 E-0.04000 F2100.00000
G1 X176.368 Y121.913 F7200.000
G1 E0.80000 F2100.00000
G1 F840
G1 X176.872 Y121.728 E0.01615
G1 X177.396 Y121.453 E0.01780
G1 X177.878 Y121.118 E0.01766
G1 X178.321 Y120.717 E0.01796
G1 X178.705 Y120.265 E0.01785
G1 X179.028 Y119.768 E0.01782
G1 X179.285 Y119.235 E0.01780
G1 X179.413 Y118.851 E0.01219
G1 X179.413 Y121.913 E0.09211
G1 X176.428 Y121.913 E0.08978
G1 F5760
G1 X176.872 Y121.728 E-0.16659
G1 F5760
G1 X177.396 Y121.453 E-0.20495
G1 F5760
G1 X177.878 Y121.118 E-0.20336
G1 F5760
G1 X178.274 Y120.759 E-0.18510
G1 E-0.04000 F2100.00000
G1 X179.413 Y91.149 F7200.000
G1 E0.80000 F2100.00000
G1 F840
G1 X179.285 Y90.765 E0.01219
G1 X179.028 Y90.232 E0.01780
G1 X178.705 Y89.735 E0.01782
G1 X178.321 Y89.284 E0.01784
G1 X177.882 Y88.885 E0.01782
G1 X177.396 Y88.546 E0.01783
G1 X176.867 Y88.271 E0.01794
G1 X176.368 Y88.087 E0.01599
G1 X179.413 Y88.087 E0.09158
G1 X179.413 Y91.089 E0.09030
G1 X179.107 Y91.423 F7200.000
G1 F840
G1 X179.210 Y91.957 E0.01636
G1 X179.245 Y92.500 E0.01636
G1 X179.210 Y93.043 E0.01636
G1 X179.107 Y93.577 E0.01636
G1 X178.935 Y94.093 E0.01637
G1 X178.699 Y94.583 E0.01636
G1 X178.403 Y95.039 E0.01636
G1 X178.049 Y95.454 E0.01638
G1 X177.643 Y95.822 E0.01651
G1 X177.200 Y96.130 E0.01622
G1 X176.719 Y96.382 E0.01634
G1 X176.208 Y96.570 E0.01637
G1 X175.677 Y96.691 E0.01639
G1 X175.136 Y96.743 E0.01637
G1 X174.587 Y96.725 E0.01650
G1 X174.056 Y96.639 E0.01620
G1 X173.534 Y96.484 E0.01637
G1 X173.037 Y96.264 E0.01635
G1 X172.575 Y95.985 E0.01624
G1 X172.146 Y95.643 E0.01649
G1 X171.764 Y95.248 E0.01652
G1 X171.442 Y94.816 E0.01621
G1 X171.175 Y94.342 E0.01637
G1 X170.971 Y93.838 E0.01636
G1 X170.833 Y93.312 E0.01636
G1 X170.763 Y92.772 E0.01637
G1 X170.763 Y92.228 E0.01637
G1 X170.833 Y91.688 E0.01637
G1 X170.971 Y91.162 E0.01636
G1 X171.175 Y90.658 E0.01636
G1 X171.442 Y90.184 E0.01637
G1 X171.767 Y89.748 E0.01636
G1 X172.146 Y89.357 E0.01637
G1 X172.571 Y89.018 E0.01635
G1 X173.037 Y88.736 E0.01638
G1 X173.534 Y88.516 E0.01635
G1 X174.056 Y88.361 E0.01638
G1 X174.597 Y88.274 E0.01649
G1 X175.136 Y88.257 E0.01621
G1 X175.677 Y88.309 E0.01636
G1 X176.208 Y88.430 E0.01639
G1 X176.714 Y88.616 E0.01622
G1 X177.200 Y88.870 E0.01649
G1 X177.647 Y89.181 E0.01637
G1 X178.049 Y89.546 E0.01636
G1 X178.403 Y89.961 E0.01638
G1 X178.699 Y90.417 E0.01636
G1 X178.935 Y90.907 E0.01636
G1 X179.088 Y91.366 E0.01457
G1 X179.492 Y91.529 F7200.000
G1 F5760
G1 X179.210 Y91.957 E-0.20902
G1 F5760
G1 X179.245 Y92.500 E-0.18842
G1 F5760
G1 X179.210 Y93.043 E-0.18842
G1 F5760
G1 X179.115 Y93.536 E-0.17413
G1 E-0.04000 F2100.00000
G1 X179.413 Y93.851 F7200.000
G1 E0.80000 F2100.00000
G1 F1680
G1 X179.413 Y116.149 E0.67073
G1 X179.285 Y115.765 E0.01219
G1 X179.028 Y115.232 E0.01780
G1 X178.705 Y114.735 E0.01782
G1 X178.321 Y114.283 E0.01784
G1 X177.882 Y113.885 E0.01782
G1 X177.396 Y113.546 E0.01783
G1 X176.867 Y113.271 E0.01794
G1 X176.316 Y113.068 E0.01767
G1 X175.737 Y112.936 E0.01784
G1 X175.148 Y112.879 E0.01782
G1 X174.561 Y112.898 E0.01767
G1 X173.972 Y112.993 E0.01794
G1 X173.403 Y113.161 E0.01784
G1 X172.862 Y113.401 E0.01780
G1 X172.355 Y113.708 E0.01785
G1 X171.892 Y114.078 E0.01780
G1 X171.480 Y114.503 E0.01782
G1 X171.125 Y114.978 E0.01782
G1 X170.835 Y115.494 E0.01782
G1 X170.612 Y116.043 E0.01783
G1 X170.462 Y116.616 E0.01780
G1 X170.386 Y117.203 E0.01782
G1 X170.386 Y117.797 E0.01785
G1 X170.462 Y118.384 E0.01782
G1 X170.612 Y118.957 E0.01780
G1 X170.835 Y119.506 E0.01783
G1 X171.125 Y120.022 E0.01782
G1 X171.477 Y120.493 E0.01766
G1 X171.892 Y120.922 E0.01798
G1 X172.359 Y121.295 E0.01796
G1 X172.862 Y121.599 E0.01769
G1 X173.403 Y121.839 E0.01780
G1 X173.653 Y121.913 E0.00784
G1 X76.368 Y121.913 E2.92633
G1 X76.871 Y121.728 E0.01614
G1 X77.397 Y121.454 E0.01782
G1 X77.883 Y121.115 E0.01782
G1 X78.321 Y120.716 E0.01782
G1 X78.705 Y120.265 E0.01782
G1 X79.028 Y119.769 E0.01782
G1 X79.285 Y119.235 E0.01782
G1 X79.472 Y118.673 E0.01782
G1 X79.585 Y118.091 E0.01782
G1 X79.623 Y117.500 E0.01782
G1 X79.585 Y116.909 E0.01782
G1 X79.472 Y116.327 E0.01782
G1 X79.285 Y115.765 E0.01782
G1 X79.028 Y115.231 E0.01782
G1 X78.705 Y114.735 E0.01782
G1 X78.321 Y114.284 E0.01782
G1 X77.883 Y113.885 E0.01782
G1 X77.397 Y113.546 E0.01782
G1 X76.871 Y113.272 E0.01782
G1 X76.315 Y113.068 E0.01782
G1 X75.738 Y112.936 E0.01782
G1 X75.148 Y112.879 E0.01782
G1 X74.561 Y112.898 E0.01767
G1 X73.972 Y112.993 E0.01796
G1 X73.403 Y113.161 E0.01783
G1 X72.862 Y113.401 E0.01782
G1 X72.355 Y113.708 E0.01782
G1 X71.892 Y114.078 E0.01782
G1 X71.480 Y114.503 E0.01782
G1 X71.125 Y114.978 E0.01782
G1 X70.835 Y115.494 E0.01782
G1 X70.587 Y116.139 E0.02078
G1 X70.587 Y93.861 E0.67013
G1 X70.834 Y94.506 E0.02077
G1 X71.125 Y95.022 E0.01783
G1 X71.477 Y95.493 E0.01767
G1 X71.891 Y95.922 E0.01796
G1 X72.355 Y96.292 E0.01783
G1 X72.862 Y96.599 E0.01782
G1 X73.403 Y96.839 E0.01782
G1 X73.971 Y97.007 E0.01782
G1 X74.556 Y97.102 E0.01782
G1 X75.149 Y97.121 E0.01783
G1 X75.743 Y97.063 E0.01796
G1 X76.315 Y96.932 E0.01767
G1 X76.871 Y96.728 E0.01782
G1 X77.397 Y96.454 E0.01782
G1 X77.878 Y96.118 E0.01767
G1 X78.321 Y95.717 E0.01796
G1 X78.705 Y95.265 E0.01783
G1 X79.028 Y94.769 E0.01782
G1 X79.285 Y94.235 E0.01782
G1 X79.472 Y93.673 E0.01782
G1 X79.584 Y93.096 E0.01767
G1 X79.623 Y92.500 E0.01797
G1 X79.584 Y91.904 E0.01797
G1 X79.472 Y91.327 E0.01767
G1 X79.285 Y90.765 E0.01782
G1 X79.028 Y90.231 E0.01782
G1 X78.705 Y89.735 E0.01782
G1 X78.321 Y89.284 E0.01782
G1 X77.883 Y88.885 E0.01782
G1 X77.397 Y88.546 E0.01782
G1 X76.871 Y88.272 E0.01782
G1 X76.368 Y88.087 E0.01614
G1 X173.653 Y88.087 E2.92633
G1 X173.403 Y88.161 E0.00784
G1 X172.862 Y88.401 E0.01780
G1 X172.355 Y88.708 E0.01784
G1 X171.892 Y89.078 E0.01780
G1 X171.480 Y89.503 E0.01783
G1 X171.125 Y89.978 E0.01782
G1 X170.835 Y90.494 E0.01782
G1 X170.612 Y91.043 E0.01783
G1 X170.462 Y91.616 E0.01780
G1 X170.386 Y92.203 E0.01782
G1 X170.386 Y92.797 E0.01785
G1 X170.462 Y93.384 E0.01782
G1 X170.612 Y93.957 E0.01780
G1 X170.835 Y94.506 E0.01783
G1 X171.125 Y95.022 E0.01782
G1 X171.477 Y95.493 E0.01766
G1 X171.892 Y95.922 E0.01798
G1 X172.359 Y96.295 E0.01796
G1 X172.862 Y96.599 E0.01769
G1 X173.403 Y96.839 E0.01780
G1 X173.972 Y97.007 E0.01783
G1 X174.551 Y97.101 E0.01765
G1 X175.147 Y97.121 E0.01796
G1 X175.737 Y97.064 E0.01783
G1 X176.316 Y96.932 E0.01784
G1 X176.872 Y96.728 E0.01783
G1 X177.396 Y96.453 E0.01780
G1 X177.878 Y96.118 E0.01766
G1 X178.321 Y95.717 E0.01796
G1 X178.705 Y95.265 E0.01785
G1 X179.028 Y94.768 E0.01782
G1 X179.285 Y94.235 E0.01780
G1 X179.394 Y93.908 E0.01038
G1 F5760
G1 X179.396 Y96.102 E-0.76000
G1 E-0.04000 F2100.00000
G1 X79.245 Y92.500 F7200.000
G1 E0.80000 F2100.00000
G1 F840
G1 X79.210 Y93.048 E0.01651
G1 X79.107 Y93.577 E0.01622
G1 X78.935 Y94.093 E0.01636
G1 X78.699 Y94.583 E0.01636
G1 X78.402 Y95.039 E0.01636
G1 X78.050 Y95.454 E0.01637
G1 X77.643 Y95.822 E0.01651
G1 X77.201 Y96.130 E0.01622
G1 X76.718 Y96.382 E0.01636
G1 X76.208 Y96.570 E0.01636
G1 X75.682 Y96.690 E0.01622
G1 X75.136 Y96.743 E0.01651
G1 X74.592 Y96.726 E0.01637
G1 X74.055 Y96.639 E0.01636
G1 X73.534 Y96.484 E0.01636
G1 X73.036 Y96.264 E0.01636
G1 X72.571 Y95.982 E0.01636
G1 X72.146 Y95.643 E0.01637
G1 X71.764 Y95.248 E0.01651
G1 X71.442 Y94.816 E0.01622
G1 X71.175 Y94.342 E0.01637
G1 X70.970 Y93.833 E0.01651
G1 X70.833 Y93.312 E0.01622
G1 X70.763 Y92.772 E0.01637
G1 X70.764 Y92.223 E0.01651
G1 X70.833 Y91.688 E0.01622
G1 X70.971 Y91.162 E0.01636
G1 X71.175 Y90.658 E0.01636
G1 X71.442 Y90.184 E0.01636
G1 X71.767 Y89.748 E0.01636
G1 X72.146 Y89.357 E0.01636
G1 X72.571 Y89.018 E0.01636
G1 X73.036 Y88.736 E0.01636
G1 X73.534 Y88.516 E0.01636
G1 X74.055 Y88.361 E0.01637
G1 X74.597 Y88.274 E0.01651
G1 X75.136 Y88.257 E0.01622
G1 X75.678 Y88.309 E0.01636
G1 X76.208 Y88.430 E0.01636
G1 X76.718 Y88.618 E0.01636
G1 X77.201 Y88.870 E0.01636
G1 X77.647 Y89.181 E0.01636
G1 X78.050 Y89.547 E0.01636
G1 X78.402 Y89.961 E0.01636
G1 X78.699 Y90.417 E0.01636
G1 X78.935 Y90.907 E0.01636
G1 X79.107 Y91.423 E0.01636
G1 X79.210 Y91.952 E0.01622
G1 X79.242 Y92.440 E0.01471
G1 X79.592 Y92.700 F7200.000
G1 F5760
G1 X79.210 Y93.048 E-0.21074
G1 F5760
G1 X79.107 Y93.577 E-0.18671
G1 F5760
G1 X78.935 Y94.093 E-0.18842
G1 F5760
G1 X78.717 Y94.546 E-0.17413
G1 E-0.04000 F2100.00000
G1 X73.653 Y88.087 F7200.000
G1 E0.80000 F2100.00000
G1 F840
G1 X73.403 Y88.161 E0.00784
G1 X72.862 Y88.401 E0.01782
G1 X72.355 Y88.708 E0.01782
G1 X71.892 Y89.077 E0.01782
G1 X71.480 Y89.503 E0.01782
G1 X71.125 Y89.978 E0.01782
G1 X70.835 Y90.494 E0.01782
G1 X70.587 Y91.139 E0.02078
G1 X70.587 Y88.087 E0.09181
G1 X73.593 Y88.087 E0.09042
G1 F5760
G1 X73.403 Y88.161 E-0.07055
G1 F5760
G1 X72.862 Y88.401 E-0.20519
G1 F5760
G1 X72.355 Y88.708 E-0.20519
G1 F5760
G1 X71.892 Y89.077 E-0.20519
G1 F5760
G1 X71.743 Y89.231 E-0.07388
G1 E-0.04000 F2100.00000
G1 X74.597 Y113.274 F7200.000
G1 E0.80000 F2100.00000
G1 F840
G1 X75.136 Y113.257 E0.01622
G1 X75.678 Y113.309 E0.01636
G1 X76.208 Y113.430 E0.01636
G1 X76.718 Y113.618 E0.01636
G1 X77.201 Y113.870 E0.01636
G1 X77.647 Y114.181 E0.01636
G1 X78.050 Y114.547 E0.01636
G1 X78.402 Y114.961 E0.01636
G1 X78.699 Y115.417 E0.01637
G1 X78.935 Y115.907 E0.01636
G1 X79.107 Y116.423 E0.01636
G1 X79.211 Y116.957 E0.01636
G1 X79.245 Y117.500 E0.01636
G1 X79.211 Y118.043 E0.01636
G1 X79.107 Y118.577 E0.01636
G1 X78.935 Y119.093 E0.01636
G1 X78.699 Y119.583 E0.01636
G1 X78.402 Y120.039 E0.01637
G1 X78.050 Y120.453 E0.01636
G1 X77.647 Y120.819 E0.01636
G1 X77.201 Y121.130 E0.01636
G1 X76.718 Y121.382 E0.01636
G1 X76.208 Y121.570 E0.01636
G1 X75.678 Y121.691 E0.01636
G1 X75.136 Y121.743 E0.01636
G1 X74.592 Y121.726 E0.01636
G1 X74.055 Y121.639 E0.01636
G1 X73.534 Y121.484 E0.01636
G1 X73.036 Y121.264 E0.01636
G1 X72.571 Y120.982 E0.01637
G1 X72.146 Y120.643 E0.01636
G1 X71.767 Y120.252 E0.01636
G1 X71.442 Y119.816 E0.01636
G1 X71.175 Y119.342 E0.01636
G1 X70.971 Y118.838 E0.01636
G1 X70.833 Y118.312 E0.01636
G1 X70.763 Y117.772 E0.01636
G1 X70.763 Y117.228 E0.01636
G1 X70.833 Y116.688 E0.01636
G1 X70.971 Y116.162 E0.01636
G1 X71.175 Y115.658 E0.01636
G1 X71.442 Y115.184 E0.01636
G1 X71.767 Y114.748 E0.01636
G1 X72.146 Y114.357 E0.01636
G1 X72.571 Y114.018 E0.01636
G1 X73.036 Y113.736 E0.01637
G1 X73.534 Y113.516 E0.01636
G1 X74.055 Y113.361 E0.01637
G1 X74.538 Y113.283 E0.01470
G1 X74.763 Y112.910 F7200.000
G1 F5760
G1 X75.136 Y113.257 E-0.20735
G1 F5760
G1 X75.678 Y113.309 E-0.18842
G1 F5760
G1 X76.208 Y113.430 E-0.18841
G1 F5760
G1 X76.684 Y113.605 E-0.17582
G1 E-0.04000 F2100.00000
G1 X70.587 Y118.861 F7200.000
G1 E0.80000 F2100.00000
G1 F840
G1 X70.835 Y119.506 E0.02078
G1 X71.125 Y120.022 E0.01782
G1 X71.480 Y120.497 E0.01782
G1 X71.892 Y120.922 E0.01782
G1 X72.355 Y121.292 E0.01782
G1 X72.862 Y121.599 E0.01782
G1 X73.403 Y121.839 E0.01782
G1 X73.653 Y121.913 E0.00784
G1 X70.587 Y121.913 E0.09222
G1 X70.587 Y118.921 E0.09000
G1 F5760
G1 X70.835 Y119.506 E-0.22004
G1 F5760
G1 X71.125 Y120.022 E-0.20520
G1 F5760
G1 X71.480 Y120.497 E-0.20518
G1 F5760
G1 X71.740 Y120.766 E-0.12958
G1 E-0.04000 F2100.00000
G1 X70.210 Y122.290 F7200.000
G1 E0.80000 F2100.00000
G1 F1260
G1 X70.210 Y87.710 E1.04016
G1 X179.790 Y87.710 E3.29615
G1 X179.790 Y122.290 E1.04016
G1 X70.270 Y122.290 E3.29435
G1 X70.374 Y121.925 F7200.000
G1 F5760
G1 X70.266 Y120.096 E-0.76000
G1 E-0.04000 F2100.00000
G1 X71.511 Y121.800 F7200.000
G1 E0.80000 F2100.00000
G1 F1680
G1 X70.870 Y121.159 E0.02897
G1 X70.870 Y120.594 E0.01808
G1 X72.076 Y121.800 E0.05453
G1 F5760
G1 X70.870 Y120.594 E-0.59079
G1 F5760
G1 X70.870 Y121.082 E-0.16921
G1 E-0.04000 F2100.00000
G1 X73.863 Y121.782 F7200.000
G1 E0.80000 F2100.00000
G1 F1680
G1 X73.979 Y121.960 E0.00312
G1 X74.559 Y122.007 E0.00852
G1 F1680
G1 X75.150 Y122.017 E0.00548
G1 F1680
G1 X75.733 Y121.988 E0.00818
G1 F1680
G1 X76.181 Y121.938 E0.00885
G1 F5760
G1 X75.733 Y121.988 E-0.15602
G1 E-0.64398 F2100.00000
G1 X77.365 Y121.710 F7200.000
G1 E0.80000 F2100.00000
G1 F1680
G1 X77.760 Y121.600 E0.00211
G1 X78.585 Y121.800 F7200.000
G1 F1680
G1 X78.092 Y121.307 E0.02099
G1 X78.371 Y121.053 E0.01136
G1 X78.949 Y121.630 E0.02457
G1 X79.482 Y121.630 E0.01605
G1 X78.635 Y120.783 E0.03603
G1 X78.881 Y120.495 E0.01139
G1 X80.016 Y121.630 E0.04829
G1 X80.549 Y121.630 E0.01605
G1 X79.098 Y120.180 E0.06173
G1 X79.303 Y119.851 E0.01165
G1 X81.082 Y121.630 E0.07573
G1 X81.616 Y121.630 E0.01605
G1 X79.476 Y119.491 E0.09105
G1 X79.548 Y119.341 E0.00498
G1 X79.626 Y119.107 E0.00744
G1 X82.149 Y121.630 E0.10738
G1 X82.683 Y121.630 E0.01605
G1 X79.755 Y118.702 E0.12460
G1 X79.841 Y118.255 E0.01369
