; generated by Slic3r 1.33.8.devel on 2017-09-23 at 19:29:07

; 

; external perimeters extrusion width = 0.45mm
; perimeters extrusion width = 0.45mm
; infill extrusion width = 0.45mm
; solid infill extrusion width = 0.45mm
; top infill extrusion width = 0.40mm
; first layer extrusion width = 0.42mm

M107
M115 U3.0.12 ; tell printer latest fw version
M83  ; extruder relative mode
M104 S215 ; set extruder temp
M140 S55 ; set bed temp
M190 S55 ; wait for bed temp
M109 S215 ; wait for extruder temp
G28 W ; home all without mesh bed level
G80 ; mesh bed leveling
G1 Y-3.0 F1000.0 ; go outside pritn area
G1 X60.0 E9.0  F1000.0 ; intro line
G1 X100.0 E12.5  F1000.0 ; intro line
; Filament gcode

G21 ; set units to millimeters
G90 ; use absolute coordinates
M83 ; use relative distances for extrusion
G1 E-0.80000 F2100.00000
G1 Z0.200 F7200.000
G1 X94.118 Y91.993 F7200.000
G1 E0.80000 F2100.00000
M204 S1000
G1 F1319
G1 X94.995 Y91.823 E0.02688
G1 X155.004 Y91.823 E1.80505
G1 X155.892 Y91.997 E0.02722
G1 X156.651 Y92.489 E0.02722
G1 X157.170 Y93.230 E0.02722
G1 X157.376 Y94.115 E0.02733
G1 X157.372 Y114.360 E0.60896
G1 X157.235 Y115.010 E0.01998
G1 X156.923 Y115.597 E0.01998
G1 X156.462 Y116.075 E0.01998
G1 X155.882 Y116.407 E0.02010
G1 X155.108 Y116.575 E0.02383
G1 X116.611 Y118.177 E1.15897
G1 X94.852 Y118.172 E0.65453
G1 X94.197 Y118.037 E0.02010
G1 X93.606 Y117.726 E0.02010
G1 X93.125 Y117.262 E0.02010
G1 X92.793 Y116.682 E0.02010
G1 X92.623 Y115.820 E0.02643
G1 X92.626 Y94.074 E0.65411
G1 X92.756 Y93.415 E0.02021
G1 X93.068 Y92.815 E0.02033
G1 X93.532 Y92.330 E0.02021
G1 X94.066 Y92.023 E0.01852
G1 F5760
G1 X94.995 Y91.823 E-0.32921
G1 F5760
G1 X96.239 Y91.823 E-0.43079
G1 E-0.04000 F2100.00000
G1 X95.590 Y94.790 F7200.000
G1 E0.80000 F2100.00000
G1 F1260
G1 X116.010 Y94.790 E0.61423
G1 X116.010 Y115.210 E0.61423
G1 X95.590 Y115.210 E0.61423
G1 X95.590 Y94.850 E0.61243
G1 X95.486 Y94.404 F7200.000
G1 X95.210 Y94.410 F7200.000
G1 F1260
G1 X116.390 Y94.410 E0.63709
G1 X116.390 Y115.590 E0.63709
G1 X95.210 Y115.590 E0.63709
G1 X95.210 Y94.470 E0.63529
G1 X95.596 Y94.514 F7200.000
G1 F5760
G1 X97.404 Y94.464 E-0.76000
G1 E-0.04000 F2100.00000
G1 X135.590 Y94.790 F7200.000
G1 E0.80000 F2100.00000
G1 F1260
G1 X154.410 Y94.790 E0.56610
G1 X154.410 Y113.610 E0.56610
G1 X135.590 Y113.610 E0.56610
G1 X135.590 Y94.850 E0.56430
G1 X135.486 Y94.404 F7200.000
G1 X135.210 Y94.410 F7200.000
G1 F1260
G1 X154.790 Y94.410 E0.58896
G1 X154.790 Y113.990 E0.58896
G1 X135.210 Y113.990 E0.58896
G1 X135.210 Y94.470 E0.58716
G1 X135.596 Y94.514 F7200.000
M106 S252.45
G1 F5760
G1 X137.404 Y94.463 E-0.76000
G1 E-0.04000 F2100.00000
G1 Z0.400 F7200.000
M104 S210 ; set temperature
G1 X155.892 Y91.997 F7200.000
G1 E0.80000 F2100.00000
G1 F900
G1 X156.651 Y92.489 E0.02722
G1 X157.170 Y93.230 E0.02722
G1 X157.376 Y94.115 E0.02733
G1 X157.372 Y114.360 E0.60896
G1 X157.235 Y115.010 E0.01998
G1 X156.923 Y115.597 E0.01998
G1 X156.462 Y116.075 E0.01998
G1 X155.882 Y116.407 E0.02010
G1 X155.108 Y116.575 E0.02383
G1 X116.611 Y118.177 E1.15897
G1 X94.852 Y118.172 E0.65453
G1 X94.197 Y118.037 E0.02010
G1 X93.606 Y117.726 E0.02010
G1 X93.125 Y117.262 E0.02010
G1 X92.793 Y116.682 E0.02010
G1 X92.623 Y115.820 E0.02643
G1 X92.626 Y94.074 E0.65411
G1 X92.756 Y93.415 E0.02021
G1 X93.068 Y92.815 E0.02033
G1 X93.532 Y92.330 E0.02021
G1 X94.118 Y91.993 E0.02033
G1 X94.995 Y91.823 E0.02688
G1 X155.004 Y91.823 E1.80505
G1 X155.833 Y91.985 E0.02541
G1 F5760
G1 X156.651 Y92.489 E-0.33275
G1 F5760
G1 X157.170 Y93.230 E-0.31338
G1 F5760
G1 X157.245 Y93.550 E-0.11387
G1 E-0.04000 F2100.00000
G1 X116.025 Y94.775 F7200.000
G1 E0.80000 F2100.00000
M204 S800
G1 F1564
G1 X116.025 Y115.225 E0.66615
G1 X95.575 Y115.225 E0.66615
G1 X95.575 Y94.775 E0.66615
G1 X115.965 Y94.775 E0.66419
M204 S1000
G1 X116.411 Y94.671 F7200.000
G1 X116.375 Y94.425 F7200.000
M204 S800
G1 F1564
G1 X116.375 Y115.575 E0.68895
G1 X95.225 Y115.575 E0.68895
G1 X95.225 Y94.425 E0.68895
G1 X116.315 Y94.425 E0.68699
M204 S1000
G1 X116.271 Y94.811 F7200.000
G1 F5760
G1 X116.321 Y96.619 E-0.76000
G1 E-0.04000 F2100.00000
G1 X135.575 Y94.775 F7200.000
G1 E0.80000 F2100.00000
M204 S800
G1 F1564
G1 X154.425 Y94.775 E0.61403
G1 X154.425 Y113.625 E0.61403
G1 X135.575 Y113.625 E0.61403
G1 X135.575 Y94.835 E0.61207
M204 S1000
G1 X135.471 Y94.389 F7200.000
G1 X135.225 Y94.425 F7200.000
M204 S800
G1 F1564
G1 X154.775 Y94.425 E0.63683
G1 X154.775 Y113.975 E0.63683
G1 X135.225 Y113.975 E0.63683
G1 X135.225 Y94.485 E0.63487
M204 S1000
G1 X135.611 Y94.529 F7200.000
G1 F5760
G1 X137.419 Y94.478 E-0.76000
G1 E-0.04000 F2100.00000
G1 Z0.600 F7200.000
G1 X155.892 Y91.997 F7200.000
G1 E0.80000 F2100.00000
G1 F900
G1 X156.651 Y92.489 E0.02722
G1 X157.170 Y93.230 E0.02722
G1 X157.376 Y94.115 E0.02733
G1 X157.372 Y114.360 E0.60896
G1 X157.235 Y115.010 E0.01998
G1 X156.923 Y115.597 E0.01998
G1 X156.462 Y116.075 E0.01998
G1 X155.882 Y116.407 E0.02010
G1 X155.108 Y116.575 E0.02383
G1 X116.611 Y118.177 E1.15897
G1 X94.852 Y118.172 E0.65453
G1 X94.197 Y118.037 E0.02010
G1 X93.606 Y117.726 E0.02010
G1 X93.125 Y117.262 E0.02010
G1 X92.793 Y116.682 E0.02010
G1 X92.623 Y115.820 E0.02643
G1 X92.626 Y94.074 E0.65411
G1 X92.756 Y93.415 E0.02021
G1 X93.068 Y92.815 E0.02033
G1 X93.532 Y92.330 E0.02021
G1 X94.118 Y91.993 E0.02033
G1 X94.995 Y91.823 E0.02688
G1 X155.004 Y91.823 E1.80505
G1 X155.833 Y91.985 E0.02541
G1 F5760
G1 X156.651 Y92.489 E-0.33275
G1 F5760
G1 X157.170 Y93.230 E-0.31338
G1 F5760
G1 X157.245 Y93.550 E-0.11387
G1 E-0.04000 F2100.00000
G1 X116.025 Y94.775 F7200.000
G1 E0.80000 F2100.00000
M204 S800
G1 F1564
G1 X116.025 Y115.225 E0.66615
G1 X95.575 Y115.225 E0.66615
G1 X95.575 Y94.775 E0.66615
G1 X115.965 Y94.775 E0.66419
M204 S1000
G1 X116.411 Y94.671 F7200.000
G1 X116.375 Y94.425 F7200.000
M204 S800
G1 F1564
G1 X116.375 Y115.575 E0.68895
G1 X95.225 Y115.575 E0.68895
G1 X95.225 Y94.425 E0.68895
G1 X116.315 Y94.425 E0.68699
M204 S1000
G1 X116.271 Y94.811 F7200.000
G1 F5760
G1 X116.321 Y96.619 E-0.76000
G1 E-0.04000 F2100.00000
G1 X135.575 Y94.775 F7200.000
G1 E0.80000 F2100.00000
M204 S800
G1 F1564
G1 X154.425 Y94.775 E0.61403
G1 X154.425 Y113.625 E0.61403
G1 X135.575 Y113.625 E0.61403
G1 X135.575 Y94.835 E0.61207
M204 S1000
G1 X135.471 Y94.389 F7200.000
G1 X135.225 Y94.425 F7200.000
M204 S800
G1 F1564
G1 X154.775 Y94.425 E0.63683
G1 X154.775 Y113.975 E0.63683
G1 X135.225 Y113.975 E0.63683
G1 X135.225 Y94.485 E0.63487
M204 S1000
G1 X135.611 Y94.529 F7200.000
M106 S255
G1 F5760
G1 X137.419 Y94.478 E-0.76000
G1 E-0.04000 F2100.00000
G1 Z0.800 F7200.000
G1 X116.025 Y94.775 F7200.000
G1 E0.80000 F2100.00000
M204 S800
G1 F900
G1 X116.025 Y115.225 E0.66615
G1 X95.575 Y115.225 E0.66615
G1 X95.575 Y94.775 E0.66615
G1 X115.965 Y94.775 E0.66419
M204 S1000
G1 X116.411 Y94.671 F7200.000
G1 X116.375 Y94.425 F7200.000
M204 S800
G1 F900
G1 X116.375 Y115.575 E0.68895
G1 X95.225 Y115.575 E0.68895
G1 X95.225 Y94.425 E0.68895
G1 X116.315 Y94.425 E0.68699
M204 S1000
G1 X116.271 Y94.811 F7200.000
G1 F5760
G1 X116.321 Y96.619 E-0.76000
G1 E-0.04000 F2100.00000
G1 X135.575 Y94.775 F7200.000
G1 E0.80000 F2100.00000
M204 S800
G1 F900
G1 X154.425 Y94.775 E0.61403
G1 X154.425 Y113.625 E0.61403
G1 X135.575 Y113.625 E0.61403
G1 X135.575 Y94.835 E0.61207
M204 S1000
G1 X135.471 Y94.389 F7200.000
G1 X135.225 Y94.425 F7200.000
M204 S800
G1 F900
G1 X154.775 Y94.425 E0.63683
G1 X154.775 Y113.975 E0.63683
G1 X135.225 Y113.975 E0.63683
G1 X135.225 Y94.485 E0.63487
M204 S1000
G1 X135.611 Y94.529 F7200.000
G1 F5760
G1 X137.419 Y94.478 E-0.76000
G1 E-0.04000 F2100.00000
G1 Z1.000 F7200.000
G1 Z1.500 F7200.000
G1 X116.025 Y94.775 F7200.000
G1 Z1.000 F7200.000
G1 E0.80000 F2100.00000
M204 S800
G1 F900
G1 X116.025 Y115.225 E0.66615
G1 X95.575 Y115.225 E0.66615
G1 X95.575 Y94.775 E0.66615
G1 X115.965 Y94.775 E0.66419
M204 S1000
G1 X116.411 Y94.671 F7200.000
G1 X116.375 Y94.425 F7200.000
M204 S800
G1 F900
G1 X116.375 Y115.575 E0.68895
G1 X95.225 Y115.575 E0.68895
G1 X95.225 Y94.425 E0.68895
G1 X116.315 Y94.425 E0.68699
M204 S1000
G1 X116.271 Y94.811 F7200.000
G1 F5760
G1 X116.321 Y96.619 E-0.76000
G1 E-0.04000 F2100.00000
G1 Z1.500 F7200.000
G1 X135.575 Y94.775 F7200.000
G1 Z1.000 F7200.000
G1 E0.80000 F2100.00000
M204 S800
G1 F900
G1 X154.425 Y94.775 E0.61403
G1 X154.425 Y113.625 E0.61403
G1 X135.575 Y113.625 E0.61403
G1 X135.575 Y94.835 E0.61207
M204 S1000
G1 X135.471 Y94.389 F7200.000
G1 X135.225 Y94.425 F7200.000
M204 S800
G1 F900
G1 X154.775 Y94.425 E0.63683
G1 X154.775 Y113.975 E0.63683
G1 X135.225 Y113.975 E0.63683
G1 X135.225 Y94.485 E0.63487
M204 S1000
G1 X135.611 Y94.529 F7200.000
G1 F5760
G1 X137.419 Y94.478 E-0.76000
G1 E-0.04000 F2100.00000
G1 Z1.500 F7200.000
G1 X116.025 Y94.775 F7200.000
G1 Z1.200 F7200.000
G1 E0.80000 F2100.00000
M204 S800
G1 F900
G1 X116.025 Y115.225 E0.66615
G1 X95.575 Y115.225 E0.66615
G1 X95.575 Y94.775 E0.66615
G1 X115.965 Y94.775 E0.66419
M204 S1000
G1 X116.411 Y94.671 F7200.000
G1 X116.375 Y94.425 F7200.000
M204 S800
G1 F900
G1 X116.375 Y115.575 E0.68895
G1 X95.225 Y115.575 E0.68895
G1 X95.225 Y94.425 E0.68895
G1 X116.315 Y94.425 E0.68699
M204 S1000
G1 X116.271 Y94.811 F7200.000
G1 F5760
G1 X116.321 Y96.619 E-0.76000
G1 E-0.04000 F2100.00000
G1 Z1.700 F7200.000
G1 X135.575 Y94.775 F7200.000
G1 Z1.200 F7200.000
G1 E0.80000 F2100.00000
M204 S800
G1 F900
G1 X154.425 Y94.775 E0.61403
G1 X154.425 Y113.625 E0.61403
G1 X135.575 Y113.625 E0.61403
G1 X135.575 Y94.835 E0.61207
M204 S1000
G1 X135.471 Y94.389 F7200.000
G1 X135.225 Y94.425 F7200.000
M204 S800
G1 F900
G1 X154.775 Y94.425 E0.63683
G1 X154.775 Y113.975 E0.63683
G1 X135.225 Y113.975 E0.63683
G1 X135.225 Y94.485 E0.63487
M204 S1000
G1 X135.611 Y94.529 F7200.000
G1 F5760
G1 X137.419 Y94.478 E-0.76000
G1 E-0.04000 F2100.00000
G1 Z1.700 F7200.000
G1 X116.025 Y94.775 F7200.000
G1 Z1.400 F7200.000
G1 E0.80000 F2100.00000
M204 S800
G1 F900
G1 X116.025 Y115.225 E0.66615
G1 X95.575 Y115.225 E0.66615
G1 X95.575 Y94.775 E0.66615
G1 X115.965 Y94.775 E0.66419
M204 S1000
G1 X116.411 Y94.671 F7200.000
G1 X116.375 Y94.425 F7200.000
M204 S800
G1 F900
G1 X116.375 Y115.575 E0.68895
G1 X95.225 Y115.575 E0.68895
G1 X95.225 Y94.425 E0.68895
G1 X116.315 Y94.425 E0.68699
M204 S1000
G1 X116.271 Y94.811 F7200.000
G1 F5760
G1 X116.321 Y96.619 E-0.76000
G1 E-0.04000 F2100.00000
G1 Z1.900 F7200.000
G1 X135.575 Y94.775 F7200.000
G1 Z1.400 F7200.000
G1 E0.80000 F2100.00000
M204 S800
G1 F900
G1 X154.425 Y94.775 E0.61403
G1 X154.425 Y113.625 E0.61403
G1 X135.575 Y113.625 E0.61403
G1 X135.575 Y94.835 E0.61207
M204 S1000
G1 X135.471 Y94.389 F7200.000
G1 X135.225 Y94.425 F7200.000
M204 S800
G1 F900
G1 X154.775 Y94.425 E0.63683
G1 X154.775 Y113.975 E0.63683
G1 X135.225 Y113.975 E0.63683
G1 X135.225 Y94.485 E0.63487
M204 S1000
G1 X135.611 Y94.529 F7200.000
G1 F5760
G1 X137.419 Y94.478 E-0.76000
G1 E-0.04000 F2100.00000
G1 Z1.900 F7200.000
G1 X116.025 Y94.775 F7200.000
G1 Z1.600 F7200.000
G1 E0.80000 F2100.00000
M204 S800
G1 F900
G1 X116.025 Y115.225 E0.66615
G1 X95.575 Y115.225 E0.66615
G1 X95.575 Y94.775 E0.66615
G1 X115.965 Y94.775 E0.66419
M204 S1000
G1 X116.411 Y94.671 F7200.000
G1 X116.375 Y94.425 F7200.000
M204 S800
G1 F900
G1 X116.375 Y115.575 E0.68895
G1 X95.225 Y115.575 E0.68895
G1 X95.225 Y94.425 E0.68895
G1 X116.315 Y94.425 E0.68699
M204 S1000
G1 X116.271 Y94.811 F7200.000
G1 F5760
G1 X116.321 Y96.619 E-0.76000
G1 E-0.04000 F2100.00000
G1 Z2.100 F7200.000
G1 X135.575 Y94.775 F7200.000
G1 Z1.600 F7200.000
G1 E0.80000 F2100.00000
M204 S800
G1 F900
G1 X154.425 Y94.775 E0.61403
G1 X154.425 Y113.625 E0.61403
G1 X135.575 Y113.625 E0.61403
G1 X135.575 Y94.835 E0.61207
M204 S1000
G1 X135.471 Y94.389 F7200.000
G1 X135.225 Y94.425 F7200.000
M204 S800
G1 F900
G1 X154.775 Y94.425 E0.63683
G1 X154.775 Y113.975 E0.63683
G1 X135.225 Y113.975 E0.63683
G1 X135.225 Y94.485 E0.63487
M204 S1000
G1 X135.611 Y94.529 F7200.000
G1 F5760
G1 X137.419 Y94.478 E-0.76000
G1 E-0.04000 F2100.00000
G1 Z2.100 F7200.000
G1 X116.025 Y94.775 F7200.000
G1 Z1.800 F7200.000
G1 E0.80000 F2100.00000
M204 S800
G1 F900
G1 X116.025 Y115.225 E0.66615
G1 X95.575 Y115.225 E0.66615
G1 X95.575 Y94.775 E0.66615
G1 X115.965 Y94.775 E0.66419
M204 S1000
G1 X116.411 Y94.671 F7200.000
G1 X116.375 Y94.425 F7200.000
M204 S800
G1 F900
G1 X116.375 Y115.575 E0.68895
G1 X95.225 Y115.575 E0.68895
G1 X95.225 Y94.425 E0.68895
G1 X116.315 Y94.425 E0.68699
M204 S1000
G1 X116.271 Y94.811 F7200.000
G1 F5760
G1 X116.321 Y96.619 E-0.76000
G1 E-0.04000 F2100.00000
G1 Z2.300 F7200.000
G1 X135.575 Y94.775 F7200.000
G1 Z1.800 F7200.000
G1 E0.80000 F2100.00000
M204 S800
G1 F900
G1 X154.425 Y94.775 E0.61403
G1 X154.425 Y113.625 E0.61403
G1 X135.575 Y113.625 E0.61403
G1 X135.575 Y94.835 E0.61207
M204 S1000
G1 X135.471 Y94.389 F7200.000
G1 X135.225 Y94.425 F7200.000
M204 S800
G1 F900
G1 X154.775 Y94.425 E0.63683
G1 X154.775 Y113.975 E0.63683
G1 X135.225 Y113.975 E0.63683
G1 X135.225 Y94.485 E0.63487
M204 S1000
G1 X135.611 Y94.529 F7200.000
G1 F5760
G1 X137.419 Y94.478 E-0.76000
G1 E-0.04000 F2100.00000
G1 Z2.300 F7200.000
G1 X116.025 Y94.775 F7200.000
G1 Z2.000 F7200.000
G1 E0.80000 F2100.00000
M204 S800
G1 F900
G1 X116.025 Y115.225 E0.66615
G1 X95.575 Y115.225 E0.66615
G1 X95.575 Y94.775 E0.66615
G1 X115.965 Y94.775 E0.66419
M204 S1000
G1 X116.411 Y94.671 F7200.000
G1 X116.375 Y94.425 F7200.000
M204 S800
G1 F900
G1 X116.375 Y115.575 E0.68895
G1 X95.225 Y115.575 E0.68895
G1 X95.225 Y94.425 E0.68895
G1 X116.315 Y94.425 E0.68699
M204 S1000
G1 X116.271 Y94.811 F7200.000
G1 F5760
G1 X116.321 Y96.619 E-0.76000
G1 E-0.04000 F2100.00000
G1 Z2.500 F7200.000
G1 X135.575 Y94.775 F7200.000
G1 Z2.000 F7200.000
G1 E0.80000 F2100.00000
M204 S800
G1 F900
G1 X154.425 Y94.775 E0.61403
G1 X154.425 Y113.625 E0.61403
G1 X135.575 Y113.625 E0.61403
G1 X135.575 Y94.835 E0.61207
M204 S1000
G1 X135.471 Y94.389 F7200.000
G1 X135.225 Y94.425 F7200.000
M204 S800
G1 F900
G1 X154.775 Y94.425 E0.63683
G1 X154.775 Y113.975 E0.63683
G1 X135.225 Y113.975 E0.63683
G1 X135.225 Y94.485 E0.63487
M204 S1000
G1 X135.611 Y94.529 F7200.000
G1 F5760
G1 X137.419 Y94.478 E-0.76000
G1 E-0.04000 F2100.00000
G1 Z2.500 F7200.000
G1 X116.025 Y94.775 F7200.000
G1 Z2.200 F7200.000
G1 E0.80000 F2100.00000
M204 S800
G1 F900
G1 X116.025 Y115.225 E0.66615
G1 X95.575 Y115.225 E0.66615
G1 X95.575 Y94.775 E0.66615
G1 X115.965 Y94.775 E0.66419
M204 S1000
G1 X116.411 Y94.671 F7200.000
G1 X116.375 Y94.425 F7200.000
M204 S800
G1 F900
G1 X116.375 Y115.575 E0.68895
G1 X95.225 Y115.575 E0.68895
G1 X95.225 Y94.425 E0.68895
G1 X116.315 Y94.425 E0.68699
M204 S1000
G1 X116.271 Y94.811 F7200.000
G1 F5760
G1 X116.321 Y96.619 E-0.76000
G1 E-0.04000 F2100.00000
G1 Z2.700 F7200.000
G1 X135.575 Y94.775 F7200.000
G1 Z2.200 F7200.000
G1 E0.80000 F2100.00000
M204 S800
G1 F900
G1 X154.425 Y94.775 E0.61403
G1 X154.425 Y113.625 E0.61403
G1 X135.575 Y113.625 E0.61403
G1 X135.575 Y94.835 E0.61207
M204 S1000
G1 X135.471 Y94.389 F7200.000
G1 X135.225 Y94.425 F7200.000
M204 S800
G1 F900
G1 X154.775 Y94.425 E0.63683
G1 X154.775 Y113.975 E0.63683
G1 X135.225 Y113.975 E0.63683
G1 X135.225 Y94.485 E0.63487
M204 S1000
G1 X135.611 Y94.529 F7200.000
G1 F5760
G1 X137.419 Y94.478 E-0.76000
G1 E-0.04000 F2100.00000
G1 Z2.700 F7200.000
G1 X116.025 Y94.775 F7200.000
G1 Z2.400 F7200.000
G1 E0.80000 F2100.00000
M204 S800
G1 F900
G1 X116.025 Y115.225 E0.66615
G1 X95.575 Y115.225 E0.66615
G1 X95.575 Y94.775 E0.66615
G1 X115.965 Y94.775 E0.66419
M204 S1000
G1 X116.411 Y94.671 F7200.000
G1 X116.375 Y94.425 F7200.000
M204 S800
G1 F900
G1 X116.375 Y115.575 E0.68895
G1 X95.225 Y115.575 E0.68895
G1 X95.225 Y94.425 E0.68895
G1 X116.315 Y94.425 E0.68699
M204 S1000
G1 X116.271 Y94.811 F7200.000
G1 F5760
G1 X116.321 Y96.619 E-0.76000
G1 E-0.04000 F2100.00000
G1 Z2.900 F7200.000
G1 X135.575 Y94.775 F7200.000
G1 Z2.400 F7200.000
G1 E0.80000 F2100.00000
M204 S800
G1 F900
G1 X154.425 Y94.775 E0.61403
G1 X154.425 Y113.625 E0.61403
G1 X135.575 Y113.625 E0.61403
G1 X135.575 Y94.835 E0.61207
M204 S1000
G1 X135.471 Y94.389 F7200.000
G1 X135.225 Y94.425 F7200.000
M204 S800
G1 F900
