; generated by Slic3r 1.33.8.devel on 2017-10-05 at 08:15:12

; 

; external perimeters extrusion width = 0.45mm
; perimeters extrusion width = 0.45mm
; infill extrusion width = 0.45mm
; solid infill extrusion width = 0.45mm
; top infill extrusion width = 0.45mm
; first layer extrusion width = 0.42mm

M107
M115 U3.0.12 ; tell printer latest fw version
M83  ; extruder relative mode
M104 S215 ; set extruder temp
M140 S55 ; set bed temp
M190 S55 ; wait for bed temp
M109 S215 ; wait for extruder temp
G28 W ; home all without mesh bed level
G80 ; mesh bed leveling
G1 Y-3.0 F1000.0 ; go outside pritn area
G1 X60.0 E9.0  F1000.0 ; intro line
G1 X100.0 E12.5  F1000.0 ; intro line
; Filament gcode

G21 ; set units to millimeters
G90 ; use absolute coordinates
M83 ; use relative distances for extrusion
G1 E-0.80000 F2100.00000
G1 Z0.200 F7200.000
G1 X117.061 Y98.921 F7200.000
G1 E0.80000 F2100.00000
M204 S1000
G1 F2011
G1 X117.508 Y98.104 E0.02804
G1 X117.947 Y97.636 E0.01930
G1 X118.472 Y97.267 E0.01930
G1 X119.061 Y97.013 E0.01930
G1 X119.690 Y96.884 E0.01930
G1 X130.004 Y96.869 E0.31026
G1 X131.079 Y97.061 E0.03284
G1 X132.026 Y97.612 E0.03297
G1 X132.725 Y98.457 E0.03297
G1 X133.089 Y99.490 E0.03297
G1 X133.128 Y110.149 E0.32060
G1 X132.942 Y111.071 E0.02830
G1 X132.492 Y111.896 E0.02830
G1 X132.020 Y112.393 E0.02060
G1 X131.447 Y112.777 E0.02073
G1 X130.809 Y113.025 E0.02060
G1 X130.127 Y113.129 E0.02073
G1 X119.834 Y113.127 E0.30962
G1 X118.921 Y112.939 E0.02804
G1 X118.104 Y112.492 E0.02804
G1 X117.607 Y112.020 E0.02060
G1 X117.223 Y111.447 E0.02073
G1 X116.975 Y110.809 E0.02060
G1 X116.871 Y110.127 E0.02073
G1 X116.873 Y99.834 E0.30962
G1 X117.049 Y98.980 E0.02623
G1 X117.416 Y99.055 F7200.000
G1 F2011
G1 X117.833 Y98.300 E0.02597
G1 X118.223 Y97.896 E0.01687
G1 X118.689 Y97.578 E0.01699
G1 X119.211 Y97.361 E0.01699
G1 X119.762 Y97.256 E0.01687
G1 X130.004 Y97.246 E0.30809
G1 X130.959 Y97.418 E0.02920
G1 X131.799 Y97.914 E0.02932
G1 X132.410 Y98.668 E0.02920
G1 X132.724 Y99.591 E0.02932
G1 X132.751 Y110.127 E0.31693
G1 X132.582 Y110.959 E0.02555
G1 X132.167 Y111.700 E0.02555
G1 X131.749 Y112.128 E0.01797
G1 X131.245 Y112.457 E0.01809
G1 X130.682 Y112.668 E0.01809
G1 X130.091 Y112.753 E0.01797
G1 X119.865 Y112.751 E0.30760
G1 X119.037 Y112.580 E0.02543
G1 X118.300 Y112.167 E0.02543
G1 X117.872 Y111.749 E0.01797
G1 X117.543 Y111.245 E0.01809
G1 X117.332 Y110.682 E0.01809
G1 X117.247 Y110.091 E0.01797
G1 X117.249 Y99.865 E0.30760
G1 X117.404 Y99.114 E0.02305
G1 F5760
G1 X117.833 Y98.300 E-0.31897
G1 F5760
G1 X118.223 Y97.896 E-0.19421
G1 F5760
G1 X118.689 Y97.578 E-0.19562
G1 F5760
G1 X118.826 Y97.521 E-0.05120
G1 E-0.04000 F2100.00000
G1 X118.896 Y97.895 F7200.000
G1 E0.80000 F2100.00000
G1 F2011
G1 X119.824 Y97.629 E0.02901
G1 X130.004 Y97.623 E0.30621
G1 X130.839 Y97.776 E0.02553
G1 X131.566 Y98.212 E0.02553
G1 X132.095 Y98.876 E0.02553
G1 X132.356 Y99.687 E0.02564
G1 X132.375 Y110.103 E0.31329
G1 X132.224 Y110.839 E0.02259
G1 X131.849 Y111.494 E0.02270
G1 X131.486 Y111.856 E0.01544
G1 X131.053 Y112.131 E0.01544
G1 X130.571 Y112.308 E0.01544
G1 X130.062 Y112.376 E0.01544
G1 X119.893 Y112.375 E0.30587
G1 X119.158 Y112.223 E0.02259
G1 X118.506 Y111.849 E0.02259
G1 X118.144 Y111.486 E0.01544
G1 X117.869 Y111.053 E0.01544
G1 X117.692 Y110.571 E0.01544
G1 X117.624 Y110.062 E0.01544
G1 X117.625 Y99.893 E0.30587
G1 X117.777 Y99.158 E0.02259
G1 X118.151 Y98.506 E0.02259
G1 X118.850 Y97.933 E0.02721
G1 F5760
G1 X119.824 Y97.629 E-0.35324
G1 F5760
G1 X120.998 Y97.629 E-0.40676
G1 E-0.04000 F2100.00000
G1 X125.803 Y105.499 F7200.000
G1 E0.80000 F2100.00000
G1 F840
G1 X126.167 Y105.270 E0.01293
G1 X126.573 Y105.128 E0.01293
G1 X126.989 Y105.081 E0.01262
G1 X127.424 Y105.127 E0.01314
G1 X127.833 Y105.270 E0.01304
G1 X128.197 Y105.499 E0.01293
G1 X128.501 Y105.803 E0.01293
G1 X128.730 Y106.167 E0.01293
G1 X128.872 Y106.573 E0.01293
G1 X128.920 Y107.000 E0.01293
G1 X128.872 Y107.427 E0.01293
G1 X128.730 Y107.833 E0.01293
G1 X128.501 Y108.197 E0.01293
G1 X128.197 Y108.501 E0.01293
G1 X127.833 Y108.730 E0.01293
G1 X127.427 Y108.872 E0.01293
G1 X127.000 Y108.920 E0.01293
G1 X126.573 Y108.872 E0.01293
G1 X126.167 Y108.730 E0.01293
G1 X125.803 Y108.501 E0.01293
G1 X125.499 Y108.197 E0.01293
G1 X125.270 Y107.833 E0.01293
G1 X125.128 Y107.427 E0.01293
G1 X125.080 Y107.000 E0.01293
G1 X125.128 Y106.573 E0.01293
G1 X125.270 Y106.167 E0.01293
G1 X125.499 Y105.803 E0.01293
G1 X125.760 Y105.541 E0.01113
G1 X126.027 Y105.808 F7200.000
G1 F840
G1 X126.331 Y105.612 E0.01089
G1 X126.657 Y105.498 E0.01038
G1 X126.991 Y105.460 E0.01010
G1 X127.341 Y105.497 E0.01059
G1 X127.669 Y105.612 E0.01044
G1 X127.961 Y105.795 E0.01038
G1 X128.205 Y106.039 E0.01038
G1 X128.388 Y106.331 E0.01038
G1 X128.502 Y106.657 E0.01038
G1 X128.541 Y107.000 E0.01038
G1 X128.502 Y107.343 E0.01038
G1 X128.388 Y107.669 E0.01038
G1 X128.205 Y107.961 E0.01038
G1 X127.961 Y108.205 E0.01038
G1 X127.669 Y108.388 E0.01038
G1 X127.343 Y108.502 E0.01038
G1 X127.000 Y108.541 E0.01038
G1 X126.657 Y108.502 E0.01038
G1 X126.331 Y108.388 E0.01038
G1 X126.039 Y108.205 E0.01038
G1 X125.795 Y107.961 E0.01038
G1 X125.612 Y107.669 E0.01038
G1 X125.498 Y107.343 E0.01038
G1 X125.459 Y107.000 E0.01038
G1 X125.498 Y106.657 E0.01038
G1 X125.612 Y106.331 E0.01038
G1 X125.795 Y106.039 E0.01038
G1 X125.985 Y105.850 E0.00805
G1 X126.276 Y106.092 F7200.000
G1 F840
G1 X126.496 Y105.954 E0.00782
G1 X126.742 Y105.868 E0.00782
G1 X126.992 Y105.840 E0.00759
G1 X127.258 Y105.868 E0.00803
G1 X127.504 Y105.954 E0.00785
G1 X127.724 Y106.092 E0.00782
G1 X127.908 Y106.276 E0.00782
G1 X128.046 Y106.496 E0.00782
G1 X128.132 Y106.742 E0.00782
G1 X128.161 Y107.000 E0.00782
G1 X128.132 Y107.258 E0.00782
G1 X128.046 Y107.504 E0.00782
G1 X127.908 Y107.724 E0.00782
G1 X127.724 Y107.908 E0.00782
G1 X127.504 Y108.046 E0.00782
G1 X127.258 Y108.132 E0.00782
G1 X127.000 Y108.161 E0.00782
G1 X126.742 Y108.132 E0.00782
G1 X126.496 Y108.046 E0.00782
G1 X126.276 Y107.908 E0.00782
G1 X126.092 Y107.724 E0.00782
G1 X125.954 Y107.504 E0.00782
G1 X125.868 Y107.258 E0.00782
G1 X125.839 Y107.000 E0.00782
G1 X125.868 Y106.742 E0.00782
G1 X125.954 Y106.496 E0.00782
G1 X126.092 Y106.276 E0.00782
G1 X126.233 Y106.134 E0.00602
G1 X126.237 Y105.835 F7200.000
G1 F5760
G1 X126.496 Y105.954 E-0.11043
G1 F5760
G1 X126.742 Y105.868 E-0.09007
G1 F5760
G1 X126.992 Y105.840 E-0.08735
G1 F5760
G1 X127.258 Y105.868 E-0.09247
G1 F5760
G1 X127.504 Y105.954 E-0.09034
G1 F5760
G1 X127.724 Y106.092 E-0.09007
G1 F5760
G1 X127.908 Y106.276 E-0.09007
G1 F5760
G1 X128.046 Y106.496 E-0.09007
G1 F5760
G1 X128.065 Y106.548 E-0.01913
G1 E-0.04000 F2100.00000
G1 X126.595 Y104.775 F7200.000
G1 E0.80000 F2100.00000
G1 F840
G1 X126.210 Y104.640 E0.01226
G1 X125.865 Y104.423 E0.01226
G1 X125.577 Y104.135 E0.01226
G1 X125.360 Y103.790 E0.01226
G1 X125.225 Y103.405 E0.01226
G1 X125.179 Y102.997 E0.01237
G1 X125.229 Y102.586 E0.01245
G1 X125.360 Y102.210 E0.01196
G1 X125.577 Y101.865 E0.01226
G1 X125.865 Y101.577 E0.01226
G1 X126.210 Y101.360 E0.01226
G1 X126.595 Y101.225 E0.01226
G1 X126.990 Y101.181 E0.01196
G1 X127.402 Y101.224 E0.01245
G1 X127.790 Y101.360 E0.01237
G1 X128.135 Y101.577 E0.01226
G1 X128.423 Y101.865 E0.01226
G1 X128.640 Y102.210 E0.01226
G1 X128.775 Y102.595 E0.01226
G1 X128.820 Y103.000 E0.01226
G1 X128.775 Y103.405 E0.01226
G1 X128.640 Y103.790 E0.01226
G1 X128.423 Y104.135 E0.01226
G1 X128.135 Y104.423 E0.01226
G1 X127.790 Y104.640 E0.01226
G1 X127.405 Y104.775 E0.01226
G1 X127.000 Y104.820 E0.01226
G1 X126.655 Y104.781 E0.01046
G1 X126.697 Y104.407 F7200.000
G1 F840
G1 X126.375 Y104.298 E0.01022
G1 X126.102 Y104.126 E0.00970
G1 X125.874 Y103.898 E0.00971
G1 X125.702 Y103.625 E0.00970
G1 X125.595 Y103.321 E0.00970
G1 X125.559 Y102.998 E0.00977
G1 X125.598 Y102.671 E0.00989
G1 X125.702 Y102.375 E0.00945
G1 X125.874 Y102.102 E0.00970
G1 X126.102 Y101.874 E0.00971
G1 X126.375 Y101.702 E0.00970
G1 X126.679 Y101.595 E0.00970
G1 X126.992 Y101.560 E0.00945
G1 X127.319 Y101.595 E0.00989
G1 X127.625 Y101.702 E0.00977
G1 X127.898 Y101.874 E0.00970
G1 X128.126 Y102.102 E0.00971
G1 X128.298 Y102.375 E0.00970
G1 X128.405 Y102.679 E0.00970
G1 X128.441 Y103.000 E0.00970
G1 X128.405 Y103.321 E0.00970
G1 X128.298 Y103.625 E0.00970
G1 X128.126 Y103.898 E0.00970
G1 X127.898 Y104.126 E0.00971
G1 X127.625 Y104.298 E0.00970
G1 X127.321 Y104.405 E0.00970
G1 X127.000 Y104.441 E0.00970
G1 X126.756 Y104.413 E0.00737
G1 X126.764 Y104.035 F7200.000
G1 F840
G1 X126.540 Y103.956 E0.00715
G1 X126.338 Y103.830 E0.00715
G1 X126.170 Y103.662 E0.00715
G1 X126.044 Y103.460 E0.00715
G1 X125.965 Y103.236 E0.00715
G1 X125.939 Y102.999 E0.00717
G1 X125.968 Y102.757 E0.00734
G1 X126.044 Y102.540 E0.00694
G1 X126.170 Y102.338 E0.00715
G1 X126.338 Y102.170 E0.00715
G1 X126.540 Y102.044 E0.00715
G1 X126.764 Y101.965 E0.00715
G1 X126.993 Y101.939 E0.00693
G1 X127.235 Y101.965 E0.00734
G1 X127.460 Y102.044 E0.00717
G1 X127.662 Y102.170 E0.00715
G1 X127.830 Y102.338 E0.00715
G1 X127.956 Y102.540 E0.00715
G1 X128.035 Y102.764 E0.00715
G1 X128.061 Y103.000 E0.00715
G1 X128.035 Y103.236 E0.00715
G1 X127.956 Y103.460 E0.00715
G1 X127.830 Y103.662 E0.00715
G1 X127.662 Y103.830 E0.00715
G1 X127.460 Y103.956 E0.00715
G1 X127.236 Y104.035 E0.00715
G1 X127.000 Y104.061 E0.00715
G1 X126.823 Y104.041 E0.00534
G1 X126.602 Y104.209 F7200.000
G1 F5760
G1 X126.540 Y103.956 E-0.10268
G1 F5760
G1 X126.338 Y103.830 E-0.08231
G1 F5760
G1 X126.170 Y103.662 E-0.08232
G1 F5760
G1 X126.044 Y103.460 E-0.08231
G1 F5760
G1 X125.965 Y103.236 E-0.08231
G1 F5760
G1 X125.939 Y102.999 E-0.08258
G1 F5760
G1 X125.968 Y102.757 E-0.08446
G1 F5760
G1 X126.044 Y102.540 E-0.07985
G1 F5760
G1 X126.168 Y102.341 E-0.08117
G1 E-0.04000 F2100.00000
G1 X124.726 Y103.394 F7200.000
G1 E0.80000 F2100.00000
G1 F840
G1 X124.595 Y103.768 E0.01192
G1 X124.384 Y104.104 E0.01192
G1 X124.104 Y104.384 E0.01192
G1 X123.768 Y104.595 E0.01192
G1 X123.394 Y104.726 E0.01192
G1 X123.000 Y104.770 E0.01192
G1 X122.606 Y104.726 E0.01192
G1 X122.232 Y104.595 E0.01192
G1 X121.896 Y104.384 E0.01192
G1 X121.613 Y104.101 E0.01203
G1 X121.402 Y103.759 E0.01210
G1 X121.274 Y103.394 E0.01164
G1 X121.230 Y103.000 E0.01192
G1 X121.274 Y102.606 E0.01192
G1 X121.405 Y102.232 E0.01192
G1 X121.616 Y101.896 E0.01192
G1 X121.896 Y101.616 E0.01192
G1 X122.232 Y101.405 E0.01192
G1 X122.606 Y101.274 E0.01192
G1 X122.991 Y101.231 E0.01164
G1 X123.391 Y101.273 E0.01210
G1 X123.768 Y101.405 E0.01203
G1 X124.104 Y101.616 E0.01192
G1 X124.384 Y101.896 E0.01192
G1 X124.595 Y102.232 E0.01192
G1 X124.726 Y102.606 E0.01192
G1 X124.770 Y103.000 E0.01192
G1 X124.733 Y103.334 E0.01012
G1 X124.358 Y103.292 F7200.000
G1 F840
G1 X124.253 Y103.603 E0.00988
G1 X124.087 Y103.867 E0.00937
G1 X123.867 Y104.087 E0.00937
G1 X123.603 Y104.253 E0.00937
G1 X123.309 Y104.356 E0.00937
G1 X123.000 Y104.391 E0.00937
G1 X122.691 Y104.356 E0.00937
G1 X122.397 Y104.253 E0.00937
G1 X122.133 Y104.087 E0.00937
G1 X121.911 Y103.866 E0.00943
G1 X121.744 Y103.596 E0.00954
G1 X121.644 Y103.309 E0.00912
G1 X121.609 Y103.000 E0.00937
G1 X121.644 Y102.691 E0.00937
G1 X121.747 Y102.397 E0.00937
G1 X121.913 Y102.133 E0.00937
G1 X122.133 Y101.913 E0.00937
G1 X122.397 Y101.747 E0.00937
G1 X122.691 Y101.644 E0.00937
G1 X122.992 Y101.610 E0.00912
G1 X123.307 Y101.643 E0.00954
G1 X123.603 Y101.747 E0.00943
G1 X123.867 Y101.913 E0.00937
G1 X124.087 Y102.133 E0.00937
G1 X124.253 Y102.397 E0.00937
G1 X124.356 Y102.691 E0.00937
G1 X124.391 Y103.000 E0.00937
G1 X124.365 Y103.232 E0.00704
G1 X123.990 Y103.190 F7200.000
G1 F840
G1 X123.911 Y103.439 E0.00784
G1 X123.791 Y103.631 E0.00681
G1 X123.631 Y103.791 E0.00681
G1 X123.439 Y103.911 E0.00681
G1 X123.225 Y103.986 E0.00681
G1 X123.000 Y104.011 E0.00681
G1 X122.775 Y103.986 E0.00681
G1 X122.561 Y103.911 E0.00681
G1 X122.369 Y103.791 E0.00681
G1 X122.209 Y103.630 E0.00684
G1 X122.087 Y103.432 E0.00699
G1 X122.014 Y103.225 E0.00661
G1 X121.989 Y103.000 E0.00681
G1 X122.014 Y102.775 E0.00681
G1 X122.089 Y102.561 E0.00681
G1 X122.209 Y102.369 E0.00681
G1 X122.369 Y102.209 E0.00681
G1 X122.561 Y102.089 E0.00681
G1 X122.775 Y102.014 E0.00681
G1 X122.993 Y101.989 E0.00661
G1 X123.224 Y102.014 E0.00699
G1 X123.439 Y102.089 E0.00683
G1 X123.631 Y102.209 E0.00681
G1 X123.791 Y102.369 E0.00681
G1 X123.911 Y102.561 E0.00681
G1 X123.986 Y102.775 E0.00681
G1 X124.011 Y103.000 E0.00681
G1 X123.997 Y103.131 E0.00395
G1 X124.185 Y103.363 F7200.000
G1 F5760
G1 X123.911 Y103.439 E-0.11077
G1 F5760
G1 X123.791 Y103.631 E-0.07844
G1 F5760
G1 X123.631 Y103.791 E-0.07843
G1 F5760
G1 X123.439 Y103.911 E-0.07844
G1 F5760
G1 X123.225 Y103.986 E-0.07844
G1 F5760
G1 X123.000 Y104.011 E-0.07844
G1 F5760
G1 X122.775 Y103.986 E-0.07844
G1 F5760
G1 X122.561 Y103.911 E-0.07844
G1 F5760
G1 X122.369 Y103.791 E-0.07843
G1 F5760
G1 X122.325 Y103.746 E-0.02174
G1 E-0.04000 F2100.00000
G1 X123.413 Y105.175 F7200.000
G1 E0.80000 F2100.00000
G1 F840
G1 X123.811 Y105.315 E0.01270
G1 X124.166 Y105.538 E0.01260
G1 X124.462 Y105.834 E0.01260
G1 X124.685 Y106.189 E0.01260
G1 X124.823 Y106.584 E0.01260
G1 X124.870 Y107.000 E0.01260
G1 X124.823 Y107.416 E0.01260
G1 X124.685 Y107.811 E0.01260
G1 X124.462 Y108.166 E0.01260
G1 X124.166 Y108.462 E0.01260
G1 X123.811 Y108.685 E0.01260
G1 X123.416 Y108.823 E0.01260
G1 X123.000 Y108.870 E0.01260
G1 X122.584 Y108.823 E0.01260
G1 X122.189 Y108.685 E0.01260
G1 X121.834 Y108.462 E0.01260
G1 X121.538 Y108.166 E0.01260
G1 X121.315 Y107.811 E0.01260
G1 X121.177 Y107.416 E0.01260
G1 X121.130 Y107.000 E0.01260
G1 X121.177 Y106.584 E0.01260
G1 X121.315 Y106.189 E0.01260
G1 X121.538 Y105.834 E0.01260
G1 X121.834 Y105.538 E0.01260
G1 X122.189 Y105.315 E0.01260
G1 X122.584 Y105.177 E0.01260
G1 X122.990 Y105.131 E0.01229
G1 X123.353 Y105.169 E0.01099
G1 X123.314 Y105.544 F7200.000
G1 F840
G1 X123.647 Y105.657 E0.01058
G1 X123.929 Y105.834 E0.01004
G1 X124.166 Y106.071 E0.01004
G1 X124.343 Y106.353 E0.01004
G1 X124.453 Y106.668 E0.01004
G1 X124.491 Y107.000 E0.01004
G1 X124.453 Y107.332 E0.01004
G1 X124.343 Y107.647 E0.01004
G1 X124.166 Y107.929 E0.01004
G1 X123.929 Y108.166 E0.01004
G1 X123.647 Y108.343 E0.01004
G1 X123.332 Y108.453 E0.01004
G1 X123.000 Y108.491 E0.01004
G1 X122.668 Y108.453 E0.01004
G1 X122.353 Y108.343 E0.01004
G1 X122.071 Y108.166 E0.01004
G1 X121.834 Y107.929 E0.01004
G1 X121.657 Y107.647 E0.01004
G1 X121.547 Y107.332 E0.01004
G1 X121.509 Y107.000 E0.01004
G1 X121.547 Y106.668 E0.01004
G1 X121.657 Y106.353 E0.01004
G1 X121.834 Y106.071 E0.01004
G1 X122.071 Y105.834 E0.01004
G1 X122.353 Y105.657 E0.01004
G1 X122.668 Y105.547 E0.01004
G1 X122.991 Y105.510 E0.00978
G1 X123.254 Y105.538 E0.00795
G1 X123.247 Y105.916 F7200.000
G1 F840
G1 X123.482 Y105.999 E0.00751
G1 X123.693 Y106.131 E0.00749
G1 X123.869 Y106.307 E0.00749
G1 X124.001 Y106.518 E0.00749
G1 X124.083 Y106.753 E0.00749
G1 X124.111 Y107.000 E0.00749
G1 X124.083 Y107.247 E0.00749
G1 X124.001 Y107.482 E0.00749
G1 X123.869 Y107.693 E0.00749
G1 X123.693 Y107.869 E0.00749
G1 X123.482 Y108.001 E0.00749
G1 X123.247 Y108.083 E0.00749
G1 X123.000 Y108.111 E0.00749
G1 X122.753 Y108.083 E0.00749
G1 X122.518 Y108.001 E0.00749
G1 X122.307 Y107.869 E0.00749
G1 X122.131 Y107.693 E0.00749
G1 X121.999 Y107.482 E0.00749
G1 X121.917 Y107.247 E0.00749
G1 X121.889 Y107.000 E0.00749
G1 X121.917 Y106.753 E0.00749
G1 X121.999 Y106.518 E0.00749
G1 X122.131 Y106.307 E0.00749
G1 X122.307 Y106.131 E0.00749
G1 X122.518 Y105.999 E0.00749
G1 X122.753 Y105.917 E0.00749
G1 X122.993 Y105.890 E0.00726
G1 X123.187 Y105.910 E0.00588
G1 X123.416 Y105.733 F7200.000
G1 F5760
G1 X123.482 Y105.999 E-0.10679
G1 F5760
G1 X123.693 Y106.131 E-0.08619
G1 F5760
G1 X123.869 Y106.307 E-0.08619
G1 F5760
G1 X124.001 Y106.518 E-0.08619
G1 F5760
G1 X124.083 Y106.753 E-0.08619
G1 F5760
G1 X124.111 Y107.000 E-0.08619
G1 F5760
G1 X124.083 Y107.247 E-0.08619
G1 F5760
G1 X124.001 Y107.482 E-0.08619
G1 F5760
G1 X123.925 Y107.604 E-0.04986
G1 E-0.04000 F2100.00000
G1 X120.964 Y109.036 F7200.000
G1 E0.80000 F2100.00000
G1 F840
G1 X120.964 Y100.964 E0.24280
