; generated by Slic3r 1.33.8.devel on 2017-12-18 at 19:32:39

; 

; external perimeters extrusion width = 0.45mm
; perimeters extrusion width = 0.45mm
; infill extrusion width = 0.45mm
; solid infill extrusion width = 0.45mm
; top infill extrusion width = 0.40mm
; first layer extrusion width = 0.42mm

M107
M115 U3.0.12 ; tell printer latest fw version
M83  ; extruder relative mode
M104 S215 ; set extruder temp
M140 S55 ; set bed temp
M190 S55 ; wait for bed temp
M109 S215 ; wait for extruder temp
G28 W ; home all without mesh bed level
G80 ; mesh bed leveling
G1 Y-3.0 F1000.0 ; go outside pritn area
G1 X60.0 E9.0  F1000.0 ; intro line
G1 X100.0 E12.5  F1000.0 ; intro line
; Filament gcode

G21 ; set units to millimeters
G90 ; use absolute coordinates
M83 ; use relative distances for extrusion
G1 E-0.80000 F2100.00000
G1 Z0.200 F7200.000
G1 X117.690 Y88.500 F7200.000
G1 E0.80000 F2100.00000
M204 S1000
G1 F2100
G1 X118.195 Y87.920 E0.02311
G1 X118.839 Y87.502 E0.02311
G1 X119.579 Y87.278 E0.02323
G1 X130.004 Y87.246 E0.31360
G1 X131.005 Y87.436 E0.03065
G1 X131.872 Y87.980 E0.03078
G1 X132.478 Y88.799 E0.03065
G1 X132.746 Y89.786 E0.03078
G1 X132.754 Y120.008 E0.90907
G1 X132.634 Y120.804 E0.02421
G1 X132.303 Y121.511 E0.02348
G1 X131.787 Y122.096 E0.02348
G1 X131.127 Y122.513 E0.02348
G1 X130.373 Y122.729 E0.02360
G1 X119.975 Y122.754 E0.31275
G1 X119.196 Y122.634 E0.02372
G1 X118.445 Y122.273 E0.02506
G1 X117.834 Y121.701 E0.02518
G1 X117.423 Y120.972 E0.02518
G1 X117.250 Y120.152 E0.02518
G1 X117.246 Y89.992 E0.90722
G1 X117.366 Y89.196 E0.02421
G1 X117.665 Y88.554 E0.02131
G1 X118.005 Y88.715 F7200.000
G1 F2100
G1 X118.464 Y88.185 E0.02108
G1 X119.034 Y87.828 E0.02021
G1 X119.680 Y87.645 E0.02021
G1 X130.004 Y87.623 E0.31054
G1 X130.874 Y87.789 E0.02665
G1 X131.623 Y88.263 E0.02665
G1 X132.146 Y88.978 E0.02665
G1 X132.372 Y89.839 E0.02677
G1 X132.377 Y120.008 E0.90747
G1 X132.271 Y120.702 E0.02112
G1 X131.980 Y121.316 E0.02044
G1 X131.524 Y121.824 E0.02055
G1 X130.945 Y122.181 E0.02044
G1 X130.286 Y122.360 E0.02055
G1 X119.981 Y122.377 E0.30998
G1 X119.298 Y122.271 E0.02078
G1 X118.647 Y121.954 E0.02180
G1 X118.121 Y121.456 E0.02180
G1 X117.769 Y120.822 E0.02180
G1 X117.626 Y120.111 E0.02180
G1 X117.623 Y89.992 E0.90598
G1 X117.729 Y89.298 E0.02112
G1 X117.979 Y88.769 E0.01762
G1 F5760
G1 X118.464 Y88.185 E-0.26283
G1 F5760
G1 X119.034 Y87.828 E-0.23273
G1 F5760
G1 X119.680 Y87.645 E-0.23273
G1 F5760
G1 X119.771 Y87.644 E-0.03171
G1 E-0.04000 F2100.00000
G1 X124.563 Y113.084 F7200.000
G1 E0.80000 F2100.00000
G1 F840
G1 X125.000 Y113.034 E0.01324
G1 X125.437 Y113.084 E0.01324
G1 X125.853 Y113.229 E0.01324
G1 X126.226 Y113.463 E0.01324
G1 X126.537 Y113.774 E0.01324
G1 X126.771 Y114.147 E0.01324
G1 X126.917 Y114.563 E0.01324
G1 X126.966 Y115.000 E0.01324
G1 X126.917 Y115.437 E0.01324
G1 X126.771 Y115.853 E0.01324
G1 X126.537 Y116.226 E0.01324
G1 X126.226 Y116.537 E0.01324
G1 X125.853 Y116.771 E0.01324
G1 X125.437 Y116.916 E0.01324
G1 X125.000 Y116.966 E0.01324
G1 X124.563 Y116.916 E0.01324
G1 X124.147 Y116.771 E0.01324
G1 X123.774 Y116.537 E0.01324
G1 X123.463 Y116.226 E0.01324
G1 X123.229 Y115.853 E0.01324
G1 X123.083 Y115.437 E0.01324
G1 X123.034 Y115.000 E0.01324
G1 X123.083 Y114.563 E0.01324
G1 X123.229 Y114.147 E0.01324
G1 X123.463 Y113.774 E0.01324
G1 X123.774 Y113.463 E0.01324
G1 X124.147 Y113.229 E0.01324
G1 X124.506 Y113.103 E0.01144
G1 X124.630 Y113.459 F7200.000
G1 F840
G1 X125.000 Y113.414 E0.01120
G1 X125.353 Y113.453 E0.01069
G1 X125.688 Y113.571 E0.01068
G1 X125.989 Y113.760 E0.01068
G1 X126.240 Y114.011 E0.01068
G1 X126.429 Y114.312 E0.01068
G1 X126.547 Y114.647 E0.01068
G1 X126.586 Y115.000 E0.01069
G1 X126.547 Y115.353 E0.01069
G1 X126.429 Y115.688 E0.01068
G1 X126.240 Y115.989 E0.01068
G1 X125.989 Y116.240 E0.01068
G1 X125.688 Y116.429 E0.01068
G1 X125.353 Y116.547 E0.01068
G1 X125.000 Y116.586 E0.01069
G1 X124.647 Y116.547 E0.01069
G1 X124.312 Y116.429 E0.01068
G1 X124.011 Y116.240 E0.01068
G1 X123.760 Y115.989 E0.01068
G1 X123.571 Y115.688 E0.01068
G1 X123.453 Y115.353 E0.01068
G1 X123.414 Y115.000 E0.01069
G1 X123.453 Y114.647 E0.01069
G1 X123.571 Y114.312 E0.01068
G1 X123.760 Y114.011 E0.01068
G1 X124.011 Y113.760 E0.01068
G1 X124.312 Y113.571 E0.01068
G1 X124.574 Y113.479 E0.00835
G1 X124.737 Y113.103 F7200.000
G1 F5760
G1 X125.000 Y113.414 E-0.14933
G1 F5760
G1 X125.353 Y113.453 E-0.12304
G1 F5760
G1 X125.688 Y113.571 E-0.12303
G1 F5760
G1 X125.989 Y113.760 E-0.12303
G1 F5760
G1 X126.240 Y114.011 E-0.12303
G1 F5760
G1 X126.422 Y114.301 E-0.11854
G1 E-0.04000 F2100.00000
G1 X124.557 Y111.941 F7200.000
G1 E0.80000 F2100.00000
G1 F840
G1 X124.136 Y111.794 E0.01341
G1 X123.759 Y111.556 E0.01341
G1 X123.444 Y111.241 E0.01341
G1 X123.206 Y110.864 E0.01341
G1 X123.059 Y110.443 E0.01341
G1 X123.009 Y110.000 E0.01341
G1 X123.059 Y109.557 E0.01341
G1 X123.206 Y109.136 E0.01341
G1 X123.444 Y108.759 E0.01341
G1 X123.759 Y108.444 E0.01341
G1 X124.136 Y108.206 E0.01341
G1 X124.557 Y108.059 E0.01341
G1 X125.000 Y108.009 E0.01341
G1 X125.443 Y108.059 E0.01341
G1 X125.864 Y108.206 E0.01341
G1 X126.241 Y108.444 E0.01341
G1 X126.556 Y108.759 E0.01341
G1 X126.794 Y109.136 E0.01341
G1 X126.941 Y109.557 E0.01341
G1 X126.991 Y110.000 E0.01341
G1 X126.941 Y110.443 E0.01341
G1 X126.794 Y110.864 E0.01341
G1 X126.556 Y111.241 E0.01341
G1 X126.241 Y111.556 E0.01341
G1 X125.864 Y111.794 E0.01341
G1 X125.443 Y111.941 E0.01341
G1 X125.000 Y111.991 E0.01341
G1 X124.617 Y111.948 E0.01160
G1 X124.659 Y111.573 F7200.000
G1 F840
G1 X124.301 Y111.452 E0.01137
G1 X123.995 Y111.260 E0.01085
G1 X123.740 Y111.005 E0.01085
G1 X123.548 Y110.699 E0.01085
G1 X123.429 Y110.359 E0.01085
G1 X123.389 Y110.000 E0.01085
G1 X123.429 Y109.641 E0.01085
G1 X123.548 Y109.301 E0.01085
G1 X123.740 Y108.995 E0.01085
G1 X123.995 Y108.740 E0.01085
G1 X124.301 Y108.548 E0.01085
G1 X124.641 Y108.429 E0.01085
G1 X125.000 Y108.389 E0.01085
G1 X125.359 Y108.429 E0.01085
G1 X125.699 Y108.548 E0.01085
G1 X126.005 Y108.740 E0.01085
G1 X126.260 Y108.995 E0.01085
G1 X126.452 Y109.301 E0.01085
G1 X126.571 Y109.641 E0.01085
G1 X126.611 Y110.000 E0.01085
G1 X126.571 Y110.359 E0.01085
G1 X126.452 Y110.699 E0.01085
G1 X126.260 Y111.005 E0.01085
G1 X126.005 Y111.260 E0.01085
G1 X125.699 Y111.452 E0.01085
G1 X125.359 Y111.571 E0.01085
G1 X125.000 Y111.611 E0.01085
G1 X124.719 Y111.580 E0.00852
G1 X124.404 Y111.852 F7200.000
G1 F5760
G1 X124.301 Y111.452 E-0.15127
G1 F5760
G1 X123.995 Y111.260 E-0.12498
G1 F5760
G1 X123.740 Y111.005 E-0.12498
G1 F5760
G1 X123.548 Y110.699 E-0.12499
G1 F5760
G1 X123.429 Y110.359 E-0.12497
G1 F5760
G1 X123.394 Y110.046 E-0.10882
G1 E-0.04000 F2100.00000
G1 X125.000 Y107.016 F7200.000
G1 E0.80000 F2100.00000
G1 F840
G1 X124.551 Y106.965 E0.01358
G1 X124.125 Y106.816 E0.01358
G1 X123.743 Y106.576 E0.01358
G1 X123.424 Y106.257 E0.01358
G1 X123.184 Y105.875 E0.01358
G1 X123.035 Y105.449 E0.01358
G1 X122.984 Y105.000 E0.01358
G1 X123.035 Y104.551 E0.01358
G1 X123.184 Y104.125 E0.01358
G1 X123.424 Y103.743 E0.01358
G1 X123.743 Y103.424 E0.01358
G1 X124.125 Y103.184 E0.01358
G1 X124.551 Y103.035 E0.01358
G1 X125.000 Y102.984 E0.01358
G1 X125.449 Y103.035 E0.01358
G1 X125.875 Y103.184 E0.01358
G1 X126.257 Y103.424 E0.01358
G1 X126.576 Y103.743 E0.01358
G1 X126.816 Y104.125 E0.01358
G1 X126.965 Y104.551 E0.01358
G1 X127.016 Y105.000 E0.01358
G1 X126.965 Y105.449 E0.01358
G1 X126.816 Y105.875 E0.01358
G1 X126.576 Y106.257 E0.01358
G1 X126.257 Y106.576 E0.01358
G1 X125.875 Y106.816 E0.01358
G1 X125.449 Y106.965 E0.01358
G1 X125.060 Y107.009 E0.01177
G1 X125.017 Y106.634 F7200.000
G1 F840
G1 X124.636 Y106.595 E0.01154
G1 X124.290 Y106.474 E0.01102
G1 X123.980 Y106.279 E0.01102
G1 X123.721 Y106.020 E0.01102
G1 X123.526 Y105.710 E0.01102
G1 X123.405 Y105.364 E0.01102
G1 X123.364 Y105.000 E0.01102
G1 X123.405 Y104.636 E0.01102
G1 X123.526 Y104.290 E0.01102
G1 X123.721 Y103.980 E0.01102
G1 X123.980 Y103.721 E0.01102
G1 X124.290 Y103.526 E0.01102
G1 X124.636 Y103.405 E0.01102
G1 X125.000 Y103.364 E0.01102
G1 X125.364 Y103.405 E0.01102
G1 X125.710 Y103.526 E0.01102
G1 X126.020 Y103.721 E0.01102
G1 X126.279 Y103.980 E0.01102
G1 X126.474 Y104.290 E0.01102
G1 X126.595 Y104.636 E0.01102
G1 X126.636 Y105.000 E0.01102
G1 X126.595 Y105.364 E0.01102
G1 X126.474 Y105.710 E0.01102
G1 X126.279 Y106.020 E0.01102
G1 X126.020 Y106.279 E0.01102
G1 X125.710 Y106.474 E0.01102
G1 X125.364 Y106.595 E0.01102
G1 X125.077 Y106.628 E0.00869
G1 X124.828 Y106.968 F7200.000
G1 F5760
G1 X124.636 Y106.595 E-0.15321
G1 F5760
G1 X124.290 Y106.474 E-0.12692
G1 F5760
G1 X123.980 Y106.279 E-0.12691
G1 F5760
G1 X123.721 Y106.020 E-0.12690
G1 F5760
G1 X123.526 Y105.710 E-0.12692
G1 F5760
G1 X123.431 Y105.440 E-0.09914
G1 E-0.04000 F2100.00000
G1 X125.000 Y102.041 F7200.000
G1 E0.80000 F2100.00000
G1 F840
G1 X124.546 Y101.990 E0.01375
G1 X124.115 Y101.839 E0.01374
G1 X123.728 Y101.596 E0.01375
G1 X123.404 Y101.272 E0.01375
G1 X123.161 Y100.885 E0.01375
G1 X123.010 Y100.454 E0.01374
G1 X122.959 Y100.000 E0.01375
G1 X123.010 Y99.546 E0.01375
G1 X123.161 Y99.115 E0.01375
G1 X123.404 Y98.728 E0.01375
G1 X123.728 Y98.404 E0.01375
G1 X124.115 Y98.161 E0.01375
G1 X124.546 Y98.010 E0.01375
G1 X125.000 Y97.959 E0.01375
G1 X125.454 Y98.010 E0.01375
G1 X125.885 Y98.161 E0.01375
G1 X126.272 Y98.404 E0.01375
G1 X126.596 Y98.728 E0.01375
G1 X126.839 Y99.115 E0.01375
G1 X126.990 Y99.546 E0.01375
G1 X127.041 Y100.000 E0.01375
G1 X126.990 Y100.454 E0.01375
G1 X126.839 Y100.885 E0.01374
G1 X126.596 Y101.272 E0.01375
G1 X126.272 Y101.596 E0.01375
G1 X125.885 Y101.839 E0.01375
G1 X125.454 Y101.990 E0.01374
G1 X125.060 Y102.034 E0.01194
G1 X125.017 Y101.659 F7200.000
G1 F840
G1 X124.630 Y101.620 E0.01170
G1 X124.279 Y101.497 E0.01119
G1 X123.964 Y101.299 E0.01119
G1 X123.701 Y101.036 E0.01119
G1 X123.503 Y100.721 E0.01119
G1 X123.380 Y100.370 E0.01119
G1 X123.339 Y100.000 E0.01119
G1 X123.380 Y99.630 E0.01119
G1 X123.503 Y99.279 E0.01119
G1 X123.701 Y98.964 E0.01119
G1 X123.964 Y98.701 E0.01119
G1 X124.279 Y98.503 E0.01119
G1 X124.630 Y98.380 E0.01119
G1 X125.000 Y98.339 E0.01119
G1 X125.370 Y98.380 E0.01119
G1 X125.721 Y98.503 E0.01119
G1 X126.036 Y98.701 E0.01119
G1 X126.299 Y98.964 E0.01119
G1 X126.497 Y99.279 E0.01119
G1 X126.620 Y99.630 E0.01119
G1 X126.661 Y100.000 E0.01119
G1 X126.620 Y100.370 E0.01119
G1 X126.497 Y100.721 E0.01119
G1 X126.299 Y101.036 E0.01119
G1 X126.036 Y101.299 E0.01119
G1 X125.721 Y101.497 E0.01119
G1 X125.370 Y101.620 E0.01119
G1 X125.077 Y101.653 E0.00886
G1 X124.825 Y101.998 F7200.000
G1 F5760
G1 X124.630 Y101.620 E-0.15512
G1 F5760
G1 X124.279 Y101.497 E-0.12883
G1 F5760
G1 X123.964 Y101.299 E-0.12885
G1 F5760
G1 X123.701 Y101.036 E-0.12886
G1 F5760
G1 X123.503 Y100.721 E-0.12887
G1 F5760
G1 X123.418 Y100.477 E-0.08946
G1 E-0.04000 F2100.00000
G1 X125.000 Y97.066 F7200.000
G1 E0.80000 F2100.00000
G1 F840
G1 X124.540 Y97.014 E0.01391
G1 X124.104 Y96.861 E0.01391
G1 X123.712 Y96.615 E0.01391
G1 X123.385 Y96.288 E0.01391
G1 X123.139 Y95.896 E0.01391
G1 X122.986 Y95.460 E0.01391
G1 X122.934 Y95.000 E0.01391
G1 X122.986 Y94.540 E0.01391
G1 X123.139 Y94.104 E0.01391
G1 X123.385 Y93.712 E0.01391
G1 X123.712 Y93.385 E0.01391
G1 X124.104 Y93.139 E0.01391
G1 X124.540 Y92.986 E0.01391
G1 X125.000 Y92.934 E0.01391
G1 X125.460 Y92.986 E0.01391
G1 X125.896 Y93.139 E0.01391
G1 X126.288 Y93.385 E0.01391
G1 X126.615 Y93.712 E0.01391
G1 X126.861 Y94.104 E0.01391
G1 X127.014 Y94.540 E0.01391
G1 X127.066 Y95.000 E0.01391
G1 X127.014 Y95.460 E0.01391
G1 X126.861 Y95.896 E0.01391
G1 X126.615 Y96.288 E0.01391
G1 X126.288 Y96.615 E0.01391
G1 X125.896 Y96.861 E0.01391
G1 X125.460 Y97.014 E0.01391
G1 X125.060 Y97.059 E0.01211
G1 X125.017 Y96.684 F7200.000
G1 F840
G1 X124.625 Y96.644 E0.01187
G1 X124.268 Y96.519 E0.01136
G1 X123.949 Y96.318 E0.01136
G1 X123.682 Y96.051 E0.01136
G1 X123.481 Y95.732 E0.01136
G1 X123.356 Y95.375 E0.01136
G1 X123.314 Y95.000 E0.01136
G1 X123.356 Y94.625 E0.01136
G1 X123.481 Y94.268 E0.01136
G1 X123.682 Y93.949 E0.01136
G1 X123.949 Y93.682 E0.01136
G1 X124.268 Y93.481 E0.01136
G1 X124.625 Y93.356 E0.01136
G1 X125.000 Y93.314 E0.01136
G1 X125.375 Y93.356 E0.01136
G1 X125.732 Y93.481 E0.01136
G1 X126.051 Y93.682 E0.01136
G1 X126.318 Y93.949 E0.01136
G1 X126.519 Y94.268 E0.01136
G1 X126.644 Y94.625 E0.01136
G1 X126.686 Y95.000 E0.01136
G1 X126.644 Y95.375 E0.01136
G1 X126.519 Y95.732 E0.01136
G1 X126.318 Y96.051 E0.01136
G1 X126.051 Y96.318 E0.01136
G1 X125.732 Y96.519 E0.01136
G1 X125.375 Y96.644 E0.01136
G1 X125.077 Y96.678 E0.00903
G1 X124.823 Y97.028 F7200.000
G1 F5760
G1 X124.625 Y96.644 E-0.15708
G1 F5760
G1 X124.268 Y96.519 E-0.13079
G1 F5760
G1 X123.949 Y96.318 E-0.13079
G1 F5760
G1 X123.682 Y96.051 E-0.13079
G1 F5760
G1 X123.481 Y95.732 E-0.13079
G1 F5760
G1 X123.405 Y95.514 E-0.07977
G1 E-0.04000 F2100.00000
G1 X129.413 Y90.587 F7200.000
G1 E0.80000 F2100.00000
G1 F1680
G1 X129.413 Y119.413 E0.86708
G1 X120.587 Y119.413 E0.26548
G1 X120.587 Y90.587 E0.86708
G1 X129.353 Y90.587 E0.26368
G1 X129.790 Y90.210 F7200.000
G1 F1260
G1 X129.790 Y119.790 E0.88976
G1 X120.210 Y119.790 E0.28817
G1 X120.210 Y90.210 E0.88976
G1 X129.730 Y90.210 E0.28636
G1 X129.748 Y90.608 F7200.000
G1 F5760
G1 X129.734 Y92.404 E-0.76000
G1 E-0.04000 F2100.00000
G1 X129.300 Y91.473 F7200.000
G1 E0.80000 F2100.00000
G1 F1680
G1 X128.697 Y90.870 E0.02600
G1 X128.157 Y90.870 E0.01647
G1 X129.130 Y91.843 E0.04197
G1 X129.130 Y92.384 E0.01647
G1 X127.616 Y90.870 E0.06527
G1 X127.076 Y90.870 E0.01647
G1 X129.130 Y92.924 E0.08856
G1 X129.130 Y93.464 E0.01647
G1 X126.536 Y90.870 E0.11185
G1 X125.996 Y90.870 E0.01647
G1 X129.130 Y94.004 E0.13514
G1 X129.130 Y94.544 E0.01647
G1 X125.456 Y90.870 E0.15844
G1 X124.915 Y90.870 E0.01647
G1 X129.130 Y95.085 E0.18173
G1 X129.130 Y95.625 E0.01647
G1 X124.375 Y90.870 E0.20502
G1 X123.835 Y90.870 E0.01647
G1 X125.755 Y92.790 E0.08277
G1 X125.523 Y92.709 E0.00748
G1 X125.084 Y92.659 E0.01347
G1 X123.295 Y90.870 E0.07714
G1 X122.754 Y90.870 E0.01647
G1 X124.581 Y92.697 E0.07877
G1 X124.477 Y92.709 E0.00320
G1 X124.163 Y92.818 E0.01015
G1 X122.214 Y90.870 E0.08402
G1 X121.674 Y90.870 E0.01647
G1 X123.800 Y92.996 E0.09166
G1 X123.535 Y93.162 E0.00955
G1 X123.480 Y93.216 E0.00233
G1 X121.134 Y90.870 E0.10118
G1 X120.870 Y90.870 E0.00805
G1 X120.870 Y91.146 E0.00842
G1 X123.210 Y93.487 E0.10091
G1 X123.162 Y93.535 E0.00207
G1 X122.991 Y93.807 E0.00982
G1 X120.870 Y91.686 E0.09145
G1 X120.870 Y92.227 E0.01647
G1 X122.815 Y94.172 E0.08388
G1 X122.709 Y94.477 E0.00985
G1 X122.696 Y94.592 E0.00354
G1 X120.870 Y92.767 E0.07872
G1 X120.870 Y93.307 E0.01647
G1 X122.661 Y95.098 E0.07721
G1 X122.709 Y95.523 E0.01305
G1 X122.796 Y95.774 E0.00809
G1 X120.870 Y93.847 E0.08306
G1 X120.870 Y94.387 E0.01647
G1 X124.285 Y97.802 E0.14723
G1 X123.991 Y97.905 E0.00948
G1 X123.903 Y97.960 E0.00318
G1 X120.870 Y94.928 E0.13077
G1 X120.870 Y95.468 E0.01647
G1 X123.571 Y98.169 E0.11646
G1 X123.297 Y98.435 E0.01165
G1 X120.870 Y96.008 E0.10465
G1 X120.870 Y96.548 E0.01647
G1 X123.062 Y98.741 E0.09453
G1 X122.905 Y98.991 E0.00902
G1 X122.871 Y99.089 E0.00317
G1 X120.870 Y97.088 E0.08626
G1 X120.870 Y97.629 E0.01647
G1 X122.732 Y99.491 E0.08029
G1 X122.677 Y99.976 E0.01490
G1 X120.870 Y98.169 E0.07793
G1 X120.870 Y98.709 E0.01647
G1 X122.762 Y100.602 E0.08160
G1 F5760
G1 X121.211 Y99.050 E-0.76000
G1 E-0.04000 F2100.00000
G1 X124.398 Y102.238 F7200.000
G1 E0.80000 F2100.00000
G1 F1680
G1 X124.875 Y102.714 E0.02053
G1 X124.488 Y102.757 E0.01186
G1 X124.406 Y102.786 E0.00264
G1 X120.870 Y99.249 E0.15248
G1 X120.870 Y99.790 E0.01647
G1 X124.006 Y102.926 E0.13523
G1 X123.674 Y103.134 E0.01195
G1 X120.870 Y100.330 E0.12089
G1 X120.870 Y100.870 E0.01647
G1 X123.384 Y103.384 E0.10838
G1 X123.202 Y103.566 E0.00785
G1 X123.134 Y103.674 E0.00389
G1 X120.870 Y101.410 E0.09760
G1 X120.870 Y101.950 E0.01647
G1 X122.926 Y104.006 E0.08865
G1 X122.786 Y104.407 E0.01293
G1 X120.870 Y102.491 E0.08261
G1 X120.870 Y103.031 E0.01647
G1 X122.714 Y104.875 E0.07950
G1 X122.700 Y105.000 E0.00385
