; generated by Slic3r 1.33.8.devel on 2018-01-02 at 07:00:42

; 

; external perimeters extrusion width = 0.45mm
; perimeters extrusion width = 0.45mm
; infill extrusion width = 0.45mm
; solid infill extrusion width = 0.45mm
; top infill extrusion width = 0.40mm
; first layer extrusion width = 0.42mm

M107
M115 U3.0.12 ; tell printer latest fw version
M83  ; extruder relative mode
M104 S215 ; set extruder temp
M140 S55 ; set bed temp
M190 S55 ; wait for bed temp
M109 S215 ; wait for extruder temp
G28 W ; home all without mesh bed level
G80 ; mesh bed leveling
G1 Y-3.0 F1000.0 ; go outside pritn area
G1 X60.0 E9.0  F1000.0 ; intro line
G1 X100.0 E12.5  F1000.0 ; intro line
; Filament gcode

G21 ; set units to millimeters
G90 ; use absolute coordinates
M83 ; use relative distances for extrusion
G1 E-0.80000 F2100.00000
G1 Z0.200 F7200.000
G1 X109.654 Y90.282 F7200.000
G1 E0.80000 F2100.00000
M204 S1000
G1 F1280
G1 X110.817 Y88.952 E0.05316
G1 X112.129 Y87.684 E0.05489
G1 X113.584 Y86.512 E0.05620
G1 X114.888 Y85.628 E0.04740
G1 X116.278 Y84.842 E0.04802
G1 X117.868 Y84.108 E0.05269
G1 X119.568 Y83.504 E0.05426
G1 X121.217 Y83.086 E0.05118
G1 X122.898 Y82.817 E0.05122
G1 X124.661 Y82.702 E0.05314
G1 X126.395 Y82.752 E0.05219
G1 X127.953 Y82.931 E0.04715
G1 X129.495 Y83.245 E0.04736
G1 X131.225 Y83.757 E0.05425
G1 X132.817 Y84.393 E0.05158
G1 X134.394 Y85.193 E0.05319
G1 X135.936 Y86.159 E0.05472
G1 X137.228 Y87.126 E0.04854
G1 X138.416 Y88.172 E0.04760
G1 X139.713 Y89.511 E0.05610
G1 X140.838 Y90.892 E0.05358
G1 X141.885 Y92.423 E0.05579
G1 X142.716 Y93.862 E0.04997
G1 X143.425 Y95.332 E0.04909
G1 X144.113 Y97.072 E0.05629
G1 X144.641 Y98.797 E0.05424
G1 X145.056 Y100.669 E0.05769
G1 X145.298 Y102.311 E0.04992
G1 X145.425 Y104.000 E0.05095
G1 X145.433 Y105.797 E0.05405
G1 X145.298 Y107.688 E0.05702
G1 X145.015 Y109.555 E0.05680
G1 X144.640 Y111.208 E0.05100
G1 X144.159 Y112.787 E0.04963
G1 X143.487 Y114.531 E0.05622
G1 X142.712 Y116.145 E0.05388
G1 X141.755 Y117.783 E0.05706
G1 X140.833 Y119.115 E0.04874
G1 X139.801 Y120.386 E0.04923
G1 X138.599 Y121.653 E0.05253
G1 X137.237 Y122.867 E0.05488
G1 X135.844 Y123.906 E0.05229
G1 X134.346 Y124.834 E0.05300
G1 X132.723 Y125.647 E0.05461
G1 X131.128 Y126.274 E0.05154
G1 X129.620 Y126.726 E0.04736
G1 X128.080 Y127.046 E0.04731
G1 X126.297 Y127.257 E0.05402
G1 X124.656 Y127.298 E0.04937
G1 X122.905 Y127.184 E0.05277
G1 X121.227 Y126.916 E0.05113
G1 X119.579 Y126.500 E0.05111
G1 X117.873 Y125.894 E0.05447
G1 X116.278 Y125.158 E0.05283
G1 X114.889 Y124.373 E0.04797
G1 X113.586 Y123.489 E0.04739
G1 X112.130 Y122.316 E0.05623
G1 X110.818 Y121.049 E0.05487
G1 X109.654 Y119.718 E0.05320
G1 X108.671 Y118.402 E0.04940
G1 X107.802 Y117.035 E0.04874
G1 X106.924 Y115.394 E0.05598
G1 X106.208 Y113.752 E0.05386
G1 X105.621 Y112.063 E0.05379
G1 X105.135 Y110.203 E0.05784
G1 X104.834 Y108.579 E0.04968
G1 X104.644 Y106.893 E0.05105
G1 X104.569 Y104.999 E0.05701
G1 X104.643 Y103.111 E0.05683
G1 X104.834 Y101.420 E0.05119
G1 X105.135 Y99.797 E0.04965
G1 X105.620 Y97.939 E0.05775
G1 X106.208 Y96.247 E0.05390
G1 X106.923 Y94.609 E0.05375
G1 X107.801 Y92.966 E0.05605
G1 X108.669 Y91.600 E0.04866
G1 X109.618 Y90.330 E0.04768
G1 X109.920 Y90.556 F7200.000
G1 F1280
G1 X111.096 Y89.206 E0.05386
G1 X112.379 Y87.967 E0.05365
G1 X113.799 Y86.822 E0.05488
G1 X115.090 Y85.946 E0.04693
G1 X116.463 Y85.171 E0.04740
G1 X118.020 Y84.453 E0.05158
G1 X119.678 Y83.865 E0.05292
G1 X121.294 Y83.455 E0.05015
G1 X122.937 Y83.193 E0.05006
G1 X124.660 Y83.079 E0.05195
G1 X126.355 Y83.127 E0.05100
G1 X127.894 Y83.303 E0.04658
G1 X129.419 Y83.615 E0.04682
G1 X131.105 Y84.114 E0.05290
G1 X132.662 Y84.737 E0.05044
G1 X134.209 Y85.522 E0.05218
G1 X135.712 Y86.462 E0.05332
G1 X136.989 Y87.417 E0.04795
G1 X138.166 Y88.454 E0.04719
G1 X139.436 Y89.767 E0.05494
G1 X140.535 Y91.116 E0.05236
G1 X141.561 Y92.614 E0.05461
G1 X142.383 Y94.039 E0.04947
G1 X143.085 Y95.495 E0.04864
G1 X143.758 Y97.200 E0.05512
G1 X144.276 Y98.892 E0.05324
G1 X144.683 Y100.724 E0.05645
G1 X144.923 Y102.352 E0.04949
G1 X145.049 Y104.028 E0.05056
G1 X145.056 Y105.797 E0.05321
G1 X144.923 Y107.648 E0.05581
G1 X144.647 Y109.475 E0.05560
G1 X144.274 Y111.114 E0.05055
G1 X143.799 Y112.676 E0.04911
G1 X143.139 Y114.385 E0.05511
G1 X142.379 Y115.968 E0.05281
G1 X141.443 Y117.571 E0.05584
G1 X140.531 Y118.889 E0.04819
G1 X139.509 Y120.148 E0.04879
G1 X138.328 Y121.392 E0.05160
G1 X136.996 Y122.577 E0.05363
G1 X135.635 Y123.593 E0.05108
G1 X134.165 Y124.503 E0.05200
G1 X132.581 Y125.298 E0.05331
G1 X131.019 Y125.913 E0.05049
G1 X129.527 Y126.360 E0.04686
G1 X128.004 Y126.676 E0.04678
G1 X126.269 Y126.881 E0.05255
G1 X124.656 Y126.921 E0.04856
G1 X122.947 Y126.809 E0.05151
G1 X121.302 Y126.547 E0.05009
G1 X119.688 Y126.138 E0.05009
G1 X118.028 Y125.550 E0.05297
G1 X116.463 Y124.829 E0.05185
G1 X115.088 Y124.052 E0.04750
G1 X113.802 Y123.180 E0.04674
G1 X112.381 Y122.035 E0.05488
G1 X111.095 Y120.794 E0.05375
G1 X109.955 Y119.491 E0.05207
G1 X108.980 Y118.187 E0.04899
G1 X108.120 Y116.833 E0.04824
G1 X107.262 Y115.226 E0.05479
G1 X106.560 Y113.616 E0.05285
G1 X105.982 Y111.954 E0.05292
G1 X105.506 Y110.138 E0.05648
G1 X105.207 Y108.525 E0.04936
G1 X105.019 Y106.851 E0.05065
G1 X104.946 Y105.000 E0.05573
G1 X105.018 Y103.151 E0.05566
G1 X105.206 Y101.478 E0.05062
G1 X105.505 Y99.866 E0.04932
G1 X105.981 Y98.047 E0.05656
G1 X106.559 Y96.387 E0.05288
G1 X107.262 Y94.773 E0.05295
G1 X108.119 Y93.168 E0.05472
G1 X108.981 Y91.812 E0.04835
G1 X109.884 Y90.604 E0.04534
G1 F5760
G1 X111.096 Y89.206 E-0.64090
G1 F5760
G1 X111.343 Y88.967 E-0.11910
G1 E-0.04000 F2100.00000
G1 X124.653 Y124.334 F7200.000
G1 E0.80000 F2100.00000
G1 F1260
G1 X123.234 Y124.237 E0.04278
G1 X121.819 Y124.012 E0.04309
G1 X120.441 Y123.663 E0.04277
G1 X119.085 Y123.189 E0.04321
G1 X117.769 Y122.594 E0.04346
G1 X116.493 Y121.878 E0.04400
G1 X115.281 Y121.053 E0.04411
G1 X114.133 Y120.121 E0.04447
G1 X113.058 Y119.088 E0.04485
G1 X112.062 Y117.961 E0.04524
G1 X111.151 Y116.748 E0.04562
G1 X110.333 Y115.456 E0.04599
G1 X109.616 Y114.102 E0.04610
G1 X108.998 Y112.680 E0.04665
G1 X108.486 Y111.206 E0.04692
G1 X108.082 Y109.684 E0.04738
G1 X107.795 Y108.145 E0.04708
G1 X107.621 Y106.578 E0.04743
G1 X107.563 Y105.000 E0.04749
G1 X107.621 Y103.422 E0.04749
G1 X107.795 Y101.855 E0.04743
G1 X108.082 Y100.316 E0.04708
G1 X108.486 Y98.794 E0.04738
G1 X108.998 Y97.320 E0.04692
G1 X109.616 Y95.898 E0.04665
G1 X110.333 Y94.544 E0.04610
G1 X111.151 Y93.252 E0.04599
G1 X112.062 Y92.039 E0.04562
G1 X113.058 Y90.912 E0.04524
G1 X114.133 Y89.879 E0.04485
G1 X115.287 Y88.943 E0.04470
G1 X116.500 Y88.118 E0.04411
G1 X117.769 Y87.406 E0.04377
G1 X119.078 Y86.814 E0.04323
G1 X120.441 Y86.337 E0.04344
G1 X121.827 Y85.987 E0.04300
G1 X123.234 Y85.763 E0.04285
G1 X124.660 Y85.666 E0.04301
G1 X126.074 Y85.698 E0.04252
G1 X127.488 Y85.859 E0.04280
G1 X128.885 Y86.146 E0.04292
G1 X130.257 Y86.559 E0.04310
G1 X131.594 Y87.094 E0.04333
G1 X132.895 Y87.752 E0.04384
G1 X134.136 Y88.521 E0.04393
G1 X135.317 Y89.400 E0.04429
G1 X136.424 Y90.378 E0.04443
G1 X137.467 Y91.464 E0.04528
G1 X138.421 Y92.635 E0.04543
G1 X139.286 Y93.889 E0.04581
G1 X140.055 Y95.216 E0.04617
G1 X140.722 Y96.602 E0.04626
G1 X141.288 Y98.051 E0.04679
G1 X141.745 Y99.547 E0.04703
G1 X142.092 Y101.086 E0.04747
G1 X142.322 Y102.637 E0.04715
G1 X142.439 Y104.210 E0.04747
G1 X142.439 Y105.790 E0.04750
G1 X142.322 Y107.363 E0.04747
G1 X142.091 Y108.922 E0.04738
G1 X141.745 Y110.453 E0.04724
G1 X141.288 Y111.949 E0.04704
G1 X140.725 Y113.391 E0.04655
G1 X140.055 Y114.784 E0.04650
G1 X139.286 Y116.111 E0.04617
G1 X138.421 Y117.365 E0.04581
G1 X137.461 Y118.541 E0.04567
G1 X136.430 Y119.616 E0.04481
G1 X135.317 Y120.600 E0.04466
G1 X134.136 Y121.479 E0.04429
G1 X132.895 Y122.248 E0.04393
G1 X131.602 Y122.903 E0.04361
G1 X130.257 Y123.441 E0.04356
G1 X128.885 Y123.854 E0.04310
G1 X127.488 Y124.141 E0.04292
G1 X126.074 Y124.302 E0.04280
G1 X125.618 Y124.312 E0.01371
G1 X125.618 Y123.933 E0.01141
G1 X126.058 Y123.923 E0.01323
G1 X127.451 Y123.765 E0.04217
G1 X128.827 Y123.482 E0.04227
G1 X130.178 Y123.075 E0.04243
G1 X131.501 Y122.546 E0.04287
G1 X132.774 Y121.901 E0.04290
G1 X133.988 Y121.149 E0.04297
G1 X135.155 Y120.281 E0.04374
G1 X136.248 Y119.315 E0.04386
G1 X137.265 Y118.255 E0.04421
G1 X138.196 Y117.112 E0.04434
G1 X139.049 Y115.877 E0.04514
G1 X139.803 Y114.576 E0.04524
G1 X140.457 Y113.218 E0.04532
G1 X141.010 Y111.800 E0.04581
G1 X141.460 Y110.328 E0.04627
G1 X141.796 Y108.837 E0.04600
G1 X142.023 Y107.312 E0.04636
G1 X142.137 Y105.772 E0.04644
G1 X142.137 Y104.228 E0.04647
G1 X142.023 Y102.688 E0.04644
G1 X141.796 Y101.163 E0.04636
G1 X141.460 Y99.672 E0.04600
G1 X141.010 Y98.200 E0.04627
G1 X140.457 Y96.782 E0.04581
G1 X139.803 Y95.424 E0.04532
G1 X139.049 Y94.123 E0.04524
G1 X138.196 Y92.888 E0.04514
G1 X137.265 Y91.745 E0.04434
G1 X136.248 Y90.685 E0.04421
G1 X135.149 Y89.714 E0.04409
G1 X133.994 Y88.855 E0.04329
G1 X132.774 Y88.099 E0.04320
G1 X131.495 Y87.451 E0.04313
G1 X130.178 Y86.925 E0.04265
G1 X128.827 Y86.518 E0.04243
G1 X127.451 Y86.235 E0.04227
G1 X126.065 Y86.078 E0.04194
G1 X124.658 Y86.046 E0.04234
G1 X123.253 Y86.142 E0.04237
G1 X121.874 Y86.361 E0.04199
G1 X120.509 Y86.706 E0.04235
G1 X119.175 Y87.173 E0.04253
G1 X117.879 Y87.759 E0.04277
G1 X116.625 Y88.463 E0.04327
G1 X115.433 Y89.274 E0.04336
G1 X114.311 Y90.185 E0.04346
G1 X113.250 Y91.204 E0.04426
G1 X112.272 Y92.309 E0.04439
G1 X111.384 Y93.493 E0.04451
G1 X110.578 Y94.765 E0.04531
G1 X109.872 Y96.099 E0.04540
G1 X109.269 Y97.485 E0.04546
G1 X108.768 Y98.927 E0.04593
G1 X108.375 Y100.410 E0.04614
G1 X108.092 Y101.923 E0.04630
G1 X107.922 Y103.456 E0.04641
G1 X107.865 Y105.000 E0.04646
G1 X107.922 Y106.536 E0.04624
G1 X108.092 Y108.077 E0.04663
G1 X108.375 Y109.590 E0.04630
G1 X108.768 Y111.073 E0.04614
G1 X109.269 Y112.515 E0.04593
G1 X109.872 Y113.901 E0.04546
G1 X110.578 Y115.235 E0.04539
G1 X111.380 Y116.501 E0.04508
G1 X112.272 Y117.691 E0.04474
G1 X113.250 Y118.796 E0.04439
G1 X114.311 Y119.815 E0.04426
G1 X115.433 Y120.726 E0.04346
G1 X116.625 Y121.537 E0.04336
G1 X117.879 Y122.241 E0.04327
G1 X119.175 Y122.827 E0.04277
G1 X120.509 Y123.294 E0.04253
G1 X121.874 Y123.639 E0.04235
G1 X123.260 Y123.859 E0.04221
G1 X124.798 Y123.951 E0.04634
G1 X124.798 Y124.330 E0.01141
G1 X124.713 Y124.332 E0.00256
G1 X124.344 Y124.079 F7200.000
M106 S255
G1 F5760
G1 X123.234 Y124.237 E-0.51325
G1 F5760
G1 X122.530 Y124.125 E-0.24675
G1 E-0.04000 F2100.00000
G1 Z0.400 F7200.000
M104 S210 ; set temperature
G1 X124.520 Y127.289 F7200.000
G1 E0.80000 F2100.00000
G1 F900
G1 X122.905 Y127.184 E0.04866
G1 X121.227 Y126.916 E0.05113
G1 X119.579 Y126.500 E0.05111
G1 X117.873 Y125.894 E0.05447
G1 X116.278 Y125.158 E0.05283
G1 X114.889 Y124.373 E0.04797
G1 X113.586 Y123.489 E0.04739
G1 X112.130 Y122.316 E0.05623
G1 X110.818 Y121.049 E0.05487
G1 X109.654 Y119.718 E0.05320
G1 X108.671 Y118.402 E0.04940
G1 X107.802 Y117.035 E0.04874
G1 X106.924 Y115.394 E0.05598
G1 X106.208 Y113.752 E0.05386
G1 X105.621 Y112.063 E0.05379
G1 X105.135 Y110.203 E0.05784
G1 X104.834 Y108.579 E0.04968
G1 X104.644 Y106.893 E0.05105
G1 X104.569 Y104.999 E0.05701
G1 X104.643 Y103.111 E0.05683
G1 X104.834 Y101.420 E0.05119
G1 X105.135 Y99.797 E0.04965
G1 X105.620 Y97.939 E0.05775
G1 X106.208 Y96.247 E0.05390
G1 X106.923 Y94.609 E0.05375
G1 X107.801 Y92.966 E0.05605
G1 X108.669 Y91.600 E0.04866
G1 X109.654 Y90.282 E0.04949
G1 X110.817 Y88.952 E0.05316
G1 X112.129 Y87.684 E0.05489
G1 X113.584 Y86.512 E0.05620
G1 X114.888 Y85.628 E0.04740
G1 X116.278 Y84.842 E0.04802
G1 X117.868 Y84.108 E0.05269
G1 X119.568 Y83.504 E0.05426
G1 X121.217 Y83.086 E0.05118
G1 X122.898 Y82.817 E0.05122
G1 X124.661 Y82.702 E0.05314
G1 X126.395 Y82.752 E0.05219
G1 X127.953 Y82.931 E0.04715
G1 X129.495 Y83.245 E0.04736
G1 X131.225 Y83.757 E0.05425
G1 X132.817 Y84.393 E0.05158
G1 X134.394 Y85.193 E0.05319
G1 X135.936 Y86.159 E0.05472
G1 X137.228 Y87.126 E0.04854
G1 X138.416 Y88.172 E0.04760
G1 X139.713 Y89.511 E0.05610
G1 X140.838 Y90.892 E0.05358
G1 X141.885 Y92.423 E0.05579
G1 X142.716 Y93.862 E0.04997
G1 X143.425 Y95.332 E0.04909
G1 X144.113 Y97.072 E0.05629
G1 X144.641 Y98.797 E0.05424
G1 X145.056 Y100.669 E0.05769
G1 X145.298 Y102.311 E0.04992
G1 X145.425 Y104.000 E0.05095
G1 X145.433 Y105.797 E0.05405
G1 X145.298 Y107.688 E0.05702
G1 X145.015 Y109.555 E0.05680
G1 X144.640 Y111.208 E0.05100
G1 X144.159 Y112.787 E0.04963
G1 X143.487 Y114.531 E0.05622
G1 X142.712 Y116.145 E0.05388
G1 X141.755 Y117.783 E0.05706
G1 X140.833 Y119.115 E0.04874
G1 X139.801 Y120.386 E0.04923
G1 X138.599 Y121.653 E0.05253
G1 X137.237 Y122.867 E0.05488
G1 X135.844 Y123.906 E0.05229
G1 X134.346 Y124.834 E0.05300
G1 X132.723 Y125.647 E0.05461
G1 X131.128 Y126.274 E0.05154
G1 X129.620 Y126.726 E0.04736
G1 X128.080 Y127.046 E0.04731
G1 X126.297 Y127.257 E0.05402
G1 X124.580 Y127.293 E0.05166
G1 F5760
G1 X122.905 Y127.184 E-0.58113
G1 F5760
G1 X122.395 Y127.102 E-0.17887
G1 E-0.04000 F2100.00000
G1 X124.653 Y124.315 F7200.000
G1 E0.80000 F2100.00000
M204 S800
G1 F900
G1 X123.234 Y124.218 E0.04631
G1 X121.805 Y123.990 E0.04716
G1 X120.441 Y123.645 E0.04580
G1 X119.086 Y123.171 E0.04678
G1 X117.769 Y122.577 E0.04706
G1 X116.480 Y121.853 E0.04814
G1 X115.269 Y121.028 E0.04774
G1 X114.122 Y120.096 E0.04814
G1 X113.047 Y119.063 E0.04855
G1 X112.052 Y117.937 E0.04896
G1 X111.143 Y116.724 E0.04937
G1 X110.326 Y115.433 E0.04977
G1 X109.606 Y114.072 E0.05014
G1 X108.998 Y112.673 E0.04972
G1 X108.486 Y111.201 E0.05077
G1 X108.079 Y109.664 E0.05177
G1 X107.795 Y108.142 E0.05043
G1 X107.621 Y106.576 E0.05132
G1 X107.563 Y105.000 E0.05139
G1 X107.621 Y103.424 E0.05139
G1 X107.795 Y101.858 E0.05132
G1 X108.079 Y100.336 E0.05043
G1 X108.486 Y98.799 E0.05177
G1 X108.998 Y97.327 E0.05077
G1 X109.606 Y95.928 E0.04972
G1 X110.326 Y94.567 E0.05014
G1 X111.143 Y93.276 E0.04977
G1 X112.052 Y92.063 E0.04937
G1 X113.047 Y90.937 E0.04896
G1 X114.122 Y89.904 E0.04855
G1 X115.288 Y88.958 E0.04890
G1 X116.480 Y88.147 E0.04699
G1 X117.748 Y87.434 E0.04738
G1 X119.064 Y86.838 E0.04706
G1 X120.441 Y86.355 E0.04754
G1 X121.827 Y86.005 E0.04656
G1 X123.234 Y85.782 E0.04640
G1 X124.676 Y85.686 E0.04707
G1 X126.073 Y85.717 E0.04554
G1 X127.487 Y85.878 E0.04635
G1 X128.885 Y86.165 E0.04647
G1 X130.257 Y86.577 E0.04666
G1 X131.594 Y87.111 E0.04691
G1 X132.908 Y87.776 E0.04797
G1 X134.149 Y88.546 E0.04756
G1 X135.329 Y89.425 E0.04794
G1 X136.424 Y90.392 E0.04758
G1 X137.476 Y91.489 E0.04952
G1 X138.430 Y92.659 E0.04917
G1 X139.293 Y93.912 E0.04958
G1 X140.062 Y95.239 E0.04996
G1 X140.722 Y96.610 E0.04955
G1 X141.288 Y98.058 E0.05063
G1 X141.745 Y99.552 E0.05089
G1 X142.094 Y101.105 E0.05187
G1 X142.322 Y102.639 E0.05051
G1 X142.439 Y104.211 E0.05136
G1 X142.439 Y105.789 E0.05139
G1 X142.322 Y107.361 E0.05136
G1 X142.090 Y108.918 E0.05127
G1 X141.745 Y110.448 E0.05111
G1 X141.288 Y111.942 E0.05090
G1 X140.731 Y113.369 E0.04987
G1 X140.062 Y114.761 E0.05031
G1 X139.293 Y116.088 E0.04996
G1 X138.430 Y117.341 E0.04957
G1 X137.461 Y118.529 E0.04993
G1 X136.441 Y119.592 E0.04800
G1 X135.329 Y120.575 E0.04835
G1 X134.149 Y121.454 E0.04794
G1 X132.908 Y122.224 E0.04756
G1 X131.615 Y122.879 E0.04721
G1 X130.257 Y123.423 E0.04767
G1 X128.885 Y123.835 E0.04666
G1 X127.487 Y124.122 E0.04647
G1 X126.073 Y124.283 E0.04635
G1 X125.633 Y124.293 E0.01435
G1 X125.633 Y123.943 E0.01138
G1 X126.060 Y123.933 E0.01390
G1 X127.455 Y123.776 E0.04575
G1 X128.834 Y123.492 E0.04586
G1 X130.187 Y123.086 E0.04603
G1 X131.527 Y122.549 E0.04699
G1 X132.801 Y121.904 E0.04653
G1 X134.004 Y121.158 E0.04611
G1 X135.184 Y120.280 E0.04792
G1 X136.278 Y119.313 E0.04756
G1 X137.297 Y118.251 E0.04793
G1 X138.219 Y117.118 E0.04758
G1 X139.081 Y115.870 E0.04941
G1 X139.836 Y114.568 E0.04904
G1 X140.483 Y113.223 E0.04862
G1 X141.038 Y111.803 E0.04965
G1 X141.491 Y110.317 E0.05062
G1 X141.825 Y108.839 E0.04935
G1 X142.052 Y107.313 E0.05023
G1 X142.166 Y105.773 E0.05032
G1 X142.166 Y104.227 E0.05035
G1 X142.052 Y102.687 E0.05032
