; generated by Slic3r 1.33.8.devel on 2018-01-02 at 07:28:03

; 

; external perimeters extrusion width = 0.45mm
; perimeters extrusion width = 0.45mm
; infill extrusion width = 0.45mm
; solid infill extrusion width = 0.45mm
; top infill extrusion width = 0.40mm
; first layer extrusion width = 0.42mm

M107
M115 U3.0.12 ; tell printer latest fw version
M83  ; extruder relative mode
M104 S215 ; set extruder temp
M140 S55 ; set bed temp
M190 S55 ; wait for bed temp
M109 S215 ; wait for extruder temp
G28 W ; home all without mesh bed level
G80 ; mesh bed leveling
G1 Y-3.0 F1000.0 ; go outside pritn area
G1 X60.0 E9.0  F1000.0 ; intro line
G1 X100.0 E12.5  F1000.0 ; intro line
; Filament gcode

G21 ; set units to millimeters
G90 ; use absolute coordinates
M83 ; use relative distances for extrusion
G1 E-0.80000 F2100.00000
G1 Z0.200 F7200.000
G1 X93.287 Y73.352 F7200.000
G1 E0.80000 F2100.00000
M204 S1000
G1 F2100
G1 X94.055 Y72.819 E0.02812
G1 X94.972 Y72.623 E0.02823
G1 X155.004 Y72.623 E1.80574
G1 X155.895 Y72.798 E0.02733
G1 X156.659 Y73.297 E0.02744
G1 X157.178 Y74.048 E0.02744
G1 X157.376 Y74.938 E0.02744
G1 X157.377 Y135.027 E1.80746
G1 X157.201 Y135.899 E0.02677
G1 X156.713 Y136.648 E0.02688
G1 X155.935 Y137.185 E0.02845
G1 X155.005 Y137.377 E0.02856
G1 X94.973 Y137.377 E1.80574
G1 X94.101 Y137.201 E0.02677
G1 X93.352 Y136.713 E0.02688
G1 X92.815 Y135.935 E0.02845
G1 X92.623 Y135.005 E0.02856
G1 X92.623 Y74.973 E1.80574
G1 X92.799 Y74.101 E0.02677
G1 X93.254 Y73.402 E0.02507
G1 F5760
G1 X94.055 Y72.819 E-0.34307
G1 F5760
G1 X94.972 Y72.623 E-0.32503
G1 F5760
G1 X95.238 Y72.623 E-0.09190
G1 E-0.04000 F2100.00000
G1 X146.545 Y112.916 F7200.000
G1 E0.80000 F2100.00000
G1 F840
G1 X146.916 Y112.545 E0.01577
G1 X147.359 Y112.266 E0.01577
G1 X147.854 Y112.093 E0.01577
G1 X148.345 Y112.038 E0.01486
G1 X148.892 Y112.092 E0.01653
G1 X149.391 Y112.266 E0.01589
G1 X149.834 Y112.545 E0.01577
G1 X150.205 Y112.916 E0.01577
G1 X150.484 Y113.359 E0.01577
G1 X150.657 Y113.854 E0.01577
G1 X150.716 Y114.375 E0.01577
G1 X150.657 Y114.896 E0.01577
G1 X150.484 Y115.391 E0.01577
G1 X150.205 Y115.834 E0.01577
G1 X149.834 Y116.205 E0.01577
G1 X149.391 Y116.484 E0.01577
G1 X148.896 Y116.657 E0.01577
G1 X148.375 Y116.716 E0.01577
G1 X147.854 Y116.657 E0.01577
G1 X147.359 Y116.484 E0.01577
G1 X146.916 Y116.205 E0.01577
G1 X146.545 Y115.834 E0.01577
G1 X146.266 Y115.391 E0.01577
G1 X146.093 Y114.896 E0.01577
G1 X146.034 Y114.375 E0.01577
G1 X146.093 Y113.854 E0.01577
G1 X146.266 Y113.359 E0.01577
G1 X146.513 Y112.966 E0.01396
G1 X146.832 Y113.167 F7200.000
G1 F840
G1 X147.152 Y112.842 E0.01373
G1 X147.524 Y112.608 E0.01321
G1 X147.939 Y112.463 E0.01321
G1 X148.348 Y112.417 E0.01238
G1 X148.810 Y112.462 E0.01398
G1 X149.226 Y112.608 E0.01326
G1 X149.598 Y112.842 E0.01321
G1 X149.908 Y113.152 E0.01321
G1 X150.142 Y113.524 E0.01321
G1 X150.287 Y113.939 E0.01321
G1 X150.336 Y114.375 E0.01321
G1 X150.287 Y114.811 E0.01321
G1 X150.142 Y115.226 E0.01321
G1 X149.908 Y115.598 E0.01321
G1 X149.598 Y115.908 E0.01321
G1 X149.226 Y116.142 E0.01321
G1 X148.811 Y116.287 E0.01321
G1 X148.375 Y116.336 E0.01321
G1 X147.939 Y116.287 E0.01321
G1 X147.524 Y116.142 E0.01321
G1 X147.152 Y115.908 E0.01321
G1 X146.842 Y115.598 E0.01321
G1 X146.608 Y115.226 E0.01321
G1 X146.463 Y114.811 E0.01321
G1 X146.414 Y114.375 E0.01321
G1 X146.463 Y113.939 E0.01321
G1 X146.608 Y113.524 E0.01321
G1 X146.800 Y113.218 E0.01088
G1 X146.684 Y112.796 F7200.000
G1 F5760
G1 X147.152 Y112.842 E-0.17839
G1 F5760
G1 X147.524 Y112.608 E-0.15212
G1 F5760
G1 X147.939 Y112.463 E-0.15212
G1 F5760
G1 X148.348 Y112.417 E-0.14255
G1 F5760
G1 X148.735 Y112.455 E-0.13481
G1 E-0.04000 F2100.00000
G1 X148.375 Y97.966 F7200.000
G1 E0.80000 F2100.00000
G1 F840
G1 X147.854 Y97.907 E0.01577
G1 X147.359 Y97.734 E0.01577
G1 X146.916 Y97.455 E0.01577
G1 X146.545 Y97.084 E0.01577
G1 X146.266 Y96.641 E0.01577
G1 X146.093 Y96.146 E0.01577
G1 X146.034 Y95.625 E0.01577
G1 X146.093 Y95.104 E0.01577
G1 X146.266 Y94.609 E0.01577
G1 X146.545 Y94.166 E0.01577
G1 X146.916 Y93.795 E0.01577
G1 X147.359 Y93.516 E0.01577
G1 X147.854 Y93.343 E0.01577
G1 X148.345 Y93.288 E0.01486
G1 X148.892 Y93.342 E0.01653
G1 X149.391 Y93.516 E0.01589
G1 X149.834 Y93.795 E0.01577
G1 X150.205 Y94.166 E0.01577
G1 X150.484 Y94.609 E0.01577
G1 X150.657 Y95.104 E0.01577
G1 X150.716 Y95.625 E0.01577
G1 X150.657 Y96.146 E0.01577
G1 X150.483 Y96.645 E0.01589
G1 X150.184 Y97.106 E0.01654
G1 X149.834 Y97.455 E0.01486
G1 X149.391 Y97.734 E0.01577
G1 X148.896 Y97.907 E0.01577
G1 X148.435 Y97.959 E0.01396
G1 X148.392 Y97.584 F7200.000
G1 F840
G1 X147.939 Y97.537 E0.01372
G1 X147.524 Y97.392 E0.01321
G1 X147.152 Y97.158 E0.01321
G1 X146.842 Y96.848 E0.01321
G1 X146.608 Y96.476 E0.01321
G1 X146.463 Y96.061 E0.01321
G1 X146.414 Y95.625 E0.01321
G1 X146.463 Y95.189 E0.01321
G1 X146.608 Y94.774 E0.01321
G1 X146.842 Y94.402 E0.01321
G1 X147.152 Y94.092 E0.01321
G1 X147.524 Y93.858 E0.01321
G1 X147.939 Y93.713 E0.01321
G1 X148.348 Y93.667 E0.01238
G1 X148.810 Y93.712 E0.01398
G1 X149.226 Y93.858 E0.01326
G1 X149.598 Y94.092 E0.01321
G1 X149.908 Y94.402 E0.01321
G1 X150.142 Y94.774 E0.01321
G1 X150.287 Y95.189 E0.01321
G1 X150.336 Y95.625 E0.01321
G1 X150.287 Y96.061 E0.01321
G1 X150.142 Y96.477 E0.01326
G1 X149.889 Y96.867 E0.01398
G1 X149.598 Y97.158 E0.01238
G1 X149.226 Y97.392 E0.01321
G1 X148.811 Y97.537 E0.01321
G1 X148.452 Y97.578 E0.01088
G1 X148.195 Y97.932 F7200.000
G1 F5760
G1 X147.939 Y97.537 E-0.17838
G1 F5760
G1 X147.524 Y97.392 E-0.15212
G1 F5760
G1 X147.152 Y97.158 E-0.15212
G1 F5760
G1 X146.842 Y96.848 E-0.15212
G1 F5760
G1 X146.649 Y96.542 E-0.12527
G1 E-0.04000 F2100.00000
G1 X103.966 Y95.625 F7200.000
G1 E0.80000 F2100.00000
G1 F840
G1 X103.907 Y96.146 E0.01577
G1 X103.734 Y96.641 E0.01577
G1 X103.455 Y97.084 E0.01577
G1 X103.084 Y97.455 E0.01577
G1 X102.641 Y97.734 E0.01577
G1 X102.146 Y97.907 E0.01577
G1 X101.625 Y97.966 E0.01577
G1 X101.104 Y97.907 E0.01577
G1 X100.609 Y97.734 E0.01577
G1 X100.166 Y97.455 E0.01577
G1 X99.795 Y97.084 E0.01577
G1 X99.516 Y96.641 E0.01577
G1 X99.343 Y96.146 E0.01577
G1 X99.284 Y95.625 E0.01577
G1 X99.343 Y95.104 E0.01577
G1 X99.516 Y94.609 E0.01577
G1 X99.795 Y94.166 E0.01577
G1 X100.166 Y93.795 E0.01577
G1 X100.609 Y93.516 E0.01577
G1 X101.104 Y93.343 E0.01577
G1 X101.595 Y93.288 E0.01486
G1 X102.142 Y93.342 E0.01653
G1 X102.641 Y93.516 E0.01589
G1 X103.084 Y93.795 E0.01577
G1 X103.455 Y94.166 E0.01577
G1 X103.734 Y94.609 E0.01577
G1 X103.907 Y95.104 E0.01577
G1 X103.959 Y95.565 E0.01396
G1 X103.584 Y95.608 F7200.000
G1 F840
G1 X103.537 Y96.061 E0.01372
G1 X103.392 Y96.476 E0.01321
G1 X103.158 Y96.848 E0.01321
G1 X102.848 Y97.158 E0.01321
G1 X102.476 Y97.392 E0.01321
G1 X102.061 Y97.537 E0.01321
G1 X101.625 Y97.586 E0.01321
G1 X101.189 Y97.537 E0.01321
G1 X100.774 Y97.392 E0.01321
G1 X100.402 Y97.158 E0.01321
G1 X100.092 Y96.848 E0.01321
G1 X99.858 Y96.476 E0.01321
G1 X99.713 Y96.061 E0.01321
G1 X99.664 Y95.625 E0.01321
G1 X99.713 Y95.189 E0.01321
G1 X99.858 Y94.774 E0.01321
G1 X100.092 Y94.402 E0.01321
G1 X100.402 Y94.092 E0.01321
G1 X100.774 Y93.858 E0.01321
G1 X101.189 Y93.713 E0.01321
G1 X101.598 Y93.667 E0.01238
G1 X102.060 Y93.712 E0.01398
G1 X102.476 Y93.858 E0.01326
G1 X102.848 Y94.092 E0.01321
G1 X103.158 Y94.402 E0.01321
G1 X103.392 Y94.774 E0.01321
G1 X103.537 Y95.189 E0.01321
G1 X103.578 Y95.548 E0.01088
G1 X103.932 Y95.805 F7200.000
G1 F5760
G1 X103.537 Y96.061 E-0.17839
G1 F5760
G1 X103.392 Y96.476 E-0.15212
G1 F5760
G1 X103.158 Y96.848 E-0.15212
G1 F5760
G1 X102.848 Y97.158 E-0.15212
G1 F5760
G1 X102.542 Y97.351 E-0.12526
G1 E-0.04000 F2100.00000
G1 X102.142 Y112.092 F7200.000
G1 E0.80000 F2100.00000
G1 F840
G1 X102.641 Y112.266 E0.01589
G1 X103.084 Y112.545 E0.01577
G1 X103.455 Y112.916 E0.01577
G1 X103.734 Y113.359 E0.01577
G1 X103.907 Y113.854 E0.01577
G1 X103.966 Y114.375 E0.01577
G1 X103.907 Y114.896 E0.01577
G1 X103.734 Y115.391 E0.01577
G1 X103.455 Y115.834 E0.01577
G1 X103.084 Y116.205 E0.01577
G1 X102.641 Y116.484 E0.01577
G1 X102.146 Y116.657 E0.01577
G1 X101.625 Y116.716 E0.01577
G1 X101.104 Y116.657 E0.01577
G1 X100.605 Y116.483 E0.01589
G1 X100.144 Y116.184 E0.01654
G1 X99.795 Y115.834 E0.01486
G1 X99.516 Y115.391 E0.01577
G1 X99.343 Y114.896 E0.01577
G1 X99.284 Y114.375 E0.01577
G1 X99.343 Y113.854 E0.01577
G1 X99.516 Y113.359 E0.01577
G1 X99.795 Y112.916 E0.01577
G1 X100.166 Y112.545 E0.01577
G1 X100.609 Y112.266 E0.01577
G1 X101.104 Y112.093 E0.01577
G1 X101.595 Y112.038 E0.01486
G1 X102.082 Y112.086 E0.01473
G1 X102.045 Y112.461 F7200.000
G1 F840
G1 X102.476 Y112.608 E0.01369
G1 X102.848 Y112.842 E0.01321
G1 X103.158 Y113.152 E0.01321
G1 X103.392 Y113.524 E0.01321
G1 X103.537 Y113.939 E0.01321
G1 X103.586 Y114.375 E0.01321
G1 X103.537 Y114.811 E0.01321
G1 X103.392 Y115.226 E0.01321
G1 X103.158 Y115.598 E0.01321
G1 X102.848 Y115.908 E0.01321
G1 X102.476 Y116.142 E0.01321
G1 X102.061 Y116.287 E0.01321
G1 X101.625 Y116.336 E0.01321
G1 X101.189 Y116.287 E0.01321
G1 X100.773 Y116.142 E0.01326
G1 X100.383 Y115.889 E0.01398
G1 X100.092 Y115.598 E0.01238
G1 X99.858 Y115.226 E0.01321
G1 X99.713 Y114.811 E0.01321
G1 X99.664 Y114.375 E0.01321
G1 X99.713 Y113.939 E0.01321
G1 X99.858 Y113.524 E0.01321
G1 X100.092 Y113.152 E0.01321
G1 X100.402 Y112.842 E0.01321
G1 X100.774 Y112.608 E0.01321
G1 X101.189 Y112.463 E0.01321
G1 X101.598 Y112.417 E0.01238
G1 X101.986 Y112.455 E0.01173
G1 X102.316 Y112.166 F7200.000
G1 F5760
G1 X102.476 Y112.608 E-0.17794
G1 F5760
G1 X102.848 Y112.842 E-0.15212
G1 F5760
G1 X103.158 Y113.152 E-0.15212
G1 F5760
G1 X103.392 Y113.524 E-0.15212
G1 F5760
G1 X103.512 Y113.867 E-0.12571
G1 E-0.04000 F2100.00000
G1 X118.913 Y84.913 F7200.000
G1 E0.80000 F2100.00000
G1 F1680
G1 X118.913 Y92.252 E0.22077
G1 X118.608 Y92.392 E0.01008
G1 X117.602 Y92.955 E0.03469
G1 X116.644 Y93.598 E0.03469
G1 X115.743 Y94.317 E0.03469
G1 X114.903 Y95.107 E0.03469
G1 X114.130 Y95.963 E0.03469
G1 X113.430 Y96.879 E0.03469
G1 X112.806 Y97.849 E0.03469
G1 X112.264 Y98.867 E0.03469
G1 X111.806 Y99.925 E0.03469
G1 X111.437 Y101.017 E0.03469
G1 X111.157 Y102.136 E0.03469
G1 X110.970 Y103.274 E0.03469
G1 X110.876 Y104.423 E0.03469
G1 X110.876 Y105.577 E0.03469
G1 X110.970 Y106.726 E0.03469
G1 X111.157 Y107.864 E0.03469
G1 X111.437 Y108.983 E0.03469
G1 X111.806 Y110.075 E0.03469
G1 X112.258 Y111.119 E0.03423
G1 X112.806 Y112.151 E0.03514
G1 X113.430 Y113.121 E0.03470
G1 X114.130 Y114.037 E0.03469
G1 X114.903 Y114.893 E0.03469
G1 X115.743 Y115.683 E0.03469
G1 X116.644 Y116.402 E0.03469
G1 X117.602 Y117.045 E0.03469
G1 X118.595 Y117.601 E0.03423
G1 X119.657 Y118.087 E0.03513
G1 X120.742 Y118.479 E0.03470
G1 X121.854 Y118.782 E0.03469
G1 X122.988 Y118.992 E0.03469
G1 X124.135 Y119.109 E0.03469
G1 X125.288 Y119.133 E0.03469
G1 X126.439 Y119.062 E0.03469
G1 X127.581 Y118.898 E0.03469
G1 X128.705 Y118.642 E0.03469
G1 X129.790 Y118.299 E0.03423
G1 X130.872 Y117.859 E0.03514
G1 X131.901 Y117.337 E0.03470
G1 X132.884 Y116.733 E0.03470
G1 X133.825 Y116.042 E0.03514
G1 X134.685 Y115.297 E0.03423
G1 X135.492 Y114.473 E0.03469
G1 X136.229 Y113.586 E0.03469
G1 X136.892 Y112.643 E0.03469
G1 X137.475 Y111.648 E0.03469
G1 X137.976 Y110.609 E0.03469
G1 X138.390 Y109.532 E0.03469
G1 X138.718 Y108.411 E0.03514
G1 X138.948 Y107.297 E0.03423
G1 X139.089 Y106.152 E0.03469
G1 X139.136 Y105.000 E0.03469
G1 X139.089 Y103.848 E0.03469
G1 X138.948 Y102.703 E0.03469
G1 X138.715 Y101.574 E0.03469
G1 X138.390 Y100.467 E0.03469
G1 X137.976 Y99.391 E0.03468
G1 X137.475 Y98.352 E0.03469
G1 X136.892 Y97.357 E0.03469
G1 X136.229 Y96.414 E0.03469
G1 X135.492 Y95.527 E0.03469
G1 X134.685 Y94.703 E0.03469
G1 X133.814 Y93.948 E0.03469
G1 X132.883 Y93.266 E0.03469
G1 X131.901 Y92.663 E0.03469
G1 X130.870 Y92.141 E0.03475
G1 X130.087 Y91.827 E0.02537
G1 X130.087 Y84.913 E0.20799
G1 X125.987 Y84.913 E0.12333
G1 X125.987 Y75.587 E0.28052
G1 X154.413 Y75.587 E0.85505
G1 X154.413 Y134.413 E1.76947
G1 X147.513 Y134.413 E0.20754
G1 X146.568 Y132.775 E0.05689
G1 X145.086 Y131.130 E0.06659
G1 X143.295 Y129.828 E0.06660
G1 X141.273 Y128.928 E0.06660
G1 X139.107 Y128.468 E0.06660
G1 X136.893 Y128.468 E0.06660
G1 X134.727 Y128.928 E0.06660
G1 X132.705 Y129.828 E0.06660
G1 X130.914 Y131.130 E0.06660
G1 X129.432 Y132.775 E0.06659
G1 X128.487 Y134.413 E0.05689
G1 X121.513 Y134.413 E0.20976
G1 X120.568 Y132.775 E0.05689
G1 X119.086 Y131.130 E0.06659
G1 X117.295 Y129.828 E0.06660
G1 X115.273 Y128.928 E0.06660
G1 X113.107 Y128.468 E0.06660
G1 X110.893 Y128.468 E0.06660
G1 X108.727 Y128.928 E0.06660
G1 X106.705 Y129.828 E0.06660
G1 X104.914 Y131.130 E0.06660
G1 X103.432 Y132.775 E0.06659
G1 X102.487 Y134.413 E0.05689
G1 X95.587 Y134.413 E0.20754
G1 X95.587 Y75.587 E1.76947
G1 X124.413 Y75.587 E0.86708
G1 X124.413 Y84.913 E0.28052
G1 X118.973 Y84.913 E0.16363
G1 X119.290 Y85.290 F7200.000
G1 F1260
G1 X119.290 Y92.495 E0.21672
G1 X118.779 Y92.728 E0.01691
G1 X117.799 Y93.276 E0.03376
G1 X116.868 Y93.902 E0.03376
G1 X115.990 Y94.602 E0.03376
G1 X115.173 Y95.371 E0.03376
G1 X114.420 Y96.204 E0.03376
G1 X113.739 Y97.096 E0.03376
G1 X113.132 Y98.040 E0.03376
G1 X112.604 Y99.030 E0.03376
G1 X112.159 Y100.061 E0.03376
G1 X111.799 Y101.124 E0.03376
G1 X111.527 Y102.213 E0.03376
G1 X111.344 Y103.320 E0.03376
G1 X111.253 Y104.439 E0.03376
G1 X111.253 Y105.561 E0.03376
G1 X111.344 Y106.680 E0.03376
G1 X111.527 Y107.787 E0.03376
G1 X111.799 Y108.876 E0.03376
G1 X112.159 Y109.939 E0.03376
G1 X112.598 Y110.956 E0.03331
G1 X113.132 Y111.960 E0.03421
G1 X113.739 Y112.904 E0.03377
G1 X114.420 Y113.796 E0.03376
G1 X115.173 Y114.629 E0.03376
G1 X115.990 Y115.398 E0.03376
G1 X116.868 Y116.098 E0.03376
G1 X117.799 Y116.724 E0.03376
G1 X118.766 Y117.264 E0.03331
G1 X119.800 Y117.738 E0.03421
G1 X120.855 Y118.119 E0.03377
G1 X121.938 Y118.414 E0.03376
G1 X123.042 Y118.619 E0.03376
G1 X124.158 Y118.733 E0.03376
G1 X125.281 Y118.756 E0.03376
G1 X126.401 Y118.687 E0.03376
G1 X127.512 Y118.527 E0.03376
G1 X128.606 Y118.278 E0.03376
G1 X129.662 Y117.944 E0.03331
G1 X130.715 Y117.515 E0.03421
G1 X131.717 Y117.008 E0.03376
G1 X132.673 Y116.420 E0.03376
G1 X133.590 Y115.747 E0.03421
G1 X134.427 Y115.022 E0.03331
G1 X135.212 Y114.220 E0.03376
G1 X135.930 Y113.357 E0.03376
G1 X136.574 Y112.438 E0.03376
G1 X137.142 Y111.470 E0.03376
G1 X137.629 Y110.459 E0.03376
G1 X138.032 Y109.411 E0.03376
G1 X138.351 Y108.320 E0.03421
G1 X138.576 Y107.235 E0.03331
G1 X138.713 Y106.121 E0.03376
G1 X138.759 Y105.000 E0.03376
G1 X138.713 Y103.879 E0.03376
G1 X138.576 Y102.765 E0.03376
G1 X138.348 Y101.665 E0.03376
G1 X138.032 Y100.588 E0.03376
G1 X137.629 Y99.541 E0.03376
G1 X137.142 Y98.530 E0.03376
G1 X136.574 Y97.562 E0.03376
G1 X135.930 Y96.643 E0.03376
G1 X135.212 Y95.780 E0.03376
G1 X134.427 Y94.978 E0.03376
G1 X133.578 Y94.243 E0.03376
G1 X132.673 Y93.580 E0.03376
G1 X131.717 Y92.992 E0.03376
G1 X130.715 Y92.484 E0.03378
G1 X129.710 Y92.083 E0.03255
G1 X129.710 Y85.290 E0.20433
G1 X125.610 Y85.290 E0.12333
G1 X125.610 Y75.210 E0.30320
G1 X154.790 Y75.210 E0.87773
G1 X154.790 Y134.790 E1.79216
G1 X147.296 Y134.790 E0.22543
G1 X146.261 Y132.998 E0.06224
G1 X144.833 Y131.412 E0.06421
G1 X143.106 Y130.157 E0.06421
G1 X141.155 Y129.289 E0.06421
G1 X139.067 Y128.845 E0.06421
G1 X136.933 Y128.845 E0.06421
G1 X134.845 Y129.289 E0.06421
G1 X132.894 Y130.157 E0.06421
G1 X131.167 Y131.412 E0.06421
G1 X129.739 Y132.998 E0.06421
G1 X128.704 Y134.790 E0.06224
G1 X121.296 Y134.790 E0.22285
G1 X120.261 Y132.998 E0.06224
G1 X118.833 Y131.412 E0.06421
G1 X117.106 Y130.157 E0.06421
G1 X115.155 Y129.289 E0.06421
G1 X113.067 Y128.845 E0.06421
G1 X110.933 Y128.845 E0.06421
G1 X108.845 Y129.289 E0.06421
G1 X106.894 Y130.157 E0.06421
G1 X105.167 Y131.412 E0.06421
G1 X103.739 Y132.998 E0.06421
G1 X102.704 Y134.790 E0.06224
G1 X95.210 Y134.790 E0.22543
G1 X95.210 Y75.210 E1.79216
G1 X124.790 Y75.210 E0.88976
G1 X124.790 Y85.290 E0.30320
G1 X119.350 Y85.290 E0.16363
G1 X118.915 Y85.430 F7200.000
G1 F5760
G1 X119.332 Y87.484 E-0.76000
G1 E-0.04000 F2100.00000
G1 X126.755 Y84.800 F7200.000
