; generated by Slic3r 1.33.8.devel on 2017-12-29 at 14:57:21

; 

; external perimeters extrusion width = 0.45mm
; perimeters extrusion width = 0.45mm
; infill extrusion width = 0.45mm
; solid infill extrusion width = 0.45mm
; top infill extrusion width = 0.40mm
; first layer extrusion width = 0.42mm

M107
M115 U3.0.12 ; tell printer latest fw version
M83  ; extruder relative mode
M104 S215 ; set extruder temp
M140 S55 ; set bed temp
M190 S55 ; wait for bed temp
M109 S215 ; wait for extruder temp
G28 W ; home all without mesh bed level
G80 ; mesh bed leveling
G1 Y-3.0 F1000.0 ; go outside pritn area
G1 X60.0 E9.0  F1000.0 ; intro line
G1 X100.0 E12.5  F1000.0 ; intro line
; Filament gcode

G21 ; set units to millimeters
G90 ; use absolute coordinates
M83 ; use relative distances for extrusion
G1 E-0.80000 F2100.00000
G1 Z0.200 F7200.000
G1 X74.357 Y78.282 F7200.000
G1 E0.80000 F2100.00000
M204 S1000
G1 F2100
G1 X74.863 Y77.913 E0.01885
G1 X75.407 Y77.698 E0.01760
G1 X75.991 Y77.623 E0.01771
G1 X172.004 Y77.623 E2.88804
G1 X172.930 Y77.813 E0.02845
G1 X173.710 Y78.349 E0.02845
G1 X175.954 Y81.458 E0.11536
G1 X176.235 Y82.002 E0.01840
G1 X176.377 Y82.777 E0.02372
G1 X176.344 Y89.587 E0.20482
G1 X174.054 Y99.349 E0.30161
G1 X163.846 Y130.778 E0.99399
G1 X163.413 Y131.538 E0.02632
G1 X162.737 Y132.087 E0.02620
G1 X162.193 Y132.302 E0.01760
G1 X161.609 Y132.377 E0.01771
G1 X75.973 Y132.377 E2.57590
G1 X75.353 Y132.287 E0.01885
G1 X74.775 Y132.037 E0.01896
G1 X74.285 Y131.646 E0.01885
G1 X73.913 Y131.137 E0.01896
G1 X73.698 Y130.593 E0.01760
G1 X73.623 Y130.013 E0.01760
G1 X73.623 Y79.958 E1.50563
G1 X73.716 Y79.342 E0.01874
G1 X73.967 Y78.768 E0.01885
G1 X74.319 Y78.329 E0.01693
G1 F5760
G1 X74.863 Y77.913 E-0.23717
G1 F5760
G1 X75.407 Y77.698 E-0.20265
G1 F5760
G1 X75.991 Y77.623 E-0.20396
G1 F5760
G1 X76.327 Y77.623 E-0.11622
G1 E-0.04000 F2100.00000
G1 X118.187 Y80.587 F7200.000
G1 E0.80000 F2100.00000
G1 F1680
G1 X119.663 Y80.587 E0.04439
G1 X119.663 Y95.511 E0.44891
G1 X119.496 Y96.123 E0.01907
G1 X119.421 Y96.706 E0.01769
G1 X119.421 Y97.294 E0.01769
G1 X119.496 Y97.873 E0.01756
G1 X119.645 Y98.446 E0.01780
G1 X119.866 Y98.991 E0.01769
G1 X120.155 Y99.503 E0.01769
G1 X120.506 Y99.974 E0.01769
G1 X120.915 Y100.397 E0.01769
G1 X121.375 Y100.763 E0.01769
G1 X121.878 Y101.068 E0.01769
G1 X122.415 Y101.306 E0.01769
G1 X122.979 Y101.473 E0.01769
G1 X123.559 Y101.567 E0.01769
G1 X124.147 Y101.586 E0.01769
G1 X124.732 Y101.529 E0.01769
G1 X125.306 Y101.399 E0.01769
G1 X125.861 Y101.194 E0.01780
G1 X126.379 Y100.924 E0.01756
G1 X126.861 Y100.587 E0.01769
G1 X127.296 Y100.192 E0.01769
G1 X127.677 Y99.744 E0.01769
G1 X127.998 Y99.252 E0.01769
G1 X128.253 Y98.722 E0.01769
G1 X128.438 Y98.164 E0.01769
G1 X128.551 Y97.587 E0.01769
G1 X128.588 Y97.000 E0.01769
G1 X128.551 Y96.413 E0.01769
G1 X128.438 Y95.836 E0.01769
G1 X128.337 Y95.532 E0.00966
G1 X128.337 Y80.587 E0.44953
G1 X129.813 Y80.587 E0.04439
G1 X129.813 Y83.629 E0.09151
G1 X131.813 Y83.629 E0.06016
G1 X131.813 Y88.371 E0.14262
G1 X129.813 Y88.371 E0.06016
G1 X129.813 Y96.981 E0.25900
G1 X129.764 Y97.743 E0.02297
G1 X129.622 Y98.474 E0.02240
G1 X129.387 Y99.181 E0.02240
G1 X129.064 Y99.852 E0.02240
G1 X128.658 Y100.476 E0.02240
G1 X128.175 Y101.043 E0.02240
G1 X127.624 Y101.544 E0.02240
G1 X127.013 Y101.970 E0.02240
G1 X126.352 Y102.314 E0.02240
G1 X125.654 Y102.571 E0.02240
G1 X124.928 Y102.737 E0.02240
G1 X124.186 Y102.809 E0.02240
G1 X123.442 Y102.785 E0.02240
G1 X122.707 Y102.666 E0.02240
G1 X121.993 Y102.454 E0.02240
G1 X121.312 Y102.153 E0.02240
G1 X120.675 Y101.767 E0.02240
G1 X119.413 Y100.760 E0.04856
G1 X119.413 Y129.413 E0.86187
G1 X118.187 Y129.413 E0.03687
G1 X118.187 Y80.647 E1.46687
G1 F5760
G1 X119.663 Y80.587 E-0.51159
G1 F5760
G1 X119.663 Y81.304 E-0.24841
G1 E-0.04000 F2100.00000
G1 X130.190 Y83.252 F7200.000
G1 E0.80000 F2100.00000
G1 F1260
G1 X132.190 Y83.252 E0.06016
G1 X132.190 Y88.748 E0.16530
G1 X130.190 Y88.748 E0.06016
G1 X130.190 Y96.993 E0.24802
G1 X130.139 Y97.792 E0.02406
G1 X129.987 Y98.570 E0.02386
G1 X129.737 Y99.323 E0.02386
G1 X129.393 Y100.037 E0.02386
G1 X128.960 Y100.702 E0.02386
G1 X128.446 Y101.306 E0.02386
G1 X127.859 Y101.839 E0.02386
G1 X127.209 Y102.293 E0.02386
G1 X126.505 Y102.660 E0.02386
G1 X125.761 Y102.934 E0.02386
G1 X124.988 Y103.110 E0.02386
G1 X124.198 Y103.186 E0.02386
G1 X123.406 Y103.161 E0.02386
G1 X122.623 Y103.034 E0.02386
G1 X121.862 Y102.809 E0.02386
G1 X121.137 Y102.488 E0.02386
G1 X120.459 Y102.077 E0.02386
G1 X119.790 Y101.543 E0.02573
G1 X119.790 Y129.790 E0.84966
G1 X117.810 Y129.790 E0.05956
G1 X117.810 Y80.210 E1.49136
G1 X120.040 Y80.210 E0.06708
G1 X120.040 Y95.585 E0.46246
G1 X119.867 Y96.195 E0.01909
G1 X119.798 Y96.730 E0.01623
G1 X119.798 Y97.270 E0.01623
G1 X119.867 Y97.801 E0.01611
G1 X120.004 Y98.327 E0.01635
G1 X120.207 Y98.827 E0.01623
G1 X120.471 Y99.297 E0.01623
G1 X120.794 Y99.729 E0.01623
G1 X121.169 Y100.117 E0.01623
G1 X121.591 Y100.453 E0.01623
G1 X122.053 Y100.733 E0.01623
G1 X122.546 Y100.951 E0.01623
G1 X123.063 Y101.105 E0.01623
G1 X123.596 Y101.191 E0.01623
G1 X124.135 Y101.208 E0.01623
G1 X124.672 Y101.156 E0.01623
G1 X125.198 Y101.036 E0.01623
G1 X125.708 Y100.848 E0.01635
G1 X126.183 Y100.601 E0.01611
G1 X126.625 Y100.292 E0.01623
G1 X127.025 Y99.929 E0.01623
G1 X127.374 Y99.518 E0.01623
G1 X127.669 Y99.066 E0.01623
G1 X127.903 Y98.580 E0.01623
G1 X128.073 Y98.068 E0.01623
G1 X128.176 Y97.538 E0.01623
G1 X128.210 Y97.000 E0.01623
G1 X128.176 Y96.462 E0.01623
G1 X128.073 Y95.932 E0.01623
G1 X127.960 Y95.592 E0.01076
G1 X127.960 Y80.210 E0.46270
G1 X130.190 Y80.210 E0.06708
G1 X130.190 Y83.192 E0.08971
G1 X130.274 Y83.643 F7200.000
G1 X130.902 Y83.742 F7200.000
G1 F1680
G1 X131.530 Y84.370 E0.02687
G1 X131.530 Y84.907 E0.01623
G1 X130.536 Y83.912 E0.04256
G1 X129.999 Y83.912 E0.01623
G1 X131.530 Y85.443 E0.06552
G1 X131.530 Y85.979 E0.01623
G1 X128.620 Y83.069 E0.12455
G1 X128.620 Y82.533 E0.01623
G1 X129.530 Y83.443 E0.03896
G1 X129.530 Y82.907 E0.01623
G1 X128.620 Y81.996 E0.03896
G1 X128.620 Y81.460 E0.01623
G1 X129.530 Y82.370 E0.03896
G1 X129.530 Y81.834 E0.01623
G1 X128.620 Y80.924 E0.03896
G1 X128.620 Y80.870 E0.00162
G1 X129.103 Y80.870 E0.01461
G1 X129.700 Y81.467 E0.02556
G1 F5760
G1 X129.103 Y80.870 E-0.29254
G1 F5760
G1 X128.620 Y80.870 E-0.16719
G1 F5760
G1 X128.620 Y80.924 E-0.01859
G1 F5760
G1 X129.195 Y81.499 E-0.28168
G1 E-0.04000 F2100.00000
G1 X131.700 Y86.685 F7200.000
G1 E0.80000 F2100.00000
G1 F1680
G1 X128.620 Y83.605 E0.13182
G1 X128.620 Y84.142 E0.01623
G1 X131.530 Y87.052 E0.12455
G1 X131.530 Y87.588 E0.01623
G1 X128.620 Y84.678 E0.12455
G1 X128.620 Y85.215 E0.01623
G1 X131.493 Y88.088 E0.12297
G1 X130.957 Y88.088 E0.01623
G1 X128.620 Y85.751 E0.10001
G1 X128.620 Y86.287 E0.01623
G1 X130.420 Y88.088 E0.07706
G1 X129.884 Y88.088 E0.01623
G1 X128.620 Y86.824 E0.05410
G1 X128.620 Y87.360 E0.01623
G1 X129.530 Y88.270 E0.03896
G1 X129.530 Y88.807 E0.01623
G1 X128.620 Y87.896 E0.03896
G1 X128.620 Y88.433 E0.01623
G1 X129.530 Y89.343 E0.03896
G1 X129.530 Y89.880 E0.01623
G1 X128.620 Y88.969 E0.03896
G1 X128.620 Y89.506 E0.01623
G1 X129.530 Y90.416 E0.03896
G1 X129.530 Y90.952 E0.01623
G1 X128.620 Y90.042 E0.03896
G1 X128.620 Y90.578 E0.01623
G1 X129.530 Y91.489 E0.03896
G1 X129.530 Y92.025 E0.01623
G1 X128.620 Y91.115 E0.03896
G1 X128.620 Y91.651 E0.01623
G1 X129.530 Y92.561 E0.03896
G1 X129.530 Y93.098 E0.01623
G1 X128.620 Y92.188 E0.03896
G1 X128.620 Y92.724 E0.01623
G1 X129.530 Y93.634 E0.03896
G1 X129.530 Y94.171 E0.01623
G1 X128.620 Y93.260 E0.03896
G1 X128.620 Y93.797 E0.01623
G1 X129.530 Y94.707 E0.03896
G1 X129.530 Y95.243 E0.01623
G1 X128.620 Y94.333 E0.03896
G1 X128.620 Y94.869 E0.01623
G1 X129.530 Y95.780 E0.03896
G1 X129.530 Y96.316 E0.01623
G1 X128.620 Y95.406 E0.03896
G1 X128.620 Y95.486 E0.00242
G1 X128.712 Y95.764 E0.00888
G1 X128.778 Y96.100 E0.01035
G1 X129.530 Y96.852 E0.03220
G1 X129.505 Y97.364 E0.01549
G1 X128.853 Y96.712 E0.02790
G1 X128.872 Y97.000 E0.00874
G1 X128.856 Y97.251 E0.00760
G1 X129.455 Y97.850 E0.02566
G1 X129.368 Y98.299 E0.01384
G1 X128.809 Y97.740 E0.02392
G1 X128.721 Y98.189 E0.01384
G1 X129.245 Y98.712 E0.02239
G1 X129.107 Y99.111 E0.01276
G1 X128.592 Y98.597 E0.02201
G1 X128.516 Y98.828 E0.00738
G1 X128.441 Y98.982 E0.00517
G1 X128.932 Y99.473 E0.02101
G1 X128.746 Y99.823 E0.01199
G1 X128.267 Y99.344 E0.02047
G1 X128.060 Y99.674 E0.01178
G1 X128.534 Y100.147 E0.02027
G1 X128.305 Y100.454 E0.01160
G1 X127.840 Y99.989 E0.01990
G1 X127.593 Y100.279 E0.01151
G1 X128.058 Y100.744 E0.01990
G1 X127.971 Y100.846 E0.00405
G1 X127.789 Y101.012 E0.00745
G1 X127.325 Y100.548 E0.01986
G1 X127.044 Y100.803 E0.01149
G1 X127.508 Y101.267 E0.01985
G1 X127.447 Y101.322 E0.00250
G1 X127.200 Y101.495 E0.00913
G1 X126.729 Y101.024 E0.02014
G1 X126.400 Y101.231 E0.01177
G1 X126.884 Y101.715 E0.02070
G1 X126.866 Y101.728 E0.00065
G1 X126.533 Y101.901 E0.01136
G1 X126.047 Y101.415 E0.02079
G1 X125.664 Y101.568 E0.01250
G1 X126.174 Y102.079 E0.02185
G1 X125.782 Y102.223 E0.01264
G1 X125.259 Y101.699 E0.02240
G1 X124.822 Y101.799 E0.01356
G1 X125.369 Y102.346 E0.02342
G1 X124.932 Y102.446 E0.01356
G1 X124.338 Y101.852 E0.02544
G1 X124.156 Y101.869 E0.00553
G1 X123.808 Y101.858 E0.01054
G1 X124.449 Y102.499 E0.02744
G1 X124.177 Y102.526 E0.00827
G1 X123.931 Y102.518 E0.00744
G1 X123.211 Y101.797 E0.03083
G1 X122.916 Y101.750 E0.00904
G1 X122.505 Y101.627 E0.01298
G1 X123.363 Y102.486 E0.03673
G1 X122.714 Y102.373 E0.01993
G1 X118.470 Y98.129 E0.18165
G1 X118.470 Y97.593 E0.01623
G1 X119.364 Y98.486 E0.03826
G1 X119.218 Y97.927 E0.01750
G1 X119.199 Y97.786 E0.00431
G1 X118.470 Y97.056 E0.03122
G1 X118.470 Y96.520 E0.01623
G1 X119.138 Y97.188 E0.02861
G1 X119.142 Y96.656 E0.01611
G1 X118.470 Y95.983 E0.02879
G1 X118.470 Y95.447 E0.01623
G1 X119.204 Y96.181 E0.03141
G1 X119.306 Y95.747 E0.01350
G1 X118.470 Y94.911 E0.03577
G1 X118.470 Y94.374 E0.01623
G1 X119.380 Y95.285 E0.03896
G1 X119.380 Y94.748 E0.01623
G1 X118.470 Y93.838 E0.03896
G1 X118.470 Y93.302 E0.01623
G1 X119.380 Y94.212 E0.03896
G1 X119.380 Y93.675 E0.01623
G1 X118.470 Y92.765 E0.03896
G1 X118.470 Y92.229 E0.01623
G1 X119.380 Y93.139 E0.03896
G1 X119.380 Y92.603 E0.01623
G1 X118.470 Y91.692 E0.03896
G1 X118.470 Y91.156 E0.01623
G1 X119.380 Y92.066 E0.03896
G1 X119.380 Y91.530 E0.01623
G1 X118.470 Y90.620 E0.03896
G1 X118.470 Y90.083 E0.01623
G1 X119.380 Y90.993 E0.03896
G1 X119.380 Y90.457 E0.01623
G1 X118.470 Y89.547 E0.03896
G1 X118.470 Y89.010 E0.01623
G1 X119.380 Y89.921 E0.03896
G1 X119.380 Y89.384 E0.01623
G1 X118.470 Y88.474 E0.03896
G1 X118.470 Y87.938 E0.01623
G1 X119.380 Y88.848 E0.03896
G1 X119.380 Y88.312 E0.01623
G1 X118.470 Y87.401 E0.03896
G1 X118.470 Y86.865 E0.01623
G1 X119.380 Y87.775 E0.03896
G1 X119.380 Y87.239 E0.01623
G1 X118.470 Y86.329 E0.03896
G1 X118.470 Y85.792 E0.01623
G1 X119.380 Y86.702 E0.03896
G1 X119.380 Y86.166 E0.01623
G1 X118.470 Y85.256 E0.03896
G1 X118.470 Y84.719 E0.01623
G1 X119.380 Y85.630 E0.03896
G1 X119.380 Y85.093 E0.01623
G1 X118.470 Y84.183 E0.03896
G1 X118.470 Y83.647 E0.01623
G1 X119.380 Y84.557 E0.03896
G1 X119.380 Y84.021 E0.01623
G1 X118.470 Y83.110 E0.03896
G1 X118.470 Y82.574 E0.01623
G1 X119.380 Y83.484 E0.03896
G1 X119.380 Y82.948 E0.01623
G1 X118.470 Y82.038 E0.03896
G1 X118.470 Y81.501 E0.01623
G1 X119.380 Y82.411 E0.03896
G1 X119.380 Y81.875 E0.01623
G1 X118.470 Y80.965 E0.03896
G1 X118.470 Y80.870 E0.00287
G1 X118.911 Y80.870 E0.01336
G1 X119.550 Y81.508 E0.02733
G1 F5760
G1 X118.911 Y80.870 E-0.31274
G1 F5760
G1 X118.470 Y80.870 E-0.15291
G1 F5760
G1 X118.470 Y80.965 E-0.03287
G1 F5760
G1 X119.004 Y81.499 E-0.26149
G1 E-0.04000 F2100.00000
G1 X119.300 Y100.568 F7200.000
G1 E0.80000 F2100.00000
G1 F1680
G1 X118.470 Y99.738 E0.03552
G1 X118.470 Y100.274 E0.01623
G1 X119.130 Y100.935 E0.02826
G1 X119.130 Y101.471 E0.01623
G1 X118.470 Y100.811 E0.02826
G1 X118.470 Y101.347 E0.01623
G1 X119.130 Y102.007 E0.02826
G1 X119.130 Y102.544 E0.01623
G1 X118.470 Y101.884 E0.02826
G1 X118.470 Y102.420 E0.01623
G1 X119.130 Y103.080 E0.02826
G1 X119.130 Y103.617 E0.01623
G1 X118.470 Y102.956 E0.02826
G1 X118.470 Y103.493 E0.01623
G1 X119.130 Y104.153 E0.02826
G1 X119.130 Y104.689 E0.01623
G1 X118.470 Y104.029 E0.02826
G1 X118.470 Y104.565 E0.01623
G1 X119.130 Y105.226 E0.02826
G1 X119.130 Y105.762 E0.01623
G1 X118.470 Y105.102 E0.02826
G1 X118.470 Y105.638 E0.01623
G1 X119.130 Y106.299 E0.02826
G1 X119.130 Y106.835 E0.01623
G1 X118.470 Y106.175 E0.02826
G1 X118.470 Y106.711 E0.01623
G1 X119.130 Y107.371 E0.02826
G1 X119.130 Y107.908 E0.01623
G1 X118.470 Y107.247 E0.02826
G1 X118.470 Y107.784 E0.01623
G1 X119.130 Y108.444 E0.02826
G1 X119.130 Y108.980 E0.01623
G1 X118.470 Y108.320 E0.02826
G1 X118.470 Y108.857 E0.01623
G1 X119.130 Y109.517 E0.02826
G1 X119.130 Y110.053 E0.01623
G1 X118.470 Y109.393 E0.02826
G1 X118.470 Y109.929 E0.01623
G1 X119.130 Y110.590 E0.02826
G1 X119.130 Y111.126 E0.01623
G1 X118.470 Y110.466 E0.02826
G1 X118.470 Y111.002 E0.01623
G1 X119.130 Y111.662 E0.02826
G1 X119.130 Y112.199 E0.01623
G1 X118.470 Y111.538 E0.02826
G1 X118.470 Y112.075 E0.01623
G1 X119.130 Y112.735 E0.02826
G1 X119.130 Y113.271 E0.01623
G1 X118.470 Y112.611 E0.02826
G1 X118.470 Y113.148 E0.01623
G1 X119.130 Y113.808 E0.02826
G1 X119.130 Y114.344 E0.01623
G1 X118.470 Y113.684 E0.02826
G1 X118.470 Y114.220 E0.01623
G1 X119.130 Y114.881 E0.02826
G1 X119.130 Y115.417 E0.01623
G1 X118.470 Y114.757 E0.02826
G1 X118.470 Y115.293 E0.01623
G1 X119.130 Y115.953 E0.02826
G1 X119.130 Y116.490 E0.01623
G1 X118.470 Y115.829 E0.02826
G1 X118.470 Y116.366 E0.01623
G1 X119.130 Y117.026 E0.02826
G1 X119.130 Y117.562 E0.01623
G1 X118.470 Y116.902 E0.02826
G1 X118.470 Y117.439 E0.01623
G1 X119.130 Y118.099 E0.02826
G1 X119.130 Y118.635 E0.01623
G1 X118.470 Y117.975 E0.02826
G1 X118.470 Y118.511 E0.01623
G1 X119.130 Y119.172 E0.02826
G1 X119.130 Y119.708 E0.01623
G1 X118.470 Y119.048 E0.02826
G1 X118.470 Y119.584 E0.01623
G1 X119.130 Y120.244 E0.02826
G1 X119.130 Y120.781 E0.01623
G1 X118.470 Y120.121 E0.02826
G1 X118.470 Y120.657 E0.01623
G1 X119.130 Y121.317 E0.02826
G1 X119.130 Y121.854 E0.01623
G1 X118.470 Y121.193 E0.02826
G1 X118.470 Y121.730 E0.01623
G1 X119.130 Y122.390 E0.02826
G1 X119.130 Y122.926 E0.01623
G1 X118.470 Y122.266 E0.02826
G1 X118.470 Y122.802 E0.01623
G1 X119.130 Y123.463 E0.02826
G1 X119.130 Y123.999 E0.01623
G1 X118.470 Y123.339 E0.02826
G1 X118.470 Y123.875 E0.01623
G1 X119.130 Y124.535 E0.02826
G1 X119.130 Y125.072 E0.01623
G1 X118.470 Y124.412 E0.02826
G1 X118.470 Y124.948 E0.01623
G1 X119.130 Y125.608 E0.02826
G1 X119.130 Y126.145 E0.01623
G1 X118.470 Y125.484 E0.02826
G1 X118.470 Y126.021 E0.01623
G1 X119.130 Y126.681 E0.02826
G1 X119.130 Y127.217 E0.01623
G1 X118.470 Y126.557 E0.02826
G1 X118.470 Y127.093 E0.01623
G1 X119.130 Y127.754 E0.02826
G1 X119.130 Y128.290 E0.01623
G1 X118.470 Y127.630 E0.02826
G1 X118.470 Y128.166 E0.01623
G1 X119.130 Y128.826 E0.02826
G1 X119.130 Y129.130 E0.00919
G1 X118.897 Y129.130 E0.00704
G1 X118.300 Y128.533 E0.02556
G1 F5760
G1 X118.897 Y129.130 E-0.29253
G1 F5760
G1 X119.130 Y129.130 E-0.08061
G1 F5760
G1 X119.130 Y128.826 E-0.10517
G1 F5760
G1 X118.555 Y128.251 E-0.28169
G1 E-0.04000 F2100.00000
G1 X122.203 Y102.399 F7200.000
G1 E0.80000 F2100.00000
G1 F1680
G1 X118.470 Y98.665 E0.15977
G1 X118.470 Y99.202 E0.01623
G1 X121.253 Y101.985 E0.11910
G1 F5760
G1 X119.701 Y100.433 E-0.76000
G1 E-0.04000 F2100.00000
G1 X150.613 Y83.629 F7200.000
G1 E0.80000 F2100.00000
G1 F1680
G1 X152.613 Y83.629 E0.06016
G1 X152.613 Y88.371 E0.14262
G1 X150.613 Y88.371 E0.06016
G1 X150.613 Y96.981 E0.25900
G1 X150.564 Y97.743 E0.02297
G1 X150.422 Y98.474 E0.02240
G1 X150.187 Y99.181 E0.02240
G1 X149.864 Y99.852 E0.02240
G1 X149.458 Y100.476 E0.02240
G1 X148.975 Y101.043 E0.02240
G1 X148.424 Y101.544 E0.02240
G1 X147.813 Y101.970 E0.02240
G1 X147.152 Y102.314 E0.02240
G1 X146.454 Y102.571 E0.02240
G1 X145.728 Y102.737 E0.02240
G1 X144.986 Y102.809 E0.02240
G1 X144.242 Y102.785 E0.02240
