; generated by Slic3r 1.33.8.devel on 2017-12-14 at 13:35:18

; 

; external perimeters extrusion width = 0.45mm
; perimeters extrusion width = 0.45mm
; infill extrusion width = 0.45mm
; solid infill extrusion width = 0.45mm
; top infill extrusion width = 0.45mm
; first layer extrusion width = 0.42mm

M107
M115 U3.0.12 ; tell printer latest fw version
M83  ; extruder relative mode
M104 S215 ; set extruder temp
M140 S55 ; set bed temp
M190 S55 ; wait for bed temp
M109 S215 ; wait for extruder temp
G28 W ; home all without mesh bed level
G80 ; mesh bed leveling
G1 Y-3.0 F1000.0 ; go outside pritn area
G1 X60.0 E9.0  F1000.0 ; intro line
G1 X100.0 E12.5  F1000.0 ; intro line
; Filament gcode

G21 ; set units to millimeters
G90 ; use absolute coordinates
M83 ; use relative distances for extrusion
G1 E-0.80000 F2100.00000
G1 Z0.200 F7200.000
G1 X109.500 Y73.200 F7200.000
G1 E0.80000 F2100.00000
M204 S1000
G1 F2100
G1 X110.368 Y73.023 E0.02665
G1 X157.204 Y73.023 E1.40881
G1 X158.067 Y73.187 E0.02643
G1 X158.815 Y73.655 E0.02654
G1 X159.340 Y74.364 E0.02654
G1 X159.570 Y75.216 E0.02654
G1 X159.577 Y102.004 E0.80577
G1 X159.505 Y102.581 E0.01749
G1 X159.293 Y103.126 E0.01760
G1 X141.690 Y135.733 E1.11461
G1 X141.243 Y136.318 E0.02214
G1 X140.500 Y136.800 E0.02665
G1 X139.632 Y136.977 E0.02665
G1 X92.796 Y136.977 E1.40881
G1 X91.862 Y136.784 E0.02868
G1 X91.082 Y136.243 E0.02856
G1 X90.603 Y135.507 E0.02643
G1 X90.423 Y134.647 E0.02643
G1 X90.423 Y107.992 E0.80176
G1 X90.513 Y107.353 E0.01942
G1 X90.707 Y106.874 E0.01555
G1 X108.310 Y74.267 E1.11461
G1 X108.757 Y73.682 E0.02214
G1 X109.450 Y73.233 E0.02485
G1 F5760
G1 X110.368 Y73.023 E-0.32633
G1 F5760
G1 X111.620 Y73.023 E-0.43367
G1 E-0.04000 F2100.00000
G1 X111.113 Y118.713 F7200.000
G1 E0.80000 F2100.00000
G1 F840
G1 X121.287 Y118.713 E0.30604
G1 X121.287 Y128.887 E0.30604
G1 X111.113 Y128.887 E0.30604
G1 X111.113 Y118.773 E0.30423
G1 X111.490 Y119.090 F7200.000
G1 F840
G1 X120.910 Y119.090 E0.28335
G1 X120.910 Y128.510 E0.28335
G1 X111.490 Y128.510 E0.28335
G1 X111.490 Y119.150 E0.28155
G1 X111.386 Y118.704 F7200.000
G1 X111.490 Y118.336 F7200.000
G1 F840
G1 X111.364 Y118.336 E0.00379
G1 X111.364 Y108.964 E0.28190
G1 X121.036 Y108.964 E0.29092
G1 X121.036 Y118.336 E0.28190
G1 X111.550 Y118.336 E0.28533
G1 F5760
G1 X111.364 Y118.336 E-0.06437
G1 F5760
G1 X111.364 Y116.327 E-0.69563
G1 E-0.04000 F2100.00000
G1 X111.550 Y129.264 F7200.000
G1 E0.80000 F2100.00000
G1 F840
G1 X121.036 Y129.264 E0.28533
G1 X121.036 Y133.636 E0.13150
G1 X111.364 Y133.636 E0.29092
G1 X111.364 Y129.264 E0.13150
G1 X111.490 Y129.264 E0.00379
G1 F5760
G1 X113.684 Y129.264 E-0.76000
G1 E-0.04000 F2100.00000
G1 X110.987 Y134.013 F7200.000
G1 E0.80000 F2100.00000
G1 F1680
G1 X110.987 Y108.587 E0.76481
G1 X121.413 Y108.587 E0.31361
G1 X121.413 Y134.013 E0.76481
G1 X111.047 Y134.013 E0.31180
G1 X110.610 Y134.390 F7200.000
G1 F1050
G1 X110.610 Y108.210 E0.78749
G1 X121.790 Y108.210 E0.33629
G1 X121.790 Y134.390 E0.78749
G1 X110.670 Y134.390 E0.33449
G1 X110.664 Y133.994 F7200.000
G1 F5760
G1 X110.665 Y132.196 E-0.76000
G1 E-0.04000 F2100.00000
G1 X111.477 Y132.741 F7200.000
G1 E0.80000 F2100.00000
G1 F1680
G1 X112.090 Y133.353 E0.02674
G1 X112.636 Y133.353 E0.01687
G1 X111.647 Y132.364 E0.04319
G1 X111.647 Y131.817 E0.01687
G1 X113.183 Y133.353 E0.06706
G1 X113.730 Y133.353 E0.01687
G1 X111.647 Y131.270 E0.09092
G1 X111.647 Y130.724 E0.01687
G1 X114.276 Y133.353 E0.11478
G1 X114.823 Y133.353 E0.01687
G1 X111.647 Y130.177 E0.13864
G1 X111.647 Y129.630 E0.01687
G1 X115.370 Y133.353 E0.16251
G1 X115.916 Y133.353 E0.01687
G1 X112.110 Y129.547 E0.16614
G1 X112.657 Y129.547 E0.01687
G1 X116.463 Y133.353 E0.16614
G1 X117.010 Y133.353 E0.01687
G1 X113.204 Y129.547 E0.16614
G1 X113.750 Y129.547 E0.01687
G1 X117.556 Y133.353 E0.16614
G1 X118.103 Y133.353 E0.01687
G1 X114.297 Y129.547 E0.16614
G1 X114.844 Y129.547 E0.01687
G1 X118.650 Y133.353 E0.16614
G1 X119.196 Y133.353 E0.01687
G1 X115.390 Y129.547 E0.16614
G1 X115.937 Y129.547 E0.01687
G1 X119.743 Y133.353 E0.16614
G1 X120.290 Y133.353 E0.01687
G1 X116.483 Y129.547 E0.16614
G1 X117.030 Y129.547 E0.01687
G1 X120.753 Y133.270 E0.16251
G1 X120.753 Y132.723 E0.01687
G1 X117.577 Y129.547 E0.13865
G1 X118.123 Y129.547 E0.01687
G1 X120.753 Y132.177 E0.11479
G1 X120.753 Y131.630 E0.01687
G1 X118.670 Y129.547 E0.09092
G1 X119.217 Y129.547 E0.01687
G1 X120.753 Y131.083 E0.06706
G1 X120.753 Y130.537 E0.01687
G1 X119.763 Y129.547 E0.04320
G1 X120.310 Y129.547 E0.01687
G1 X120.923 Y130.160 E0.02674
G1 F5760
G1 X120.310 Y129.547 E-0.30009
G1 F5760
G1 X119.763 Y129.547 E-0.18934
G1 F5760
G1 X120.316 Y130.099 E-0.27057
G1 E-0.04000 F2100.00000
G1 X111.477 Y117.460 F7200.000
G1 E0.80000 F2100.00000
G1 F1680
G1 X112.070 Y118.053 E0.02521
G1 X112.603 Y118.053 E0.01604
G1 X111.647 Y117.097 E0.04068
G1 X111.647 Y116.564 E0.01604
G1 X113.136 Y118.053 E0.06337
G1 X113.670 Y118.053 E0.01604
G1 X111.647 Y116.030 E0.08606
G1 X111.647 Y115.497 E0.01604
G1 X114.203 Y118.053 E0.10875
G1 X114.736 Y118.053 E0.01604
G1 X111.647 Y114.964 E0.13144
G1 X111.647 Y114.430 E0.01604
G1 X115.270 Y118.053 E0.15413
G1 X115.803 Y118.053 E0.01604
G1 X111.647 Y113.897 E0.17682
G1 X111.647 Y113.364 E0.01604
G1 X116.336 Y118.053 E0.19951
G1 X116.870 Y118.053 E0.01604
G1 X111.647 Y112.830 E0.22220
G1 X111.647 Y112.297 E0.01604
G1 X117.403 Y118.053 E0.24489
G1 X117.936 Y118.053 E0.01604
G1 X111.647 Y111.764 E0.26758
G1 X111.647 Y111.230 E0.01604
G1 X118.470 Y118.053 E0.29027
G1 X119.003 Y118.053 E0.01604
G1 X111.647 Y110.697 E0.31296
G1 X111.647 Y110.164 E0.01604
G1 X119.536 Y118.053 E0.33564
G1 X120.070 Y118.053 E0.01604
G1 X111.647 Y109.630 E0.35833
G1 X111.647 Y109.247 E0.01153
G1 X111.797 Y109.247 E0.00451
G1 X120.603 Y118.053 E0.37464
G1 X120.753 Y118.053 E0.00451
G1 X120.753 Y117.670 E0.01153
G1 X112.330 Y109.247 E0.35834
G1 X112.864 Y109.247 E0.01604
G1 X120.753 Y117.136 E0.33565
G1 X120.753 Y116.603 E0.01604
G1 X113.397 Y109.247 E0.31296
G1 X113.930 Y109.247 E0.01604
G1 X120.753 Y116.070 E0.29027
G1 X120.753 Y115.536 E0.01604
G1 X114.464 Y109.247 E0.26758
G1 X114.997 Y109.247 E0.01604
G1 X120.753 Y115.003 E0.24489
G1 X120.753 Y114.470 E0.01604
G1 X115.530 Y109.247 E0.22220
G1 X116.063 Y109.247 E0.01604
G1 X120.753 Y113.937 E0.19951
G1 X120.753 Y113.403 E0.01604
G1 X116.597 Y109.247 E0.17682
G1 X117.130 Y109.247 E0.01604
G1 X120.753 Y112.870 E0.15413
G1 X120.753 Y112.337 E0.01604
G1 X117.663 Y109.247 E0.13144
G1 X118.197 Y109.247 E0.01604
G1 X120.753 Y111.803 E0.10875
G1 X120.753 Y111.270 E0.01604
G1 X118.730 Y109.247 E0.08606
G1 X119.263 Y109.247 E0.01604
G1 X120.753 Y110.737 E0.06337
G1 X120.753 Y110.203 E0.01604
G1 X119.797 Y109.247 E0.04068
G1 X120.330 Y109.247 E0.01604
G1 X120.923 Y109.840 E0.02521
G1 F5760
G1 X120.330 Y109.247 E-0.29030
G1 F5760
G1 X119.797 Y109.247 E-0.18472
G1 F5760
G1 X120.379 Y109.829 E-0.28498
G1 E-0.04000 F2100.00000
G1 X103.687 Y118.713 F7200.000
G1 E0.80000 F2100.00000
G1 F840
G1 X103.687 Y128.887 E0.30604
G1 X93.513 Y128.887 E0.30604
G1 X93.513 Y118.713 E0.30604
G1 X103.627 Y118.713 E0.30423
G1 X103.310 Y119.090 F7200.000
G1 F840
G1 X103.310 Y128.510 E0.28335
G1 X93.890 Y128.510 E0.28335
G1 X93.890 Y119.090 E0.28335
G1 X103.250 Y119.090 E0.28155
G1 X103.696 Y118.986 F7200.000
G1 X103.250 Y118.336 F7200.000
G1 F840
G1 X93.764 Y118.336 E0.28533
G1 X93.764 Y108.964 E0.28190
G1 X103.436 Y108.964 E0.29092
G1 X103.436 Y118.336 E0.28190
G1 X103.310 Y118.336 E0.00379
G1 F5760
G1 X101.116 Y118.336 E-0.76000
G1 E-0.04000 F2100.00000
G1 X103.310 Y129.264 F7200.000
G1 E0.80000 F2100.00000
G1 F840
G1 X103.436 Y129.264 E0.00379
G1 X103.436 Y133.636 E0.13150
G1 X93.764 Y133.636 E0.29092
G1 X93.764 Y129.264 E0.13150
G1 X103.250 Y129.264 E0.28533
G1 F5760
G1 X103.436 Y129.264 E-0.06437
G1 F5760
G1 X103.436 Y131.273 E-0.69563
G1 E-0.04000 F2100.00000
G1 X103.813 Y134.013 F7200.000
G1 E0.80000 F2100.00000
G1 F1680
G1 X93.387 Y134.013 E0.31361
G1 X93.387 Y108.587 E0.76481
G1 X103.813 Y108.587 E0.31361
G1 X103.813 Y133.953 E0.76300
G1 X104.190 Y134.390 F7200.000
G1 F1050
G1 X93.010 Y134.390 E0.33629
G1 X93.010 Y108.210 E0.78749
G1 X104.190 Y108.210 E0.33629
G1 X104.190 Y134.330 E0.78569
G1 X103.820 Y134.238 F7200.000
G1 F5760
G1 X101.996 Y134.342 E-0.76000
G1 E-0.04000 F2100.00000
G1 X103.323 Y130.160 F7200.000
G1 E0.80000 F2100.00000
G1 F1680
G1 X102.710 Y129.547 E0.02674
G1 X102.163 Y129.547 E0.01687
G1 X103.153 Y130.537 E0.04320
G1 X103.153 Y131.083 E0.01687
G1 X101.617 Y129.547 E0.06706
G1 X101.070 Y129.547 E0.01687
G1 X103.153 Y131.630 E0.09092
G1 X103.153 Y132.177 E0.01687
G1 X100.523 Y129.547 E0.11479
G1 X99.977 Y129.547 E0.01687
G1 X103.153 Y132.723 E0.13865
G1 X103.153 Y133.270 E0.01687
G1 X99.430 Y129.547 E0.16251
G1 X98.883 Y129.547 E0.01687
G1 X102.690 Y133.353 E0.16614
G1 X102.143 Y133.353 E0.01687
G1 X98.337 Y129.547 E0.16614
G1 X97.790 Y129.547 E0.01687
G1 X101.596 Y133.353 E0.16614
G1 X101.050 Y133.353 E0.01687
G1 X97.244 Y129.547 E0.16614
G1 X96.697 Y129.547 E0.01687
G1 X100.503 Y133.353 E0.16614
G1 X99.956 Y133.353 E0.01687
G1 X96.150 Y129.547 E0.16614
G1 X95.604 Y129.547 E0.01687
G1 X99.410 Y133.353 E0.16614
G1 X98.863 Y133.353 E0.01687
G1 X95.057 Y129.547 E0.16614
G1 X94.510 Y129.547 E0.01687
G1 X98.316 Y133.353 E0.16614
G1 X97.770 Y133.353 E0.01687
G1 X94.047 Y129.630 E0.16251
G1 X94.047 Y130.177 E0.01687
G1 X97.223 Y133.353 E0.13864
G1 X96.676 Y133.353 E0.01687
G1 X94.047 Y130.724 E0.11478
G1 X94.047 Y131.270 E0.01687
G1 X96.130 Y133.353 E0.09092
G1 X95.583 Y133.353 E0.01687
G1 X94.047 Y131.817 E0.06706
G1 X94.047 Y132.364 E0.01687
G1 X95.036 Y133.353 E0.04319
G1 X94.490 Y133.353 E0.01687
G1 X93.877 Y132.741 E0.02674
G1 F5760
G1 X94.490 Y133.353 E-0.30003
G1 F5760
G1 X95.036 Y133.353 E-0.18934
G1 F5760
G1 X94.484 Y132.801 E-0.27063
G1 E-0.04000 F2100.00000
G1 X93.877 Y117.460 F7200.000
G1 E0.80000 F2100.00000
G1 F1680
G1 X94.470 Y118.053 E0.02521
G1 X95.003 Y118.053 E0.01604
G1 X94.047 Y117.097 E0.04068
G1 X94.047 Y116.564 E0.01604
G1 X95.536 Y118.053 E0.06337
G1 X96.070 Y118.053 E0.01604
G1 X94.047 Y116.030 E0.08606
G1 X94.047 Y115.497 E0.01604
G1 X96.603 Y118.053 E0.10875
G1 X97.136 Y118.053 E0.01604
G1 X94.047 Y114.964 E0.13144
G1 X94.047 Y114.430 E0.01604
G1 X97.670 Y118.053 E0.15413
G1 X98.203 Y118.053 E0.01604
G1 X94.047 Y113.897 E0.17682
G1 X94.047 Y113.364 E0.01604
G1 X98.736 Y118.053 E0.19951
G1 X99.270 Y118.053 E0.01604
G1 X94.047 Y112.830 E0.22220
G1 X94.047 Y112.297 E0.01604
G1 X99.803 Y118.053 E0.24489
G1 X100.336 Y118.053 E0.01604
G1 X94.047 Y111.764 E0.26758
G1 X94.047 Y111.230 E0.01604
G1 X100.870 Y118.053 E0.29027
G1 X101.403 Y118.053 E0.01604
G1 X94.047 Y110.697 E0.31296
G1 X94.047 Y110.164 E0.01604
G1 X101.936 Y118.053 E0.33564
G1 X102.470 Y118.053 E0.01604
G1 X94.047 Y109.630 E0.35833
G1 X94.047 Y109.247 E0.01153
G1 X94.197 Y109.247 E0.00451
G1 X103.003 Y118.053 E0.37464
G1 X103.153 Y118.053 E0.00451
G1 X103.153 Y117.670 E0.01153
G1 X94.730 Y109.247 E0.35834
G1 X95.264 Y109.247 E0.01604
G1 X103.153 Y117.136 E0.33565
G1 X103.153 Y116.603 E0.01604
G1 X95.797 Y109.247 E0.31296
G1 X96.330 Y109.247 E0.01604
G1 X103.153 Y116.070 E0.29027
G1 X103.153 Y115.536 E0.01604
G1 X96.864 Y109.247 E0.26758
G1 X97.397 Y109.247 E0.01604
G1 X103.153 Y115.003 E0.24489
G1 X103.153 Y114.470 E0.01604
G1 X97.930 Y109.247 E0.22220
G1 X98.463 Y109.247 E0.01604
G1 X103.153 Y113.937 E0.19951
G1 X103.153 Y113.403 E0.01604
G1 X98.997 Y109.247 E0.17682
G1 X99.530 Y109.247 E0.01604
G1 X103.153 Y112.870 E0.15413
G1 X103.153 Y112.337 E0.01604
G1 X100.063 Y109.247 E0.13144
G1 X100.597 Y109.247 E0.01604
G1 X103.153 Y111.803 E0.10875
G1 X103.153 Y111.270 E0.01604
G1 X101.130 Y109.247 E0.08606
G1 X101.663 Y109.247 E0.01604
G1 X103.153 Y110.737 E0.06337
G1 X103.153 Y110.203 E0.01604
G1 X102.197 Y109.247 E0.04068
G1 X102.730 Y109.247 E0.01604
G1 X103.323 Y109.840 E0.02521
G1 F5760
G1 X102.730 Y109.247 E-0.29030
G1 F5760
G1 X102.197 Y109.247 E-0.18472
G1 F5760
G1 X102.779 Y109.829 E-0.28498
G1 E-0.04000 F2100.00000
G1 X128.713 Y118.713 F7200.000
G1 E0.80000 F2100.00000
G1 F840
G1 X138.887 Y118.713 E0.30604
G1 X138.887 Y128.887 E0.30604
G1 X128.713 Y128.887 E0.30604
G1 X128.713 Y118.773 E0.30423
G1 X129.090 Y119.090 F7200.000
G1 F840
G1 X138.510 Y119.090 E0.28335
G1 X138.510 Y128.510 E0.28335
G1 X129.090 Y128.510 E0.28335
G1 X129.090 Y119.150 E0.28155
G1 X128.986 Y118.704 F7200.000
G1 X129.090 Y118.336 F7200.000
G1 F840
G1 X128.964 Y118.336 E0.00379
G1 X128.964 Y108.964 E0.28190
G1 X138.636 Y108.964 E0.29092
G1 X138.636 Y118.336 E0.28190
G1 X129.150 Y118.336 E0.28533
G1 F5760
G1 X128.964 Y118.336 E-0.06437
G1 F5760
G1 X128.964 Y116.327 E-0.69563
G1 E-0.04000 F2100.00000
G1 X129.150 Y129.264 F7200.000
G1 E0.80000 F2100.00000
G1 F840
G1 X138.636 Y129.264 E0.28533
G1 X138.636 Y133.636 E0.13150
G1 X128.964 Y133.636 E0.29092
G1 X128.964 Y129.264 E0.13150
G1 X129.090 Y129.264 E0.00379
G1 F5760
G1 X131.284 Y129.264 E-0.76000
G1 E-0.04000 F2100.00000
G1 X128.587 Y134.013 F7200.000
G1 E0.80000 F2100.00000
G1 F1680
G1 X128.587 Y108.587 E0.76481
G1 X139.013 Y108.587 E0.31361
G1 X139.013 Y134.013 E0.76481
G1 X128.647 Y134.013 E0.31180
G1 X128.210 Y134.390 F7200.000
G1 F1050
G1 X128.210 Y108.210 E0.78749
G1 X139.390 Y108.210 E0.33629
G1 X139.390 Y134.390 E0.78749
G1 X128.270 Y134.390 E0.33449
G1 X128.264 Y133.994 F7200.000
G1 F5760
G1 X128.265 Y132.196 E-0.76000
G1 E-0.04000 F2100.00000
G1 X129.077 Y132.741 F7200.000
G1 E0.80000 F2100.00000
G1 F1680
G1 X129.690 Y133.353 E0.02674
G1 X130.236 Y133.353 E0.01687
G1 X129.247 Y132.364 E0.04319
G1 X129.247 Y131.817 E0.01687
G1 X130.783 Y133.353 E0.06706
G1 X131.330 Y133.353 E0.01687
G1 X129.247 Y131.270 E0.09092
G1 X129.247 Y130.724 E0.01687
G1 X131.876 Y133.353 E0.11478
G1 X132.423 Y133.353 E0.01687
G1 X129.247 Y130.177 E0.13864
G1 X129.247 Y129.630 E0.01687
G1 X132.970 Y133.353 E0.16251
G1 X133.516 Y133.353 E0.01687
G1 X129.710 Y129.547 E0.16614
G1 X130.257 Y129.547 E0.01687
G1 X134.063 Y133.353 E0.16614
G1 X134.610 Y133.353 E0.01687
G1 X130.804 Y129.547 E0.16614
G1 X131.350 Y129.547 E0.01687
G1 X135.156 Y133.353 E0.16614
G1 X135.703 Y133.353 E0.01687
G1 X131.897 Y129.547 E0.16614
G1 X132.444 Y129.547 E0.01687
G1 X136.250 Y133.353 E0.16614
G1 X136.796 Y133.353 E0.01687
G1 X132.990 Y129.547 E0.16614
G1 X133.537 Y129.547 E0.01687
G1 X137.343 Y133.353 E0.16614
G1 X137.890 Y133.353 E0.01687
G1 X134.083 Y129.547 E0.16614
G1 X134.630 Y129.547 E0.01687
G1 X138.353 Y133.270 E0.16251
G1 X138.353 Y132.723 E0.01687
G1 X135.177 Y129.547 E0.13865
G1 X135.723 Y129.547 E0.01687
G1 X138.353 Y132.177 E0.11479
G1 X138.353 Y131.630 E0.01687
G1 X136.270 Y129.547 E0.09092
G1 X136.817 Y129.547 E0.01687
G1 X138.353 Y131.083 E0.06706
G1 X138.353 Y130.537 E0.01687
G1 X137.363 Y129.547 E0.04320
G1 X137.910 Y129.547 E0.01687
G1 X138.523 Y130.160 E0.02674
G1 F5760
G1 X137.910 Y129.547 E-0.30009
G1 F5760
G1 X137.363 Y129.547 E-0.18934
G1 F5760
G1 X137.916 Y130.099 E-0.27057
G1 E-0.04000 F2100.00000
G1 X129.077 Y117.460 F7200.000
G1 E0.80000 F2100.00000
G1 F1680
G1 X129.670 Y118.053 E0.02521
G1 X130.203 Y118.053 E0.01604
G1 X129.247 Y117.097 E0.04068
G1 X129.247 Y116.564 E0.01604
G1 X130.736 Y118.053 E0.06337
G1 X131.270 Y118.053 E0.01604
G1 X129.247 Y116.030 E0.08606
G1 X129.247 Y115.497 E0.01604
G1 X131.803 Y118.053 E0.10875
G1 X132.336 Y118.053 E0.01604
G1 X129.247 Y114.964 E0.13144
G1 X129.247 Y114.430 E0.01604
G1 X132.870 Y118.053 E0.15413
G1 X133.403 Y118.053 E0.01604
G1 X129.247 Y113.897 E0.17682
G1 X129.247 Y113.364 E0.01604
G1 X133.936 Y118.053 E0.19951
G1 X134.470 Y118.053 E0.01604
G1 X129.247 Y112.830 E0.22220
G1 X129.247 Y112.297 E0.01604
G1 X135.003 Y118.053 E0.24489
G1 X135.536 Y118.053 E0.01604
G1 X129.247 Y111.764 E0.26758
G1 X129.247 Y111.230 E0.01604
G1 X136.070 Y118.053 E0.29027
G1 X136.603 Y118.053 E0.01604
G1 X129.247 Y110.697 E0.31296
G1 X129.247 Y110.164 E0.01604
G1 X137.136 Y118.053 E0.33564
G1 X137.670 Y118.053 E0.01604
G1 X129.247 Y109.630 E0.35833
G1 X129.247 Y109.247 E0.01153
G1 X129.397 Y109.247 E0.00451
G1 X138.203 Y118.053 E0.37464
