; generated by Slic3r 1.33.8.devel on 2017-12-31 at 16:34:03

; 

; external perimeters extrusion width = 0.45mm
; perimeters extrusion width = 0.45mm
; infill extrusion width = 0.45mm
; solid infill extrusion width = 0.45mm
; top infill extrusion width = 0.40mm
; first layer extrusion width = 0.42mm

M107
M115 U3.0.12 ; tell printer latest fw version
M83  ; extruder relative mode
M104 S215 ; set extruder temp
M140 S55 ; set bed temp
M190 S55 ; wait for bed temp
M109 S215 ; wait for extruder temp
G28 W ; home all without mesh bed level
G80 ; mesh bed leveling
G1 Y-3.0 F1000.0 ; go outside pritn area
G1 X60.0 E9.0  F1000.0 ; intro line
G1 X100.0 E12.5  F1000.0 ; intro line
; Filament gcode

G21 ; set units to millimeters
G90 ; use absolute coordinates
M83 ; use relative distances for extrusion
G1 E-0.80000 F2100.00000
G1 Z0.200 F7200.000
G1 X121.567 Y51.213 F7200.000
G1 E0.80000 F2100.00000
M204 S1000
G1 F2100
G1 X122.117 Y50.937 E0.01851
G1 X122.723 Y50.811 E0.01862
G1 X127.104 Y50.804 E0.13178
G1 X127.644 Y50.867 E0.01635
G1 X128.158 Y51.053 E0.01646
G1 X128.617 Y51.351 E0.01646
G1 X128.995 Y51.747 E0.01646
G1 X131.310 Y55.724 E0.13840
G1 X131.497 Y56.206 E0.01555
G1 X131.575 Y56.717 E0.01555
G1 X131.573 Y156.960 E3.01529
G1 X131.402 Y157.714 E0.02327
G1 X130.998 Y158.374 E0.02327
G1 X130.403 Y158.869 E0.02327
G1 X129.678 Y159.147 E0.02338
G1 X120.659 Y159.192 E0.27128
G1 X119.807 Y158.978 E0.02643
G1 X119.088 Y158.467 E0.02654
G1 X118.604 Y157.729 E0.02654
G1 X118.423 Y156.869 E0.02643
G1 X118.427 Y56.678 E3.01374
G1 X118.522 Y56.139 E0.01646
G1 X118.738 Y55.636 E0.01646
G1 X120.897 Y51.902 E0.12974
G1 X121.525 Y51.256 E0.02710
G1 F5760
G1 X122.117 Y50.937 E-0.23286
G1 F5760
G1 X122.723 Y50.811 E-0.21443
G1 F5760
G1 X123.626 Y50.810 E-0.31271
G1 E-0.04000 F2100.00000
G1 X123.239 Y53.768 F7200.000
G1 E0.80000 F2100.00000
G1 F1680
G1 X126.761 Y53.768 E0.10594
G1 X128.613 Y56.976 E0.11141
G1 X128.613 Y156.232 E2.98559
G1 X121.387 Y156.232 E0.21735
G1 X121.387 Y56.976 E2.98559
G1 X123.209 Y53.820 E0.10960
G1 X123.021 Y53.391 F7200.000
G1 F1260
G1 X126.979 Y53.391 E0.11904
G1 X128.990 Y56.875 E0.12100
G1 X128.990 Y156.609 E2.99998
G1 X121.010 Y156.609 E0.24004
G1 X121.010 Y56.875 E2.99998
G1 X122.991 Y53.443 E0.11919
G1 X123.366 Y53.594 F7200.000
G1 F5760
G1 X125.185 Y53.415 E-0.76000
G1 E-0.04000 F2100.00000
G1 X127.751 Y55.709 F7200.000
G1 E0.80000 F2100.00000
G1 F1680
G1 X126.093 Y54.051 E0.07075
G1 X125.558 Y54.051 E0.01614
G1 X128.018 Y56.511 E0.10497
G1 X128.330 Y57.052 E0.01883
G1 X128.330 Y57.358 E0.00924
G1 X125.023 Y54.051 E0.14110
G1 X124.488 Y54.051 E0.01614
G1 X128.330 Y57.893 E0.16392
G1 X128.330 Y58.428 E0.01614
G1 X123.954 Y54.051 E0.18674
G1 X123.419 Y54.051 E0.01614
G1 X128.330 Y58.963 E0.20956
G1 X128.330 Y59.497 E0.01614
G1 X123.213 Y54.380 E0.21836
G1 X123.017 Y54.719 E0.01181
G1 X128.330 Y60.032 E0.22671
G1 X128.330 Y60.567 E0.01614
G1 X122.821 Y55.058 E0.23507
G1 X122.625 Y55.397 E0.01181
G1 X128.330 Y61.102 E0.24342
G1 X128.330 Y61.637 E0.01614
G1 X122.429 Y55.736 E0.25177
G1 X122.234 Y56.075 E0.01181
G1 X128.330 Y62.172 E0.26013
G1 X128.330 Y62.706 E0.01614
G1 X122.038 Y56.414 E0.26848
G1 X121.842 Y56.753 E0.01181
G1 X128.330 Y63.241 E0.27683
G1 X128.330 Y63.776 E0.01614
G1 X121.670 Y57.116 E0.28418
G1 X121.670 Y57.651 E0.01614
G1 X128.330 Y64.311 E0.28418
G1 X128.330 Y64.846 E0.01614
G1 X121.670 Y58.185 E0.28418
G1 X121.670 Y58.720 E0.01614
G1 X128.330 Y65.380 E0.28418
G1 X128.330 Y65.915 E0.01614
G1 X121.670 Y59.255 E0.28418
G1 X121.670 Y59.790 E0.01614
G1 X128.330 Y66.450 E0.28418
G1 X128.330 Y66.985 E0.01614
G1 X121.670 Y60.325 E0.28418
G1 X121.670 Y60.860 E0.01614
G1 X128.330 Y67.520 E0.28418
G1 X128.330 Y68.055 E0.01614
G1 X121.670 Y61.394 E0.28418
G1 X121.670 Y61.929 E0.01614
G1 X128.330 Y68.589 E0.28418
G1 X128.330 Y69.124 E0.01614
G1 X121.670 Y62.464 E0.28418
G1 X121.670 Y62.999 E0.01614
G1 X128.330 Y69.659 E0.28418
G1 X128.330 Y70.194 E0.01614
G1 X121.670 Y63.534 E0.28418
G1 X121.670 Y64.068 E0.01614
G1 X128.330 Y70.729 E0.28418
G1 X128.330 Y71.264 E0.01614
G1 X121.670 Y64.603 E0.28418
G1 X121.670 Y65.138 E0.01614
G1 X128.330 Y71.798 E0.28418
G1 X128.330 Y72.333 E0.01614
G1 X121.670 Y65.673 E0.28418
G1 X121.670 Y66.208 E0.01614
G1 X128.330 Y72.868 E0.28418
G1 X128.330 Y73.403 E0.01614
G1 X121.670 Y66.743 E0.28418
G1 X121.670 Y67.277 E0.01614
G1 X128.330 Y73.938 E0.28418
G1 X128.330 Y74.473 E0.01614
G1 X121.670 Y67.812 E0.28418
G1 X121.670 Y68.347 E0.01614
G1 X128.330 Y75.007 E0.28418
G1 X128.330 Y75.542 E0.01614
G1 X121.670 Y68.882 E0.28418
G1 X121.670 Y69.417 E0.01614
G1 X128.330 Y76.077 E0.28418
G1 X128.330 Y76.612 E0.01614
G1 X121.670 Y69.952 E0.28418
G1 X121.670 Y70.486 E0.01614
G1 X128.330 Y77.147 E0.28418
G1 X128.330 Y77.681 E0.01614
G1 X121.670 Y71.021 E0.28418
G1 X121.670 Y71.556 E0.01614
G1 X128.330 Y78.216 E0.28418
G1 X128.330 Y78.751 E0.01614
G1 X121.670 Y72.091 E0.28418
G1 X121.670 Y72.626 E0.01614
G1 X128.330 Y79.286 E0.28418
G1 X128.330 Y79.821 E0.01614
G1 X121.670 Y73.160 E0.28418
G1 X121.670 Y73.695 E0.01614
G1 X128.330 Y80.356 E0.28418
G1 X128.330 Y80.890 E0.01614
G1 X121.670 Y74.230 E0.28418
G1 X121.670 Y74.765 E0.01614
G1 X128.330 Y81.425 E0.28418
G1 X128.330 Y81.960 E0.01614
G1 X121.670 Y75.300 E0.28418
G1 X121.670 Y75.835 E0.01614
G1 X128.330 Y82.495 E0.28418
G1 X128.330 Y83.030 E0.01614
G1 X121.670 Y76.369 E0.28418
G1 X121.670 Y76.904 E0.01614
G1 X128.330 Y83.565 E0.28418
G1 X128.330 Y84.099 E0.01614
G1 X121.670 Y77.439 E0.28418
G1 X121.670 Y77.974 E0.01614
G1 X128.330 Y84.634 E0.28418
G1 X128.330 Y85.169 E0.01614
G1 X121.670 Y78.509 E0.28418
G1 X121.670 Y79.044 E0.01614
G1 X128.330 Y85.704 E0.28418
G1 X128.330 Y86.239 E0.01614
G1 X121.670 Y79.578 E0.28418
G1 X121.670 Y80.113 E0.01614
G1 X128.330 Y86.773 E0.28418
G1 X128.330 Y87.308 E0.01614
G1 X121.670 Y80.648 E0.28418
G1 X121.670 Y81.183 E0.01614
G1 X128.330 Y87.843 E0.28418
G1 X128.330 Y88.378 E0.01614
G1 X121.670 Y81.718 E0.28418
G1 X121.670 Y82.253 E0.01614
G1 X128.330 Y88.913 E0.28418
G1 X128.330 Y89.448 E0.01614
G1 X121.670 Y82.787 E0.28418
G1 X121.670 Y83.322 E0.01614
G1 X128.330 Y89.982 E0.28418
G1 X128.330 Y90.517 E0.01614
G1 X121.670 Y83.857 E0.28418
G1 X121.670 Y84.392 E0.01614
G1 X128.330 Y91.052 E0.28418
G1 X128.330 Y91.587 E0.01614
G1 X121.670 Y84.927 E0.28418
G1 X121.670 Y85.461 E0.01614
G1 X128.330 Y92.122 E0.28418
G1 X128.330 Y92.657 E0.01614
G1 X121.670 Y85.996 E0.28418
G1 X121.670 Y86.531 E0.01614
G1 X128.330 Y93.191 E0.28418
G1 X128.330 Y93.726 E0.01614
G1 X121.670 Y87.066 E0.28418
G1 X121.670 Y87.601 E0.01614
G1 X128.330 Y94.261 E0.28418
G1 X128.330 Y94.796 E0.01614
G1 X121.670 Y88.136 E0.28418
G1 X121.670 Y88.670 E0.01614
G1 X128.330 Y95.331 E0.28418
G1 X128.330 Y95.865 E0.01614
G1 X121.670 Y89.205 E0.28418
G1 X121.670 Y89.740 E0.01614
G1 X128.330 Y96.400 E0.28418
G1 X128.330 Y96.935 E0.01614
G1 X121.670 Y90.275 E0.28418
G1 X121.670 Y90.810 E0.01614
G1 X128.330 Y97.470 E0.28418
G1 X128.330 Y98.005 E0.01614
G1 X121.670 Y91.345 E0.28418
G1 X121.670 Y91.879 E0.01614
G1 X128.330 Y98.540 E0.28418
G1 X128.330 Y99.074 E0.01614
G1 X121.670 Y92.414 E0.28418
G1 X121.670 Y92.949 E0.01614
G1 X128.330 Y99.609 E0.28418
G1 X128.330 Y100.144 E0.01614
G1 X121.670 Y93.484 E0.28418
G1 X121.670 Y94.019 E0.01614
G1 X128.330 Y100.679 E0.28418
G1 X128.330 Y101.214 E0.01614
G1 X121.670 Y94.553 E0.28418
G1 X121.670 Y95.088 E0.01614
G1 X128.330 Y101.749 E0.28418
G1 X128.330 Y102.283 E0.01614
G1 X121.670 Y95.623 E0.28418
G1 X121.670 Y96.158 E0.01614
G1 X128.330 Y102.818 E0.28418
G1 X128.330 Y103.353 E0.01614
G1 X121.670 Y96.693 E0.28418
G1 X121.670 Y97.228 E0.01614
G1 X128.330 Y103.888 E0.28418
G1 X128.330 Y104.423 E0.01614
G1 X121.670 Y97.762 E0.28418
G1 X121.670 Y98.297 E0.01614
G1 X128.330 Y104.958 E0.28418
G1 X128.330 Y105.492 E0.01614
G1 X121.670 Y98.832 E0.28418
G1 X121.670 Y99.367 E0.01614
G1 X128.330 Y106.027 E0.28418
G1 X128.330 Y106.562 E0.01614
G1 X121.670 Y99.902 E0.28418
G1 X121.670 Y100.437 E0.01614
G1 X128.330 Y107.097 E0.28418
G1 X128.330 Y107.632 E0.01614
G1 X121.670 Y100.971 E0.28418
G1 X121.670 Y101.506 E0.01614
G1 X128.330 Y108.166 E0.28418
G1 X128.330 Y108.701 E0.01614
G1 X121.670 Y102.041 E0.28418
G1 X121.670 Y102.576 E0.01614
G1 X128.330 Y109.236 E0.28418
G1 X128.330 Y109.771 E0.01614
G1 X121.670 Y103.111 E0.28418
G1 X121.670 Y103.645 E0.01614
G1 X128.330 Y110.306 E0.28418
G1 X128.330 Y110.841 E0.01614
G1 X121.670 Y104.180 E0.28418
G1 X121.670 Y104.715 E0.01614
G1 X128.330 Y111.375 E0.28418
G1 X128.330 Y111.910 E0.01614
G1 X121.670 Y105.250 E0.28418
G1 X121.670 Y105.785 E0.01614
G1 X128.330 Y112.445 E0.28418
G1 X128.330 Y112.980 E0.01614
G1 X121.670 Y106.320 E0.28418
G1 X121.670 Y106.854 E0.01614
G1 X128.330 Y113.515 E0.28418
G1 X128.330 Y114.050 E0.01614
G1 X121.670 Y107.389 E0.28418
G1 X121.670 Y107.924 E0.01614
G1 X128.330 Y114.584 E0.28418
G1 X128.330 Y115.119 E0.01614
G1 X121.670 Y108.459 E0.28418
G1 X121.670 Y108.994 E0.01614
G1 X128.330 Y115.654 E0.28418
G1 X128.330 Y116.189 E0.01614
G1 X121.670 Y109.529 E0.28418
G1 X121.670 Y110.063 E0.01614
G1 X128.330 Y116.724 E0.28418
G1 X128.330 Y117.258 E0.01614
G1 X121.670 Y110.598 E0.28418
G1 X121.670 Y111.133 E0.01614
G1 X128.330 Y117.793 E0.28418
G1 X128.330 Y118.328 E0.01614
G1 X121.670 Y111.668 E0.28418
G1 X121.670 Y112.203 E0.01614
G1 X128.330 Y118.863 E0.28418
G1 X128.330 Y119.398 E0.01614
G1 X121.670 Y112.737 E0.28418
G1 X121.670 Y113.272 E0.01614
G1 X128.330 Y119.933 E0.28418
G1 X128.330 Y120.467 E0.01614
G1 X121.670 Y113.807 E0.28418
G1 X121.670 Y114.342 E0.01614
G1 X128.330 Y121.002 E0.28418
G1 X128.330 Y121.537 E0.01614
G1 X121.670 Y114.877 E0.28418
G1 X121.670 Y115.412 E0.01614
G1 X128.330 Y122.072 E0.28418
G1 X128.330 Y122.607 E0.01614
G1 X121.670 Y115.946 E0.28418
G1 X121.670 Y116.481 E0.01614
G1 X128.330 Y123.142 E0.28418
G1 X128.330 Y123.676 E0.01614
G1 X121.670 Y117.016 E0.28418
G1 X121.670 Y117.551 E0.01614
G1 X128.330 Y124.211 E0.28418
G1 X128.330 Y124.746 E0.01614
G1 X121.670 Y118.086 E0.28418
G1 X121.670 Y118.621 E0.01614
G1 X128.330 Y125.281 E0.28418
G1 X128.330 Y125.816 E0.01614
G1 X121.670 Y119.155 E0.28418
G1 X121.670 Y119.690 E0.01614
G1 X128.330 Y126.350 E0.28418
G1 X128.330 Y126.885 E0.01614
G1 X121.670 Y120.225 E0.28418
G1 X121.670 Y120.760 E0.01614
G1 X128.330 Y127.420 E0.28418
G1 X128.330 Y127.955 E0.01614
G1 X121.670 Y121.295 E0.28418
G1 X121.670 Y121.830 E0.01614
G1 X128.330 Y128.490 E0.28418
G1 X128.330 Y129.025 E0.01614
G1 X121.670 Y122.364 E0.28418
G1 X121.670 Y122.899 E0.01614
G1 X128.330 Y129.559 E0.28418
G1 X128.330 Y130.094 E0.01614
G1 X121.670 Y123.434 E0.28418
G1 X121.670 Y123.969 E0.01614
G1 X128.330 Y130.629 E0.28418
G1 X128.330 Y131.164 E0.01614
G1 X121.670 Y124.504 E0.28418
G1 X121.670 Y125.038 E0.01614
G1 X128.330 Y131.699 E0.28418
G1 X128.330 Y132.234 E0.01614
G1 X121.670 Y125.573 E0.28418
G1 X121.670 Y126.108 E0.01614
G1 X128.330 Y132.768 E0.28418
G1 X128.330 Y133.303 E0.01614
G1 X121.670 Y126.643 E0.28418
G1 X121.670 Y127.178 E0.01614
G1 X128.330 Y133.838 E0.28418
G1 X128.330 Y134.373 E0.01614
G1 X121.670 Y127.713 E0.28418
G1 X121.670 Y128.247 E0.01614
G1 X128.330 Y134.908 E0.28418
G1 X128.330 Y135.442 E0.01614
G1 X121.670 Y128.782 E0.28418
G1 X121.670 Y129.317 E0.01614
G1 X128.330 Y135.977 E0.28418
G1 X128.330 Y136.512 E0.01614
G1 X121.670 Y129.852 E0.28418
G1 X121.670 Y130.387 E0.01614
G1 X128.330 Y137.047 E0.28418
G1 X128.330 Y137.582 E0.01614
G1 X121.670 Y130.922 E0.28418
G1 X121.670 Y131.456 E0.01614
G1 X128.330 Y138.117 E0.28418
G1 X128.330 Y138.651 E0.01614
G1 X121.670 Y131.991 E0.28418
G1 X121.670 Y132.526 E0.01614
G1 X128.330 Y139.186 E0.28418
G1 X128.330 Y139.721 E0.01614
G1 X121.670 Y133.061 E0.28418
G1 X121.670 Y133.596 E0.01614
G1 X128.330 Y140.256 E0.28418
G1 X128.330 Y140.791 E0.01614
G1 X121.670 Y134.130 E0.28418
G1 X121.670 Y134.665 E0.01614
G1 X128.330 Y141.326 E0.28418
G1 X128.330 Y141.860 E0.01614
G1 X121.670 Y135.200 E0.28418
G1 X121.670 Y135.735 E0.01614
G1 X128.330 Y142.395 E0.28418
G1 X128.330 Y142.930 E0.01614
G1 X121.670 Y136.270 E0.28418
G1 X121.670 Y136.805 E0.01614
G1 X128.330 Y143.465 E0.28418
G1 X128.330 Y144.000 E0.01614
G1 X121.670 Y137.339 E0.28418
G1 X121.670 Y137.874 E0.01614
G1 X128.330 Y144.535 E0.28418
G1 X128.330 Y145.069 E0.01614
G1 X121.670 Y138.409 E0.28418
G1 X121.670 Y138.944 E0.01614
G1 X128.330 Y145.604 E0.28418
G1 X128.330 Y146.139 E0.01614
G1 X121.670 Y139.479 E0.28418
G1 X121.670 Y140.014 E0.01614
G1 X128.330 Y146.674 E0.28418
G1 X128.330 Y147.209 E0.01614
G1 X121.670 Y140.548 E0.28418
G1 X121.670 Y141.083 E0.01614
G1 X128.330 Y147.743 E0.28418
G1 X128.330 Y148.278 E0.01614
G1 X121.670 Y141.618 E0.28418
G1 X121.670 Y142.153 E0.01614
G1 X128.330 Y148.813 E0.28418
G1 X128.330 Y149.348 E0.01614
G1 X121.670 Y142.688 E0.28418
G1 X121.670 Y143.222 E0.01614
G1 X128.330 Y149.883 E0.28418
G1 X128.330 Y150.418 E0.01614
G1 X121.670 Y143.757 E0.28418
G1 X121.670 Y144.292 E0.01614
G1 X128.330 Y150.952 E0.28418
G1 X128.330 Y151.487 E0.01614
G1 X121.670 Y144.827 E0.28418
G1 X121.670 Y145.362 E0.01614
G1 X128.330 Y152.022 E0.28418
G1 X128.330 Y152.557 E0.01614
G1 X121.670 Y145.897 E0.28418
G1 X121.670 Y146.431 E0.01614
G1 X128.330 Y153.092 E0.28418
G1 X128.330 Y153.627 E0.01614
G1 X121.670 Y146.966 E0.28418
G1 X121.670 Y147.501 E0.01614
G1 X128.330 Y154.161 E0.28418
G1 X128.330 Y154.696 E0.01614
G1 X121.670 Y148.036 E0.28418
G1 X121.670 Y148.571 E0.01614
G1 X128.330 Y155.231 E0.28418
G1 X128.330 Y155.766 E0.01614
G1 X121.670 Y149.106 E0.28418
G1 X121.670 Y149.640 E0.01614
G1 X127.978 Y155.949 E0.26917
G1 X127.443 Y155.949 E0.01614
G1 X121.670 Y150.175 E0.24635
G1 X121.670 Y150.710 E0.01614
G1 X126.909 Y155.949 E0.22353
G1 X126.374 Y155.949 E0.01614
G1 X121.670 Y151.245 E0.20071
G1 X121.670 Y151.780 E0.01614
G1 X125.839 Y155.949 E0.17789
G1 X125.304 Y155.949 E0.01614
G1 X121.670 Y152.315 E0.15507
G1 X121.670 Y152.849 E0.01614
G1 X124.769 Y155.949 E0.13225
G1 X124.235 Y155.949 E0.01614
G1 X121.670 Y153.384 E0.10943
G1 X121.670 Y153.919 E0.01614
G1 X123.700 Y155.949 E0.08661
G1 X123.165 Y155.949 E0.01614
G1 X121.670 Y154.454 E0.06379
G1 X121.670 Y154.989 E0.01614
G1 X122.630 Y155.949 E0.04097
G1 X122.095 Y155.949 E0.01614
G1 X121.500 Y155.354 E0.02539
M106 S234.6
G1 F5760
G1 X122.095 Y155.949 E-0.29145
G1 F5760
G1 X122.630 Y155.949 E-0.18524
G1 F5760
G1 X122.052 Y155.370 E-0.28331
G1 E-0.04000 F2100.00000
G1 Z0.400 F7200.000
M104 S210 ; set temperature
G1 X118.604 Y157.729 F7200.000
G1 E0.80000 F2100.00000
G1 F3000
G1 X118.423 Y156.869 E0.02643
G1 X118.427 Y56.678 E3.01374
G1 X118.522 Y56.139 E0.01646
G1 X118.738 Y55.636 E0.01646
G1 X120.897 Y51.902 E0.12974
G1 X121.567 Y51.213 E0.02890
G1 X122.117 Y50.937 E0.01851
G1 X122.723 Y50.811 E0.01862
G1 X127.104 Y50.804 E0.13178
G1 X127.644 Y50.867 E0.01635
G1 X128.158 Y51.053 E0.01646
G1 X128.617 Y51.351 E0.01646
G1 X128.995 Y51.747 E0.01646
G1 X131.310 Y55.724 E0.13840
G1 X131.497 Y56.206 E0.01555
G1 X131.575 Y56.717 E0.01555
G1 X131.573 Y156.960 E3.01529
G1 X131.402 Y157.714 E0.02327
G1 X130.998 Y158.374 E0.02327
G1 X130.403 Y158.869 E0.02327
G1 X129.678 Y159.147 E0.02338
G1 X120.659 Y159.192 E0.27128
G1 X119.807 Y158.978 E0.02643
G1 X119.088 Y158.467 E0.02654
G1 X118.637 Y157.779 E0.02474
G1 F5760
G1 X118.423 Y156.869 E-0.32375
G1 F5760
G1 X118.424 Y155.610 E-0.43625
G1 E-0.04000 F2100.00000
G1 X121.432 Y156.187 F7200.000
G1 E0.80000 F2100.00000
M204 S800
G1 F2400
G1 X121.432 Y56.988 E3.23133
G1 X123.265 Y53.813 E0.11941
G1 X126.735 Y53.813 E0.11304
G1 X128.568 Y56.988 E0.11941
G1 X128.568 Y156.187 E3.23133
G1 X121.492 Y156.187 E0.23049
M204 S1000
G1 X121.025 Y156.594 F7200.000
M204 S800
G1 F1800
G1 X121.025 Y56.879 E3.24814
G1 X123.030 Y53.406 E0.13062
G1 X126.970 Y53.406 E0.12835
G1 X128.975 Y56.879 E0.13062
G1 X128.975 Y156.594 E3.24814
G1 X121.085 Y156.594 E0.25701
M204 S1000
G1 X121.036 Y156.194 F7200.000
G1 F5760
G1 X121.084 Y154.399 E-0.76000
G1 E-0.04000 F2100.00000
G1 X127.621 Y156.064 F7200.000
G1 E0.80000 F2100.00000
M204 S2000
G1 F2400
G1 X128.263 Y155.423 E0.02962
