; generated by Slic3r 1.33.8.devel on 2018-03-04 at 12:42:43

; 

; external perimeters extrusion width = 0.60mm
; perimeters extrusion width = 0.43mm
; infill extrusion width = 0.70mm
; solid infill extrusion width = 0.70mm
; top infill extrusion width = 0.43mm
; first layer extrusion width = 0.42mm

M107
M115 U3.0.12 ; tell printer latest fw version
M83  ; extruder relative mode
M104 S215 ; set extruder temp
M140 S55 ; set bed temp
M190 S55 ; wait for bed temp
M109 S215 ; wait for extruder temp
G28 W ; home all without mesh bed level
G80 ; mesh bed leveling
G1 Y-3.0 F1000.0 ; go outside pritn area
G1 X60.0 E9.0  F1000.0 ; intro line
G1 X100.0 E12.5  F1000.0 ; intro line
; Filament gcode

G21 ; set units to millimeters
G90 ; use absolute coordinates
M83 ; use relative distances for extrusion
G1 E-0.80000 F2100.00000
G1 Z0.200 F7200.000
G1 X92.614 Y79.157 F7200.000
G1 E0.80000 F2100.00000
M204 S1000
G1 F2100
G1 X93.380 Y79.023 E0.02338
G1 X156.604 Y79.023 E1.90177
G1 X157.495 Y79.198 E0.02733
G1 X158.259 Y79.697 E0.02744
G1 X158.776 Y80.444 E0.02733
G1 X158.976 Y81.330 E0.02733
G1 X158.977 Y128.642 E1.42312
G1 X158.910 Y129.162 E0.01578
G1 X158.728 Y129.658 E0.01589
G1 X158.444 Y130.100 E0.01578
G1 X158.068 Y130.470 E0.01589
G1 X157.386 Y130.843 E0.02338
G1 X156.620 Y130.977 E0.02338
G1 X93.385 Y130.977 E1.90211
G1 X92.856 Y130.914 E0.01601
G1 X92.355 Y130.735 E0.01601
G1 X91.906 Y130.449 E0.01601
G1 X91.530 Y130.068 E0.01612
G1 X91.158 Y129.389 E0.02327
G1 X91.023 Y128.624 E0.02338
G1 X91.023 Y81.381 E1.42106
G1 X91.087 Y80.853 E0.01601
G1 X91.267 Y80.352 E0.01601
G1 X91.553 Y79.903 E0.01601
G1 X91.932 Y79.530 E0.01601
G1 X92.561 Y79.185 E0.02158
G1 F5760
G1 X93.380 Y79.023 E-0.28898
G1 F5760
G1 X94.740 Y79.023 E-0.47102
G1 E-0.04000 F2100.00000
G1 X93.987 Y81.987 F7200.000
G1 E0.80000 F2100.00000
G1 F1680
G1 X102.813 Y81.987 E0.26548
G1 X102.813 Y86.987 E0.15040
G1 X108.987 Y86.987 E0.18572
G1 X108.987 Y81.987 E0.15040
G1 X156.013 Y81.987 E1.41453
G1 X156.013 Y128.013 E1.38445
G1 X93.987 Y128.013 E1.86573
G1 X93.987 Y82.047 E1.38265
G1 F5760
G1 X96.181 Y82.032 E-0.76000
G1 E-0.04000 F2100.00000
G1 X103.190 Y86.610 F7200.000
G1 E0.80000 F2100.00000
G1 F1260
G1 X108.610 Y86.610 E0.16303
G1 X108.610 Y81.610 E0.15040
G1 X156.390 Y81.610 E1.43722
G1 X156.390 Y128.390 E1.40714
G1 X93.610 Y128.390 E1.88841
G1 X93.610 Y81.610 E1.40714
G1 X103.190 Y81.610 E0.28817
G1 X103.190 Y86.550 E0.14859
G1 X103.332 Y86.984 F7200.000
G1 F5760
G1 X105.384 Y86.574 E-0.76000
G1 E-0.04000 F2100.00000
G1 X102.700 Y82.700 F7200.000
G1 E0.80000 F2100.00000
G1 F2520
G1 X102.270 Y82.270 E0.01838
G1 X101.734 Y82.270 E0.01619
G1 X102.530 Y83.066 E0.03402
G1 X102.530 Y83.602 E0.01619
G1 X101.198 Y82.270 E0.05692
G1 X100.663 Y82.270 E0.01619
G1 X102.530 Y84.137 E0.07981
G1 X102.530 Y84.673 E0.01619
G1 X100.127 Y82.270 E0.10271
G1 X99.591 Y82.270 E0.01619
G1 X102.530 Y85.209 E0.12560
G1 X102.530 Y85.744 E0.01619
G1 X99.056 Y82.270 E0.14850
G1 X98.520 Y82.270 E0.01619
G1 X102.530 Y86.280 E0.17140
G1 X102.530 Y86.816 E0.01619
G1 X97.984 Y82.270 E0.19429
G1 X97.449 Y82.270 E0.01619
G1 X142.909 Y127.730 E1.94301
G1 X143.445 Y127.730 E0.01619
G1 X102.984 Y87.270 E1.72930
G1 X103.520 Y87.270 E0.01619
G1 X143.980 Y127.730 E1.72930
G1 X144.516 Y127.730 E0.01619
G1 X104.056 Y87.270 E1.72930
G1 X104.591 Y87.270 E0.01619
G1 X145.052 Y127.730 E1.72930
G1 X145.587 Y127.730 E0.01619
G1 X105.127 Y87.270 E1.72930
G1 X105.663 Y87.270 E0.01619
G1 X146.123 Y127.730 E1.72930
G1 X146.659 Y127.730 E0.01619
G1 X106.198 Y87.270 E1.72930
G1 X106.734 Y87.270 E0.01619
G1 X147.194 Y127.730 E1.72930
G1 X147.730 Y127.730 E0.01619
G1 X107.270 Y87.270 E1.72930
G1 X107.806 Y87.270 E0.01619
G1 X148.266 Y127.730 E1.72930
G1 X148.802 Y127.730 E0.01619
G1 X108.341 Y87.270 E1.72930
G1 X108.877 Y87.270 E0.01619
G1 X149.337 Y127.730 E1.72930
G1 X149.873 Y127.730 E0.01619
G1 X109.270 Y87.127 E1.73541
G1 X109.270 Y86.591 E0.01619
G1 X150.409 Y127.730 E1.75830
G1 X150.944 Y127.730 E0.01619
G1 X109.270 Y86.056 E1.78120
G1 X109.270 Y85.520 E0.01619
G1 X151.480 Y127.730 E1.80410
G1 X152.016 Y127.730 E0.01619
G1 X109.270 Y84.984 E1.82699
G1 X109.270 Y84.449 E0.01619
G1 X152.551 Y127.730 E1.84989
G1 X153.087 Y127.730 E0.01619
G1 X109.270 Y83.913 E1.87278
G1 X109.270 Y83.377 E0.01619
G1 X153.623 Y127.730 E1.89568
G1 X154.158 Y127.730 E0.01619
G1 X109.270 Y82.842 E1.91858
G1 X109.270 Y82.306 E0.01619
G1 X154.694 Y127.730 E1.94147
G1 X155.230 Y127.730 E0.01619
G1 X109.770 Y82.270 E1.94301
G1 X110.305 Y82.270 E0.01619
G1 X155.730 Y127.695 E1.94150
G1 X155.730 Y127.159 E0.01619
G1 X110.841 Y82.270 E1.91860
G1 X111.377 Y82.270 E0.01619
G1 X155.730 Y126.623 E1.89570
G1 X155.730 Y126.088 E0.01619
G1 X111.912 Y82.270 E1.87281
G1 X112.448 Y82.270 E0.01619
G1 X155.730 Y125.552 E1.84991
G1 X155.730 Y125.016 E0.01619
G1 X112.984 Y82.270 E1.82701
G1 X113.519 Y82.270 E0.01619
G1 X155.730 Y124.481 E1.80412
G1 X155.730 Y123.945 E0.01619
G1 X114.055 Y82.270 E1.78122
G1 X114.591 Y82.270 E0.01619
G1 X155.730 Y123.409 E1.75833
G1 X155.730 Y122.873 E0.01619
G1 X115.127 Y82.270 E1.73543
G1 X115.662 Y82.270 E0.01619
G1 X155.730 Y122.338 E1.71253
G1 X155.730 Y121.802 E0.01619
G1 X116.198 Y82.270 E1.68964
G1 X116.734 Y82.270 E0.01619
G1 X155.730 Y121.266 E1.66674
G1 X155.730 Y120.731 E0.01619
G1 X117.269 Y82.270 E1.64385
G1 X117.805 Y82.270 E0.01619
G1 X155.730 Y120.195 E1.62095
G1 X155.730 Y119.659 E0.01619
G1 X118.341 Y82.270 E1.59805
G1 X118.876 Y82.270 E0.01619
G1 X155.730 Y119.124 E1.57516
G1 X155.730 Y118.588 E0.01619
G1 X119.412 Y82.270 E1.55226
G1 X119.948 Y82.270 E0.01619
G1 X155.730 Y118.052 E1.52937
G1 X155.730 Y117.517 E0.01619
G1 X120.483 Y82.270 E1.50647
G1 X121.019 Y82.270 E0.01619
G1 X155.730 Y116.981 E1.48357
G1 X155.730 Y116.445 E0.01619
G1 X121.555 Y82.270 E1.46068
G1 X122.091 Y82.270 E0.01619
G1 X155.730 Y115.909 E1.43778
G1 X155.730 Y115.374 E0.01619
G1 X122.626 Y82.270 E1.41489
G1 X123.162 Y82.270 E0.01619
G1 X155.730 Y114.838 E1.39199
G1 X155.730 Y114.302 E0.01619
G1 X123.698 Y82.270 E1.36909
G1 X124.233 Y82.270 E0.01619
G1 X155.730 Y113.767 E1.34620
G1 X155.730 Y113.231 E0.01619
G1 X124.769 Y82.270 E1.32330
G1 X125.305 Y82.270 E0.01619
G1 X155.730 Y112.695 E1.30041
G1 X155.730 Y112.160 E0.01619
G1 X125.840 Y82.270 E1.27751
G1 X126.376 Y82.270 E0.01619
G1 X155.730 Y111.624 E1.25461
G1 X155.730 Y111.088 E0.01619
G1 X126.912 Y82.270 E1.23172
G1 X127.448 Y82.270 E0.01619
G1 X155.730 Y110.552 E1.20882
G1 X155.730 Y110.017 E0.01619
G1 X127.983 Y82.270 E1.18593
G1 X128.519 Y82.270 E0.01619
G1 X155.730 Y109.481 E1.16303
G1 X155.730 Y108.945 E0.01619
G1 X129.055 Y82.270 E1.14013
G1 X129.590 Y82.270 E0.01619
G1 X155.730 Y108.410 E1.11724
G1 X155.730 Y107.874 E0.01619
G1 X130.126 Y82.270 E1.09434
G1 X130.662 Y82.270 E0.01619
G1 X155.730 Y107.338 E1.07145
G1 X155.730 Y106.803 E0.01619
G1 X131.197 Y82.270 E1.04855
G1 X131.733 Y82.270 E0.01619
G1 X155.730 Y106.267 E1.02565
G1 X155.730 Y105.731 E0.01619
G1 X132.269 Y82.270 E1.00276
G1 X132.804 Y82.270 E0.01619
G1 X155.730 Y105.196 E0.97986
G1 X155.730 Y104.660 E0.01619
G1 X133.340 Y82.270 E0.95697
G1 X133.876 Y82.270 E0.01619
G1 X155.730 Y104.124 E0.93407
G1 X155.730 Y103.588 E0.01619
G1 X134.412 Y82.270 E0.91117
G1 X134.947 Y82.270 E0.01619
G1 X155.730 Y103.053 E0.88828
G1 X155.730 Y102.517 E0.01619
G1 X135.483 Y82.270 E0.86538
G1 X136.019 Y82.270 E0.01619
G1 X155.730 Y101.981 E0.84249
G1 X155.730 Y101.446 E0.01619
G1 X136.554 Y82.270 E0.81959
G1 X137.090 Y82.270 E0.01619
G1 X155.730 Y100.910 E0.79669
G1 X155.730 Y100.374 E0.01619
G1 X137.626 Y82.270 E0.77380
G1 X138.161 Y82.270 E0.01619
G1 X155.730 Y99.839 E0.75090
G1 X155.730 Y99.303 E0.01619
G1 X138.697 Y82.270 E0.72801
G1 X139.233 Y82.270 E0.01619
G1 X155.730 Y98.767 E0.70511
G1 X155.730 Y98.232 E0.01619
G1 X139.768 Y82.270 E0.68221
G1 X140.304 Y82.270 E0.01619
G1 X155.730 Y97.696 E0.65932
G1 X155.730 Y97.160 E0.01619
G1 X140.840 Y82.270 E0.63642
G1 X141.376 Y82.270 E0.01619
G1 X155.730 Y96.624 E0.61353
G1 X155.730 Y96.089 E0.01619
G1 X141.911 Y82.270 E0.59063
G1 X142.447 Y82.270 E0.01619
G1 X155.730 Y95.553 E0.56773
G1 X155.730 Y95.017 E0.01619
G1 X142.983 Y82.270 E0.54484
G1 X143.518 Y82.270 E0.01619
G1 X155.730 Y94.482 E0.52194
G1 X155.730 Y93.946 E0.01619
G1 X144.054 Y82.270 E0.49905
G1 X144.590 Y82.270 E0.01619
G1 X155.730 Y93.410 E0.47615
G1 X155.730 Y92.875 E0.01619
G1 X145.125 Y82.270 E0.45325
G1 X145.661 Y82.270 E0.01619
G1 X155.730 Y92.339 E0.43036
G1 X155.730 Y91.803 E0.01619
G1 X146.197 Y82.270 E0.40746
G1 X146.732 Y82.270 E0.01619
G1 X155.730 Y91.268 E0.38457
G1 X155.730 Y90.732 E0.01619
G1 X147.268 Y82.270 E0.36167
G1 X147.804 Y82.270 E0.01619
G1 X155.730 Y90.196 E0.33877
G1 X155.730 Y89.660 E0.01619
G1 X148.340 Y82.270 E0.31588
G1 X148.875 Y82.270 E0.01619
G1 X155.730 Y89.125 E0.29298
G1 X155.730 Y88.589 E0.01619
G1 X149.411 Y82.270 E0.27009
G1 X149.947 Y82.270 E0.01619
G1 X155.730 Y88.053 E0.24719
G1 X155.730 Y87.518 E0.01619
G1 X150.482 Y82.270 E0.22429
G1 X151.018 Y82.270 E0.01619
G1 X155.730 Y86.982 E0.20140
G1 X155.730 Y86.446 E0.01619
G1 X151.554 Y82.270 E0.17850
G1 X152.089 Y82.270 E0.01619
G1 X155.730 Y85.911 E0.15561
G1 X155.730 Y85.375 E0.01619
G1 X152.625 Y82.270 E0.13271
G1 X153.161 Y82.270 E0.01619
G1 X155.730 Y84.839 E0.10981
G1 X155.730 Y84.303 E0.01619
G1 X153.697 Y82.270 E0.08692
G1 X154.232 Y82.270 E0.01619
G1 X155.730 Y83.768 E0.06402
G1 X155.730 Y83.232 E0.01619
G1 X154.768 Y82.270 E0.04113
G1 X155.304 Y82.270 E0.01619
G1 X155.900 Y82.866 E0.02548
G1 F5760
G1 X155.304 Y82.270 E-0.29204
G1 F5760
G1 X154.768 Y82.270 E-0.18554
G1 F5760
G1 X155.344 Y82.846 E-0.28242
G1 E-0.04000 F2100.00000
G1 X142.543 Y127.900 F7200.000
G1 E0.80000 F2100.00000
G1 F2520
G1 X96.913 Y82.270 E1.95026
G1 X96.377 Y82.270 E0.01619
G1 X141.838 Y127.730 E1.94301
G1 X141.302 Y127.730 E0.01619
G1 X95.842 Y82.270 E1.94301
G1 X95.306 Y82.270 E0.01619
G1 X140.766 Y127.730 E1.94301
G1 X140.230 Y127.730 E0.01619
G1 X94.770 Y82.270 E1.94301
G1 X94.270 Y82.270 E0.01512
G1 X94.270 Y82.305 E0.00107
G1 X139.695 Y127.730 E1.94150
G1 X139.159 Y127.730 E0.01619
G1 X94.270 Y82.841 E1.91860
G1 X94.270 Y83.377 E0.01619
G1 X138.623 Y127.730 E1.89570
G1 X138.088 Y127.730 E0.01619
G1 X94.270 Y83.912 E1.87281
G1 X94.270 Y84.448 E0.01619
G1 X137.552 Y127.730 E1.84991
G1 X137.016 Y127.730 E0.01619
G1 X94.270 Y84.984 E1.82702
G1 X94.270 Y85.519 E0.01619
G1 X136.481 Y127.730 E1.80412
G1 X135.945 Y127.730 E0.01619
G1 X94.270 Y86.055 E1.78122
G1 X94.270 Y86.591 E0.01619
G1 X135.409 Y127.730 E1.75833
G1 X134.873 Y127.730 E0.01619
G1 X94.270 Y87.127 E1.73543
G1 X94.270 Y87.662 E0.01619
G1 X134.338 Y127.730 E1.71254
G1 X133.802 Y127.730 E0.01619
G1 X94.270 Y88.198 E1.68964
G1 X94.270 Y88.734 E0.01619
G1 X133.266 Y127.730 E1.66674
G1 X132.731 Y127.730 E0.01619
G1 X94.270 Y89.269 E1.64385
G1 X94.270 Y89.805 E0.01619
G1 X132.195 Y127.730 E1.62095
G1 X131.659 Y127.730 E0.01619
G1 X94.270 Y90.341 E1.59806
G1 X94.270 Y90.876 E0.01619
G1 X131.124 Y127.730 E1.57516
G1 X130.588 Y127.730 E0.01619
G1 X94.270 Y91.412 E1.55226
G1 X94.270 Y91.948 E0.01619
G1 X130.052 Y127.730 E1.52937
G1 X129.517 Y127.730 E0.01619
G1 X94.270 Y92.483 E1.50647
G1 X94.270 Y93.019 E0.01619
G1 X128.981 Y127.730 E1.48358
G1 X128.445 Y127.730 E0.01619
G1 X94.270 Y93.555 E1.46068
G1 X94.270 Y94.091 E0.01619
G1 X127.909 Y127.730 E1.43778
G1 X127.374 Y127.730 E0.01619
G1 X94.270 Y94.626 E1.41489
G1 X94.270 Y95.162 E0.01619
G1 X126.838 Y127.730 E1.39199
G1 X126.302 Y127.730 E0.01619
G1 X94.270 Y95.698 E1.36910
G1 X94.270 Y96.233 E0.01619
G1 X125.767 Y127.730 E1.34620
G1 X125.231 Y127.730 E0.01619
G1 X94.270 Y96.769 E1.32330
G1 X94.270 Y97.305 E0.01619
G1 X124.695 Y127.730 E1.30041
G1 X124.160 Y127.730 E0.01619
G1 X94.270 Y97.840 E1.27751
G1 X94.270 Y98.376 E0.01619
G1 X123.624 Y127.730 E1.25462
G1 X123.088 Y127.730 E0.01619
G1 X94.270 Y98.912 E1.23172
G1 X94.270 Y99.447 E0.01619
G1 X122.553 Y127.730 E1.20882
G1 X122.017 Y127.730 E0.01619
G1 X94.270 Y99.983 E1.18593
G1 X94.270 Y100.519 E0.01619
G1 X121.481 Y127.730 E1.16303
G1 X120.945 Y127.730 E0.01619
G1 X94.270 Y101.055 E1.14014
G1 X94.270 Y101.590 E0.01619
G1 X120.410 Y127.730 E1.11724
G1 X119.874 Y127.730 E0.01619
G1 X94.270 Y102.126 E1.09434
G1 X94.270 Y102.662 E0.01619
G1 X119.338 Y127.730 E1.07145
G1 X118.803 Y127.730 E0.01619
G1 X94.270 Y103.197 E1.04855
G1 X94.270 Y103.733 E0.01619
G1 X118.267 Y127.730 E1.02566
G1 X117.731 Y127.730 E0.01619
G1 X94.270 Y104.269 E1.00276
G1 X94.270 Y104.804 E0.01619
G1 X117.196 Y127.730 E0.97986
G1 X116.660 Y127.730 E0.01619
G1 X94.270 Y105.340 E0.95697
G1 X94.270 Y105.876 E0.01619
G1 X116.124 Y127.730 E0.93407
G1 X115.588 Y127.730 E0.01619
G1 X94.270 Y106.412 E0.91118
G1 X94.270 Y106.947 E0.01619
G1 X115.053 Y127.730 E0.88828
G1 X114.517 Y127.730 E0.01619
G1 X94.270 Y107.483 E0.86538
G1 X94.270 Y108.019 E0.01619
G1 X113.981 Y127.730 E0.84249
G1 X113.446 Y127.730 E0.01619
G1 X94.270 Y108.554 E0.81959
G1 X94.270 Y109.090 E0.01619
G1 X112.910 Y127.730 E0.79670
G1 X112.374 Y127.730 E0.01619
G1 X94.270 Y109.626 E0.77380
G1 X94.270 Y110.161 E0.01619
G1 X111.839 Y127.730 E0.75090
G1 X111.303 Y127.730 E0.01619
G1 X94.270 Y110.697 E0.72801
G1 X94.270 Y111.233 E0.01619
G1 X110.767 Y127.730 E0.70511
G1 X110.232 Y127.730 E0.01619
G1 X94.270 Y111.768 E0.68222
G1 X94.270 Y112.304 E0.01619
G1 X109.696 Y127.730 E0.65932
G1 X109.160 Y127.730 E0.01619
G1 X94.270 Y112.840 E0.63642
G1 X94.270 Y113.376 E0.01619
G1 X108.624 Y127.730 E0.61353
G1 X108.089 Y127.730 E0.01619
G1 X94.270 Y113.911 E0.59063
G1 X94.270 Y114.447 E0.01619
G1 X107.553 Y127.730 E0.56774
G1 X107.017 Y127.730 E0.01619
G1 X94.270 Y114.983 E0.54484
G1 X94.270 Y115.518 E0.01619
G1 X106.482 Y127.730 E0.52194
G1 X105.946 Y127.730 E0.01619
G1 X94.270 Y116.054 E0.49905
G1 X94.270 Y116.590 E0.01619
G1 X105.410 Y127.730 E0.47615
G1 X104.875 Y127.730 E0.01619
G1 X94.270 Y117.125 E0.45326
G1 X94.270 Y117.661 E0.01619
G1 X104.339 Y127.730 E0.43036
G1 X103.803 Y127.730 E0.01619
G1 X94.270 Y118.197 E0.40746
G1 X94.270 Y118.732 E0.01619
G1 X103.268 Y127.730 E0.38457
G1 X102.732 Y127.730 E0.01619
G1 X94.270 Y119.268 E0.36167
G1 X94.270 Y119.804 E0.01619
G1 X102.196 Y127.730 E0.33878
G1 X101.660 Y127.730 E0.01619
G1 X94.270 Y120.340 E0.31588
G1 X94.270 Y120.875 E0.01619
G1 X101.125 Y127.730 E0.29298
G1 X100.589 Y127.730 E0.01619
G1 X94.270 Y121.411 E0.27009
G1 X94.270 Y121.947 E0.01619
G1 X100.053 Y127.730 E0.24719
G1 X99.518 Y127.730 E0.01619
G1 X94.270 Y122.482 E0.22430
G1 X94.270 Y123.018 E0.01619
G1 X98.982 Y127.730 E0.20140
G1 X98.446 Y127.730 E0.01619
G1 X94.270 Y123.554 E0.17850
G1 X94.270 Y124.089 E0.01619
G1 X97.911 Y127.730 E0.15561
G1 X97.375 Y127.730 E0.01619
G1 X94.270 Y124.625 E0.13271
G1 X94.270 Y125.161 E0.01619
G1 X96.839 Y127.730 E0.10982
G1 X96.303 Y127.730 E0.01619
G1 X94.270 Y125.697 E0.08692
G1 X94.270 Y126.232 E0.01619
G1 X95.768 Y127.730 E0.06402
G1 X95.232 Y127.730 E0.01619
G1 X94.270 Y126.768 E0.04113
G1 X94.270 Y127.304 E0.01619
G1 X94.866 Y127.900 E0.02548
M106 S219.3
G1 F5760
G1 X94.270 Y127.304 E-0.29205
G1 F5760
G1 X94.270 Y126.768 E-0.18554
G1 F5760
G1 X94.846 Y127.344 E-0.28241
G1 E-0.04000 F2100.00000
G1 Z0.550 F7200.000
M104 S210 ; set temperature
G1 X91.158 Y129.389 F7200.000
G1 E0.80000 F2100.00000
G1 F3000
G1 X91.023 Y128.624 E0.03598
G1 X91.023 Y81.381 E2.18654
G1 X91.087 Y80.853 E0.02463
G1 X91.267 Y80.352 E0.02463
G1 X91.553 Y79.903 E0.02463
G1 X91.932 Y79.530 E0.02463
G1 X92.614 Y79.157 E0.03598
G1 X93.380 Y79.023 E0.03598
G1 X156.604 Y79.023 E2.92619
G1 X157.495 Y79.198 E0.04205
G1 X158.259 Y79.697 E0.04222
G1 X158.776 Y80.444 E0.04205
G1 X158.976 Y81.330 E0.04205
G1 X158.977 Y128.642 E2.18972
G1 X158.910 Y129.162 E0.02428
G1 X158.728 Y129.658 E0.02445
G1 X158.444 Y130.100 E0.02428
G1 X158.068 Y130.470 E0.02445
G1 X157.386 Y130.843 E0.03598
G1 X156.620 Y130.977 E0.03598
G1 X93.385 Y130.977 E2.92672
G1 X92.856 Y130.914 E0.02463
G1 X92.355 Y130.735 E0.02463
G1 X91.906 Y130.449 E0.02463
G1 X91.530 Y130.068 E0.02480
G1 X91.187 Y129.442 E0.03303
G1 F5760
G1 X91.023 Y128.624 E-0.28899
