; generated by Slic3r 1.33.8.devel on 2018-03-04 at 12:40:36

; 

; external perimeters extrusion width = 0.60mm
; perimeters extrusion width = 0.43mm
; infill extrusion width = 0.70mm
; solid infill extrusion width = 0.70mm
; top infill extrusion width = 0.43mm
; first layer extrusion width = 0.42mm

M107
M115 U3.0.12 ; tell printer latest fw version
M83  ; extruder relative mode
M104 S215 ; set extruder temp
M140 S55 ; set bed temp
M190 S55 ; wait for bed temp
M109 S215 ; wait for extruder temp
G28 W ; home all without mesh bed level
G80 ; mesh bed leveling
G1 Y-3.0 F1000.0 ; go outside pritn area
G1 X60.0 E9.0  F1000.0 ; intro line
G1 X100.0 E12.5  F1000.0 ; intro line
; Filament gcode

G21 ; set units to millimeters
G90 ; use absolute coordinates
M83 ; use relative distances for extrusion
G1 E-0.80000 F2100.00000
G1 Z0.200 F7200.000
G1 X92.614 Y79.157 F7200.000
G1 E0.80000 F2100.00000
M204 S1000
G1 F2100
G1 X93.380 Y79.023 E0.02338
G1 X156.604 Y79.023 E1.90177
G1 X157.495 Y79.198 E0.02733
G1 X158.259 Y79.697 E0.02744
G1 X158.776 Y80.444 E0.02733
G1 X158.976 Y81.330 E0.02733
G1 X158.977 Y128.642 E1.42312
G1 X158.910 Y129.162 E0.01578
G1 X158.728 Y129.658 E0.01589
G1 X158.444 Y130.100 E0.01578
G1 X158.068 Y130.470 E0.01589
G1 X157.386 Y130.843 E0.02338
G1 X156.620 Y130.977 E0.02338
G1 X93.385 Y130.977 E1.90211
G1 X92.856 Y130.914 E0.01601
G1 X92.355 Y130.735 E0.01601
G1 X91.906 Y130.449 E0.01601
G1 X91.530 Y130.068 E0.01612
G1 X91.158 Y129.389 E0.02327
G1 X91.023 Y128.624 E0.02338
G1 X91.023 Y81.381 E1.42106
G1 X91.087 Y80.853 E0.01601
G1 X91.267 Y80.352 E0.01601
G1 X91.553 Y79.903 E0.01601
G1 X91.932 Y79.530 E0.01601
G1 X92.561 Y79.185 E0.02158
G1 F5760
G1 X93.380 Y79.023 E-0.28898
G1 F5760
G1 X94.740 Y79.023 E-0.47102
G1 E-0.04000 F2100.00000
G1 X144.429 Y120.542 F7200.000
G1 E0.80000 F2100.00000
G1 F840
G1 X144.928 Y120.144 E0.01922
G1 X145.523 Y119.910 E0.01922
G1 X146.126 Y119.865 E0.01819
G1 X146.779 Y120.002 E0.02006
G1 X147.337 Y120.324 E0.01938
G1 X147.771 Y120.792 E0.01922
G1 X148.048 Y121.368 E0.01922
G1 X148.144 Y122.000 E0.01922
G1 X148.048 Y122.632 E0.01922
G1 X147.771 Y123.208 E0.01922
G1 X147.337 Y123.676 E0.01922
G1 X146.783 Y123.996 E0.01922
G1 X146.160 Y124.138 E0.01923
G1 X145.523 Y124.090 E0.01922
G1 X144.928 Y123.856 E0.01922
G1 X144.429 Y123.458 E0.01922
G1 X144.069 Y122.930 E0.01922
G1 X143.879 Y122.315 E0.01938
G1 X143.890 Y121.648 E0.02005
G1 X144.069 Y121.070 E0.01820
G1 X144.395 Y120.591 E0.01742
G1 X144.706 Y120.804 F7200.000
G1 F840
G1 X145.119 Y120.474 E0.01589
G1 X145.608 Y120.282 E0.01580
G1 X146.101 Y120.245 E0.01488
G1 X146.642 Y120.358 E0.01664
G1 X147.099 Y120.622 E0.01586
G1 X147.456 Y121.007 E0.01580
G1 X147.684 Y121.480 E0.01580
G1 X147.762 Y122.000 E0.01580
G1 X147.684 Y122.519 E0.01580
G1 X147.456 Y122.993 E0.01580
G1 X147.099 Y123.378 E0.01580
G1 X146.644 Y123.641 E0.01580
G1 X146.132 Y123.757 E0.01580
G1 X145.608 Y123.718 E0.01580
G1 X145.119 Y123.526 E0.01580
G1 X144.708 Y123.199 E0.01580
G1 X144.412 Y122.765 E0.01580
G1 X144.257 Y122.261 E0.01586
G1 X144.266 Y121.708 E0.01663
G1 X144.412 Y121.235 E0.01488
G1 X144.673 Y120.853 E0.01390
G1 X144.589 Y120.422 F7200.000
G1 F5760
G1 X145.119 Y120.474 E-0.20293
G1 F5760
G1 X145.608 Y120.282 E-0.18195
G1 F5760
G1 X146.101 Y120.245 E-0.17129
G1 F5760
G1 X146.642 Y120.358 E-0.19157
G1 F5760
G1 X146.673 Y120.376 E-0.01227
G1 E-0.04000 F2100.00000
G1 X142.087 Y104.587 F7200.000
G1 E0.80000 F2100.00000
G1 F840
G1 X132.413 Y104.587 E0.29100
G1 X132.413 Y96.413 E0.24588
G1 X142.087 Y96.413 E0.29100
G1 X142.087 Y104.527 E0.24407
G1 X141.710 Y104.210 F7200.000
G1 F840
G1 X132.790 Y104.210 E0.26831
G1 X132.790 Y96.790 E0.22319
G1 X141.710 Y96.790 E0.26831
G1 X141.710 Y104.150 E0.22139
G1 X141.825 Y104.593 F7200.000
G1 F5760
G1 X139.516 Y104.165 E-0.76000
G1 E-0.04000 F2100.00000
G1 X126.837 Y112.087 F7200.000
G1 E0.80000 F2100.00000
G1 F1680
G1 X125.163 Y112.087 E0.05036
G1 X125.163 Y101.541 E0.31721
G1 X126.062 Y101.022 E0.03123
G1 X126.651 Y100.387 E0.02606
G1 X127.027 Y99.607 E0.02606
G1 X127.156 Y98.750 E0.02606
G1 X127.027 Y97.893 E0.02606
G1 X126.651 Y97.113 E0.02606
G1 X126.062 Y96.478 E0.02606
G1 X125.312 Y96.045 E0.02606
G1 X124.467 Y95.852 E0.02606
G1 X123.603 Y95.917 E0.02606
G1 X122.797 Y96.233 E0.02606
G1 X122.120 Y96.773 E0.02606
G1 X121.632 Y97.489 E0.02606
G1 X121.376 Y98.317 E0.02606
G1 X121.376 Y99.183 E0.02606
G1 X121.632 Y100.011 E0.02606
G1 X122.120 Y100.727 E0.02606
G1 X122.797 Y101.267 E0.02606
G1 X123.337 Y101.479 E0.01746
G1 X123.337 Y112.087 E0.31909
G1 X121.663 Y112.087 E0.05036
G1 X121.663 Y102.497 E0.28847
G1 X120.883 Y101.875 E0.03002
G1 X120.111 Y100.743 E0.04119
G1 X119.708 Y99.435 E0.04119
G1 X119.708 Y98.065 E0.04119
G1 X120.111 Y96.757 E0.04119
G1 X120.883 Y95.625 E0.04119
G1 X121.953 Y94.772 E0.04119
G1 X123.228 Y94.271 E0.04119
G1 X124.593 Y94.169 E0.04119
G1 X125.928 Y94.474 E0.04119
G1 X127.114 Y95.159 E0.04119
G1 X128.046 Y96.162 E0.04119
G1 X128.640 Y97.396 E0.04119
G1 X128.844 Y98.750 E0.04119
G1 X128.640 Y100.104 E0.04119
G1 X128.046 Y101.338 E0.04119
G1 X127.114 Y102.341 E0.04119
G1 X126.837 Y102.501 E0.00962
G1 X126.837 Y112.027 E0.28653
G1 X126.460 Y111.710 F7200.000
G1 F1260
G1 X125.540 Y111.710 E0.02767
G1 X125.540 Y101.759 E0.29932
G1 X126.300 Y101.320 E0.02639
G1 X126.966 Y100.602 E0.02948
G1 X127.392 Y99.719 E0.02948
G1 X127.538 Y98.750 E0.02948
G1 X127.392 Y97.781 E0.02948
G1 X126.966 Y96.898 E0.02948
G1 X126.300 Y96.180 E0.02948
G1 X125.451 Y95.690 E0.02948
G1 X124.496 Y95.472 E0.02948
G1 X123.518 Y95.545 E0.02948
G1 X122.606 Y95.903 E0.02948
G1 X121.840 Y96.514 E0.02948
G1 X121.288 Y97.324 E0.02948
G1 X120.999 Y98.260 E0.02948
G1 X120.999 Y99.240 E0.02948
G1 X121.288 Y100.176 E0.02948
G1 X121.840 Y100.986 E0.02948
G1 X122.606 Y101.597 E0.02948
G1 X122.960 Y101.736 E0.01143
G1 X122.960 Y111.710 E0.30002
G1 X122.040 Y111.710 E0.02767
G1 X122.040 Y102.315 E0.28259
G1 X121.162 Y101.615 E0.03378
G1 X120.455 Y100.578 E0.03777
G1 X120.085 Y99.378 E0.03777
G1 X120.085 Y98.122 E0.03777
G1 X120.455 Y96.922 E0.03777
G1 X121.162 Y95.885 E0.03777
G1 X122.144 Y95.102 E0.03777
G1 X123.313 Y94.643 E0.03777
G1 X124.565 Y94.549 E0.03777
G1 X125.789 Y94.829 E0.03777
G1 X126.876 Y95.457 E0.03777
G1 X127.730 Y96.377 E0.03777
G1 X128.275 Y97.508 E0.03777
G1 X128.462 Y98.750 E0.03777
G1 X128.275 Y99.992 E0.03777
G1 X127.730 Y101.123 E0.03777
G1 X126.876 Y102.043 E0.03777
G1 X126.460 Y102.284 E0.01446
G1 X126.460 Y111.650 E0.28174
G1 X126.454 Y112.110 F7200.000
G1 F5760
G1 X125.540 Y111.710 E-0.31932
G1 F5760
G1 X125.540 Y110.438 E-0.44068
G1 E-0.04000 F2100.00000
G1 X116.837 Y112.087 F7200.000
G1 E0.80000 F2100.00000
G1 F1680
G1 X115.163 Y112.087 E0.05036
G1 X115.163 Y101.541 E0.31721
G1 X116.062 Y101.022 E0.03123
G1 X116.651 Y100.387 E0.02606
G1 X117.027 Y99.607 E0.02606
G1 X117.156 Y98.750 E0.02606
G1 X117.027 Y97.893 E0.02606
G1 X116.651 Y97.113 E0.02606
G1 X116.062 Y96.478 E0.02606
G1 X115.312 Y96.045 E0.02606
G1 X114.467 Y95.852 E0.02606
G1 X113.603 Y95.917 E0.02606
G1 X112.797 Y96.233 E0.02606
G1 X112.120 Y96.773 E0.02606
G1 X111.632 Y97.489 E0.02606
G1 X111.376 Y98.317 E0.02606
G1 X111.376 Y99.183 E0.02606
G1 X111.632 Y100.011 E0.02606
G1 X112.120 Y100.727 E0.02606
G1 X112.797 Y101.267 E0.02606
G1 X113.337 Y101.479 E0.01746
G1 X113.337 Y112.087 E0.31909
G1 X111.663 Y112.087 E0.05036
G1 X111.663 Y102.497 E0.28847
G1 X110.883 Y101.875 E0.03002
G1 X110.111 Y100.743 E0.04119
G1 X109.708 Y99.435 E0.04119
G1 X109.708 Y98.065 E0.04119
G1 X110.111 Y96.757 E0.04119
G1 X110.883 Y95.625 E0.04119
G1 X111.953 Y94.772 E0.04119
G1 X113.228 Y94.271 E0.04119
G1 X114.593 Y94.169 E0.04119
G1 X115.928 Y94.474 E0.04119
G1 X117.114 Y95.159 E0.04119
G1 X118.046 Y96.162 E0.04119
G1 X118.640 Y97.396 E0.04119
G1 X118.844 Y98.750 E0.04119
G1 X118.640 Y100.104 E0.04119
G1 X118.046 Y101.338 E0.04119
G1 X117.114 Y102.341 E0.04119
G1 X116.837 Y102.501 E0.00962
G1 X116.837 Y112.027 E0.28653
G1 X116.460 Y111.710 F7200.000
G1 F1260
G1 X115.540 Y111.710 E0.02767
G1 X115.540 Y101.759 E0.29932
G1 X116.300 Y101.320 E0.02639
G1 X116.966 Y100.602 E0.02948
G1 X117.392 Y99.719 E0.02948
G1 X117.538 Y98.750 E0.02948
G1 X117.392 Y97.781 E0.02948
G1 X116.966 Y96.898 E0.02948
G1 X116.300 Y96.180 E0.02948
G1 X115.451 Y95.690 E0.02948
G1 X114.496 Y95.472 E0.02948
G1 X113.518 Y95.545 E0.02948
G1 X112.606 Y95.903 E0.02948
G1 X111.840 Y96.514 E0.02948
G1 X111.288 Y97.324 E0.02948
G1 X110.999 Y98.260 E0.02948
G1 X110.999 Y99.240 E0.02948
G1 X111.288 Y100.176 E0.02948
G1 X111.840 Y100.986 E0.02948
G1 X112.606 Y101.597 E0.02948
G1 X112.960 Y101.736 E0.01143
G1 X112.960 Y111.710 E0.30002
G1 X112.040 Y111.710 E0.02767
G1 X112.040 Y102.315 E0.28259
G1 X111.162 Y101.615 E0.03378
G1 X110.455 Y100.578 E0.03777
G1 X110.085 Y99.378 E0.03777
G1 X110.085 Y98.122 E0.03777
G1 X110.455 Y96.922 E0.03777
G1 X111.162 Y95.885 E0.03777
G1 X112.144 Y95.102 E0.03777
G1 X113.313 Y94.643 E0.03777
G1 X114.565 Y94.549 E0.03777
G1 X115.789 Y94.829 E0.03777
G1 X116.876 Y95.457 E0.03777
G1 X117.730 Y96.377 E0.03777
G1 X118.275 Y97.508 E0.03777
G1 X118.462 Y98.750 E0.03777
G1 X118.275 Y99.992 E0.03777
G1 X117.730 Y101.123 E0.03777
G1 X116.876 Y102.043 E0.03777
G1 X116.460 Y102.284 E0.01446
G1 X116.460 Y111.650 E0.28174
G1 X116.454 Y112.110 F7200.000
G1 F5760
G1 X115.540 Y111.710 E-0.31932
G1 F5760
G1 X115.540 Y110.438 E-0.44068
G1 E-0.04000 F2100.00000
G1 X106.837 Y112.087 F7200.000
G1 E0.80000 F2100.00000
G1 F1680
G1 X105.163 Y112.087 E0.05036
G1 X105.163 Y101.541 E0.31721
G1 X106.062 Y101.022 E0.03123
G1 X106.651 Y100.387 E0.02606
G1 X107.027 Y99.607 E0.02606
G1 X107.156 Y98.750 E0.02606
G1 X107.027 Y97.893 E0.02606
G1 X106.651 Y97.113 E0.02606
G1 X106.062 Y96.478 E0.02606
G1 X105.312 Y96.045 E0.02606
G1 X104.467 Y95.852 E0.02606
G1 X103.603 Y95.917 E0.02606
G1 X102.797 Y96.233 E0.02606
G1 X102.120 Y96.773 E0.02606
G1 X101.632 Y97.489 E0.02606
G1 X101.376 Y98.317 E0.02606
G1 X101.376 Y99.183 E0.02606
G1 X101.632 Y100.011 E0.02606
G1 X102.120 Y100.727 E0.02606
G1 X102.797 Y101.267 E0.02606
G1 X103.337 Y101.479 E0.01746
G1 X103.337 Y112.087 E0.31909
G1 X101.663 Y112.087 E0.05036
G1 X101.663 Y102.497 E0.28847
G1 X100.883 Y101.875 E0.03002
G1 X100.111 Y100.743 E0.04119
G1 X99.708 Y99.435 E0.04119
G1 X99.708 Y98.065 E0.04119
G1 X100.111 Y96.757 E0.04119
G1 X100.883 Y95.625 E0.04119
G1 X101.953 Y94.772 E0.04119
G1 X103.228 Y94.271 E0.04119
G1 X104.593 Y94.169 E0.04119
G1 X105.928 Y94.474 E0.04119
G1 X107.114 Y95.159 E0.04119
G1 X108.046 Y96.162 E0.04119
G1 X108.640 Y97.396 E0.04119
G1 X108.844 Y98.750 E0.04119
G1 X108.640 Y100.104 E0.04119
G1 X108.046 Y101.338 E0.04119
G1 X107.114 Y102.341 E0.04119
G1 X106.837 Y102.501 E0.00962
G1 X106.837 Y112.027 E0.28653
G1 X106.460 Y111.710 F7200.000
G1 F1260
G1 X105.540 Y111.710 E0.02767
G1 X105.540 Y101.759 E0.29932
G1 X106.300 Y101.320 E0.02639
G1 X106.966 Y100.602 E0.02948
G1 X107.392 Y99.719 E0.02948
G1 X107.538 Y98.750 E0.02948
G1 X107.392 Y97.781 E0.02948
G1 X106.966 Y96.898 E0.02948
G1 X106.300 Y96.180 E0.02948
G1 X105.451 Y95.690 E0.02948
G1 X104.496 Y95.472 E0.02948
G1 X103.518 Y95.545 E0.02948
G1 X102.606 Y95.903 E0.02948
G1 X101.840 Y96.514 E0.02948
G1 X101.288 Y97.324 E0.02948
G1 X100.999 Y98.260 E0.02948
G1 X100.999 Y99.240 E0.02948
G1 X101.288 Y100.176 E0.02948
G1 X101.840 Y100.986 E0.02948
G1 X102.606 Y101.597 E0.02948
G1 X102.960 Y101.736 E0.01143
G1 X102.960 Y111.710 E0.30002
G1 X102.040 Y111.710 E0.02767
G1 X102.040 Y102.315 E0.28259
G1 X101.162 Y101.615 E0.03378
G1 X100.455 Y100.578 E0.03777
G1 X100.085 Y99.378 E0.03777
G1 X100.085 Y98.122 E0.03777
G1 X100.455 Y96.922 E0.03777
G1 X101.162 Y95.885 E0.03777
G1 X102.144 Y95.102 E0.03777
G1 X103.313 Y94.643 E0.03777
G1 X104.565 Y94.549 E0.03777
G1 X105.789 Y94.829 E0.03777
G1 X106.876 Y95.457 E0.03777
G1 X107.730 Y96.377 E0.03777
G1 X108.275 Y97.508 E0.03777
G1 X108.462 Y98.750 E0.03777
G1 X108.275 Y99.992 E0.03777
G1 X107.730 Y101.123 E0.03777
G1 X106.876 Y102.043 E0.03777
G1 X106.460 Y102.284 E0.01446
G1 X106.460 Y111.650 E0.28174
G1 X106.454 Y112.110 F7200.000
G1 F5760
G1 X105.540 Y111.710 E-0.31932
G1 F5760
G1 X105.540 Y110.438 E-0.44068
G1 E-0.04000 F2100.00000
G1 X93.987 Y128.013 F7200.000
G1 E0.80000 F2100.00000
G1 F1680
G1 X93.987 Y81.987 E1.38445
G1 X156.013 Y81.987 E1.86573
G1 X156.013 Y128.013 E1.38445
G1 X94.047 Y128.013 E1.86392
G1 X93.610 Y128.390 F7200.000
G1 F1260
G1 X93.610 Y81.610 E1.40714
G1 X156.390 Y81.610 E1.88841
G1 X156.390 Y128.390 E1.40714
G1 X93.670 Y128.390 E1.88661
G1 X93.732 Y128.009 F7200.000
G1 F5760
G1 X93.667 Y126.196 E-0.76000
G1 E-0.04000 F2100.00000
G1 X94.100 Y127.134 F7200.000
G1 E0.80000 F2100.00000
G1 F2520
G1 X94.696 Y127.730 E0.02548
G1 X95.232 Y127.730 E0.01619
G1 X94.270 Y126.768 E0.04113
G1 X94.270 Y126.232 E0.01619
G1 X95.768 Y127.730 E0.06402
G1 X96.303 Y127.730 E0.01619
G1 X94.270 Y125.697 E0.08692
G1 X94.270 Y125.161 E0.01619
G1 X96.839 Y127.730 E0.10981
G1 X97.375 Y127.730 E0.01619
G1 X94.270 Y124.625 E0.13271
G1 X94.270 Y124.089 E0.01619
G1 X97.911 Y127.730 E0.15561
G1 X98.446 Y127.730 E0.01619
G1 X94.270 Y123.554 E0.17850
G1 X94.270 Y123.018 E0.01619
G1 X98.982 Y127.730 E0.20140
G1 X99.518 Y127.730 E0.01619
G1 X94.270 Y122.482 E0.22429
G1 X94.270 Y121.947 E0.01619
G1 X100.053 Y127.730 E0.24719
G1 X100.589 Y127.730 E0.01619
G1 X94.270 Y121.411 E0.27009
G1 X94.270 Y120.875 E0.01619
G1 X101.125 Y127.730 E0.29298
G1 X101.660 Y127.730 E0.01619
G1 X94.270 Y120.340 E0.31588
G1 X94.270 Y119.804 E0.01619
G1 X102.196 Y127.730 E0.33877
G1 X102.732 Y127.730 E0.01619
G1 X94.270 Y119.268 E0.36167
G1 X94.270 Y118.732 E0.01619
G1 X103.268 Y127.730 E0.38457
G1 X103.803 Y127.730 E0.01619
G1 X94.270 Y118.197 E0.40746
G1 X94.270 Y117.661 E0.01619
G1 X104.339 Y127.730 E0.43036
G1 X104.875 Y127.730 E0.01619
G1 X94.270 Y117.125 E0.45325
G1 X94.270 Y116.590 E0.01619
G1 X105.410 Y127.730 E0.47615
G1 X105.946 Y127.730 E0.01619
G1 X94.270 Y116.054 E0.49905
G1 X94.270 Y115.518 E0.01619
G1 X106.482 Y127.730 E0.52194
G1 X107.017 Y127.730 E0.01619
G1 X94.270 Y114.983 E0.54484
G1 X94.270 Y114.447 E0.01619
G1 X107.553 Y127.730 E0.56773
G1 X108.089 Y127.730 E0.01619
G1 X94.270 Y113.911 E0.59063
G1 X94.270 Y113.376 E0.01619
G1 X108.624 Y127.730 E0.61353
G1 X109.160 Y127.730 E0.01619
G1 X94.270 Y112.840 E0.63642
G1 X94.270 Y112.304 E0.01619
G1 X109.696 Y127.730 E0.65932
G1 X110.232 Y127.730 E0.01619
G1 X94.270 Y111.768 E0.68221
G1 X94.270 Y111.233 E0.01619
G1 X110.767 Y127.730 E0.70511
G1 X111.303 Y127.730 E0.01619
G1 X94.270 Y110.697 E0.72801
G1 X94.270 Y110.161 E0.01619
G1 X111.839 Y127.730 E0.75090
G1 X112.374 Y127.730 E0.01619
G1 X94.270 Y109.626 E0.77380
G1 X94.270 Y109.090 E0.01619
G1 X112.910 Y127.730 E0.79669
G1 X113.446 Y127.730 E0.01619
G1 X94.270 Y108.554 E0.81959
G1 X94.270 Y108.019 E0.01619
G1 X113.981 Y127.730 E0.84249
G1 X114.517 Y127.730 E0.01619
G1 X94.270 Y107.483 E0.86538
G1 X94.270 Y106.947 E0.01619
G1 X115.053 Y127.730 E0.88828
G1 X115.588 Y127.730 E0.01619
G1 X94.270 Y106.412 E0.91118
G1 X94.270 Y105.876 E0.01619
G1 X116.294 Y127.900 E0.94132
G1 F5760
G1 X114.742 Y126.348 E-0.76000
G1 E-0.04000 F2100.00000
G1 X121.115 Y127.900 F7200.000
G1 E0.80000 F2100.00000
G1 F2520
G1 X105.585 Y112.370 E0.66376
G1 X106.121 Y112.370 E0.01619
G1 X121.481 Y127.730 E0.65651
G1 X122.017 Y127.730 E0.01619
G1 X106.657 Y112.370 E0.65651
G1 X107.120 Y112.370 E0.01400
G1 X107.120 Y112.297 E0.00219
G1 X122.553 Y127.730 E0.65960
G1 X123.088 Y127.730 E0.01619
G1 X107.120 Y111.762 E0.68250
G1 X107.120 Y111.226 E0.01619
G1 X123.624 Y127.730 E0.70540
G1 X124.160 Y127.730 E0.01619
G1 X107.120 Y110.690 E0.72829
G1 X107.120 Y110.155 E0.01619
G1 X124.695 Y127.730 E0.75119
G1 X125.231 Y127.730 E0.01619
G1 X107.120 Y109.619 E0.77408
G1 X107.120 Y109.083 E0.01619
G1 X125.767 Y127.730 E0.79698
G1 X126.302 Y127.730 E0.01619
G1 X107.120 Y108.548 E0.81988
G1 X107.120 Y108.012 E0.01619
G1 X127.008 Y127.900 E0.85002
G1 F5760
G1 X125.456 Y126.348 E-0.76000
G1 E-0.04000 F2100.00000
G1 X129.686 Y127.900 F7200.000
G1 E0.80000 F2100.00000
G1 F2520
