; generated by Slic3r 1.33.8.devel on 2018-03-04 at 14:51:26

; 

; external perimeters extrusion width = 0.60mm
; perimeters extrusion width = 0.43mm
; infill extrusion width = 0.70mm
; solid infill extrusion width = 0.70mm
; top infill extrusion width = 0.43mm
; first layer extrusion width = 0.42mm

M107
M115 U3.0.12 ; tell printer latest fw version
M83  ; extruder relative mode
M104 S215 ; set extruder temp
M140 S55 ; set bed temp
M190 S55 ; wait for bed temp
M109 S215 ; wait for extruder temp
G28 W ; home all without mesh bed level
G80 ; mesh bed leveling
G1 Y-3.0 F1000.0 ; go outside pritn area
G1 X60.0 E9.0  F1000.0 ; intro line
G1 X100.0 E12.5  F1000.0 ; intro line
; Filament gcode

G21 ; set units to millimeters
G90 ; use absolute coordinates
M83 ; use relative distances for extrusion
G1 E-0.80000 F2100.00000
G1 Z0.200 F7200.000
G1 X85.627 Y50.106 F7200.000
G1 E0.80000 F2100.00000
M204 S1000
G1 F2100
G1 X85.924 Y49.478 E0.02089
G1 X86.299 Y49.043 E0.01726
G1 X86.766 Y48.711 E0.01726
G1 X87.300 Y48.500 E0.01726
G1 X87.868 Y48.423 E0.01726
G1 X162.104 Y48.423 E2.23299
G1 X163.002 Y48.601 E0.02755
G1 X163.767 Y49.105 E0.02755
G1 X164.284 Y49.862 E0.02755
G1 X164.477 Y50.757 E0.02755
G1 X164.477 Y159.208 E3.26218
G1 X164.373 Y159.894 E0.02089
G1 X164.076 Y160.522 E0.02089
G1 X163.701 Y160.957 E0.01726
G1 X163.230 Y161.291 E0.01737
G1 X162.693 Y161.502 E0.01737
G1 X162.120 Y161.577 E0.01737
G1 X87.889 Y161.577 E2.23287
G1 X87.206 Y161.473 E0.02078
G1 X86.578 Y161.176 E0.02089
G1 X86.141 Y160.799 E0.01737
G1 X85.807 Y160.327 E0.01737
G1 X85.597 Y159.789 E0.01737
G1 X85.523 Y159.216 E0.01737
G1 X85.523 Y50.792 E3.26138
G1 X85.618 Y50.165 E0.01909
G1 F5760
G1 X85.924 Y49.478 E-0.26052
G1 F5760
G1 X86.299 Y49.043 E-0.19872
G1 F5760
G1 X86.766 Y48.711 E-0.19872
G1 F5760
G1 X87.040 Y48.602 E-0.10203
G1 E-0.04000 F2100.00000
G1 X98.159 Y73.615 F7200.000
G1 E0.80000 F2100.00000
G1 F840
G1 X98.812 Y73.387 E0.02082
G1 X99.461 Y73.314 E0.01965
G1 X100.184 Y73.385 E0.02185
G1 X100.841 Y73.615 E0.02094
G1 X101.427 Y73.983 E0.02082
G1 X101.917 Y74.473 E0.02082
G1 X102.285 Y75.059 E0.02082
G1 X102.513 Y75.712 E0.02082
G1 X102.591 Y76.400 E0.02082
G1 X102.513 Y77.088 E0.02082
G1 X102.283 Y77.745 E0.02094
G1 X101.889 Y78.355 E0.02185
G1 X101.427 Y78.817 E0.01965
G1 X100.841 Y79.185 E0.02082
G1 X100.188 Y79.413 E0.02082
G1 X99.500 Y79.491 E0.02082
G1 X98.812 Y79.413 E0.02082
G1 X98.159 Y79.185 E0.02082
G1 X97.573 Y78.817 E0.02082
G1 X97.084 Y78.327 E0.02082
G1 X96.715 Y77.741 E0.02082
G1 X96.487 Y77.088 E0.02082
G1 X96.409 Y76.396 E0.02094
G1 X96.500 Y75.676 E0.02185
G1 X96.715 Y75.059 E0.01965
G1 X97.084 Y74.473 E0.02082
G1 X97.573 Y73.983 E0.02082
G1 X98.108 Y73.647 E0.01901
G1 X98.309 Y73.967 F7200.000
G1 F840
G1 X98.897 Y73.757 E0.01878
G1 X99.464 Y73.693 E0.01717
G1 X100.102 Y73.756 E0.01929
G1 X100.676 Y73.957 E0.01830
G1 X101.190 Y74.280 E0.01826
G1 X101.620 Y74.710 E0.01827
G1 X101.943 Y75.224 E0.01826
G1 X102.143 Y75.797 E0.01826
G1 X102.211 Y76.400 E0.01826
G1 X102.143 Y77.003 E0.01826
G1 X101.942 Y77.578 E0.01830
G1 X101.594 Y78.116 E0.01929
G1 X101.190 Y78.520 E0.01717
G1 X100.676 Y78.843 E0.01826
G1 X100.103 Y79.043 E0.01826
G1 X99.500 Y79.111 E0.01826
G1 X98.897 Y79.043 E0.01826
G1 X98.324 Y78.843 E0.01826
G1 X97.810 Y78.520 E0.01826
G1 X97.380 Y78.090 E0.01826
G1 X97.057 Y77.576 E0.01826
G1 X96.857 Y77.003 E0.01826
G1 X96.789 Y76.399 E0.01830
G1 X96.869 Y75.762 E0.01929
G1 X97.057 Y75.224 E0.01717
G1 X97.380 Y74.710 E0.01826
G1 X97.810 Y74.280 E0.01826
G1 X98.258 Y73.998 E0.01593
G1 X98.337 Y73.568 F7200.000
G1 F5760
G1 X98.897 Y73.757 E-0.23654
G1 F5760
G1 X99.464 Y73.693 E-0.19769
G1 F5760
G1 X100.102 Y73.756 E-0.22212
G1 F5760
G1 X100.384 Y73.855 E-0.10365
G1 E-0.04000 F2100.00000
G1 X88.487 Y51.387 F7200.000
G1 E0.80000 F2100.00000
G1 F1680
G1 X161.513 Y51.387 E2.19661
G1 X161.513 Y101.413 E1.50477
G1 X88.487 Y101.413 E2.19661
G1 X88.487 Y51.447 E1.50296
G1 X88.110 Y51.010 F7200.000
G1 F1260
G1 X161.890 Y51.010 E2.21929
G1 X161.890 Y101.790 E1.52745
G1 X88.110 Y101.790 E2.21929
G1 X88.110 Y51.070 E1.52565
G1 X88.502 Y51.090 F7200.000
G1 F5760
G1 X90.304 Y51.068 E-0.76000
G1 E-0.04000 F2100.00000
G1 X96.518 Y77.520 F7200.000
G1 E0.80000 F2100.00000
G1 F2520
G1 X88.770 Y69.772 E0.32967
G1 X88.770 Y69.238 E0.01605
G1 X96.149 Y76.618 E0.31397
G1 X96.124 Y76.394 E0.00677
G1 X96.161 Y76.097 E0.00902
G1 X88.770 Y68.705 E0.31449
G1 X88.770 Y68.172 E0.01605
G1 X96.221 Y75.623 E0.31703
G1 X96.357 Y75.226 E0.01263
G1 X88.770 Y67.638 E0.32283
G1 X88.770 Y67.105 E0.01605
G1 X96.513 Y74.849 E0.32947
G1 X96.719 Y74.521 E0.01164
G1 X88.770 Y66.572 E0.33823
G1 X88.770 Y66.038 E0.01605
G1 X96.944 Y74.212 E0.34779
G1 X97.211 Y73.946 E0.01135
G1 X88.770 Y65.505 E0.35914
G1 X88.770 Y64.971 E0.01605
G1 X97.496 Y73.698 E0.37128
G1 X97.824 Y73.492 E0.01164
G1 X88.770 Y64.438 E0.38522
G1 X88.770 Y63.905 E0.01605
G1 X98.175 Y73.310 E0.40017
G1 X98.570 Y73.172 E0.01259
G1 X88.770 Y63.371 E0.41698
G1 X88.770 Y62.838 E0.01605
G1 X99.012 Y73.080 E0.43576
G1 X99.498 Y73.033 E0.01471
G1 X88.770 Y62.305 E0.45646
G1 X88.770 Y61.771 E0.01605
G1 X100.091 Y73.092 E0.48166
G1 X100.246 Y73.107 E0.00469
G1 X100.851 Y73.319 E0.01930
G1 X88.770 Y61.238 E0.51403
G1 X88.770 Y60.705 E0.01605
G1 X129.195 Y101.130 E1.72000
G1 X129.729 Y101.130 E0.01605
G1 X88.770 Y60.171 E1.74270
G1 X88.770 Y59.638 E0.01605
G1 X130.262 Y101.130 E1.76539
G1 X130.796 Y101.130 E0.01605
G1 X88.770 Y59.104 E1.78808
G1 X88.770 Y58.571 E0.01605
G1 X131.329 Y101.130 E1.81078
G1 X131.862 Y101.130 E0.01605
G1 X88.770 Y58.038 E1.83347
G1 X88.770 Y57.504 E0.01605
G1 X132.396 Y101.130 E1.85616
G1 X132.929 Y101.130 E0.01605
G1 X88.770 Y56.971 E1.87886
G1 X88.770 Y56.438 E0.01605
G1 X133.462 Y101.130 E1.90155
G1 X133.996 Y101.130 E0.01605
G1 X88.770 Y55.904 E1.92424
G1 X88.770 Y55.371 E0.01605
G1 X134.529 Y101.130 E1.94694
G1 X135.062 Y101.130 E0.01605
G1 X88.770 Y54.838 E1.96963
G1 X88.770 Y54.304 E0.01605
G1 X135.596 Y101.130 E1.99232
G1 X136.129 Y101.130 E0.01605
G1 X88.770 Y53.771 E2.01502
G1 X88.770 Y53.237 E0.01605
G1 X136.663 Y101.130 E2.03771
G1 X137.196 Y101.130 E0.01605
G1 X88.770 Y52.704 E2.06040
G1 X88.770 Y52.171 E0.01605
G1 X137.729 Y101.130 E2.08310
G1 X138.263 Y101.130 E0.01605
G1 X88.802 Y51.670 E2.10440
G1 X89.336 Y51.670 E0.01605
G1 X138.796 Y101.130 E2.10440
G1 X139.329 Y101.130 E0.01605
G1 X89.869 Y51.670 E2.10440
G1 X90.403 Y51.670 E0.01605
G1 X139.863 Y101.130 E2.10440
G1 X140.396 Y101.130 E0.01605
G1 X90.936 Y51.670 E2.10440
G1 X91.469 Y51.670 E0.01605
G1 X140.930 Y101.130 E2.10440
G1 X141.463 Y101.130 E0.01605
G1 X92.003 Y51.670 E2.10440
G1 X92.536 Y51.670 E0.01605
G1 X141.996 Y101.130 E2.10440
G1 X142.530 Y101.130 E0.01605
G1 X93.069 Y51.670 E2.10440
G1 X93.603 Y51.670 E0.01605
G1 X143.063 Y101.130 E2.10440
G1 X143.596 Y101.130 E0.01605
G1 X94.136 Y51.670 E2.10440
G1 X94.669 Y51.670 E0.01605
G1 X144.130 Y101.130 E2.10440
G1 X144.663 Y101.130 E0.01605
G1 X95.203 Y51.670 E2.10440
G1 X95.736 Y51.670 E0.01605
G1 X145.196 Y101.130 E2.10440
G1 X145.730 Y101.130 E0.01605
G1 X96.270 Y51.670 E2.10440
G1 X96.803 Y51.670 E0.01605
G1 X146.263 Y101.130 E2.10440
G1 X146.797 Y101.130 E0.01605
G1 X97.336 Y51.670 E2.10440
G1 X97.870 Y51.670 E0.01605
G1 X147.330 Y101.130 E2.10440
G1 X147.863 Y101.130 E0.01605
G1 X98.403 Y51.670 E2.10440
G1 X98.936 Y51.670 E0.01605
G1 X148.397 Y101.130 E2.10440
G1 X148.930 Y101.130 E0.01605
G1 X99.470 Y51.670 E2.10440
G1 X100.003 Y51.670 E0.01605
G1 X149.463 Y101.130 E2.10440
G1 X149.997 Y101.130 E0.01605
G1 X100.537 Y51.670 E2.10440
G1 X101.070 Y51.670 E0.01605
G1 X150.530 Y101.130 E2.10440
G1 X151.064 Y101.130 E0.01605
G1 X101.603 Y51.670 E2.10440
G1 X102.137 Y51.670 E0.01605
G1 X151.597 Y101.130 E2.10440
G1 X152.130 Y101.130 E0.01605
G1 X102.670 Y51.670 E2.10440
G1 X103.203 Y51.670 E0.01605
G1 X152.664 Y101.130 E2.10440
G1 X153.197 Y101.130 E0.01605
G1 X103.737 Y51.670 E2.10440
G1 X104.270 Y51.670 E0.01605
G1 X153.730 Y101.130 E2.10440
G1 X154.264 Y101.130 E0.01605
G1 X104.803 Y51.670 E2.10440
G1 X105.337 Y51.670 E0.01605
G1 X154.797 Y101.130 E2.10440
G1 X155.330 Y101.130 E0.01605
G1 X105.870 Y51.670 E2.10440
G1 X106.404 Y51.670 E0.01605
G1 X155.864 Y101.130 E2.10440
G1 X156.397 Y101.130 E0.01605
G1 X106.937 Y51.670 E2.10440
G1 X107.470 Y51.670 E0.01605
G1 X156.931 Y101.130 E2.10440
G1 X157.464 Y101.130 E0.01605
G1 X108.004 Y51.670 E2.10440
G1 X108.537 Y51.670 E0.01605
G1 X157.997 Y101.130 E2.10440
G1 X158.531 Y101.130 E0.01605
G1 X109.070 Y51.670 E2.10440
G1 X109.604 Y51.670 E0.01605
G1 X159.064 Y101.130 E2.10440
G1 X159.597 Y101.130 E0.01605
G1 X110.137 Y51.670 E2.10440
G1 X110.671 Y51.670 E0.01605
G1 X160.131 Y101.130 E2.10440
G1 X160.664 Y101.130 E0.01605
G1 X111.204 Y51.670 E2.10440
G1 X111.737 Y51.670 E0.01605
G1 X161.198 Y101.130 E2.10440
G1 X161.230 Y101.130 E0.00098
G1 X161.230 Y100.629 E0.01507
G1 X112.271 Y51.670 E2.08310
G1 X112.804 Y51.670 E0.01605
G1 X161.230 Y100.096 E2.06041
G1 X161.230 Y99.563 E0.01605
G1 X113.337 Y51.670 E2.03771
G1 X113.871 Y51.670 E0.01605
G1 X161.230 Y99.029 E2.01502
G1 X161.230 Y98.496 E0.01605
G1 X114.404 Y51.670 E1.99233
G1 X114.937 Y51.670 E0.01605
G1 X161.230 Y97.963 E1.96963
G1 X161.230 Y97.429 E0.01605
G1 X115.471 Y51.670 E1.94694
G1 X116.004 Y51.670 E0.01605
G1 X161.230 Y96.896 E1.92425
G1 X161.230 Y96.362 E0.01605
G1 X116.538 Y51.670 E1.90155
G1 X117.071 Y51.670 E0.01605
G1 X161.230 Y95.829 E1.87886
G1 X161.230 Y95.296 E0.01605
G1 X117.604 Y51.670 E1.85616
G1 X118.138 Y51.670 E0.01605
G1 X161.230 Y94.762 E1.83347
G1 X161.230 Y94.229 E0.01605
G1 X118.671 Y51.670 E1.81078
G1 X119.204 Y51.670 E0.01605
G1 X161.230 Y93.696 E1.78808
G1 X161.230 Y93.162 E0.01605
G1 X119.738 Y51.670 E1.76539
G1 X120.271 Y51.670 E0.01605
G1 X161.230 Y92.629 E1.74270
G1 X161.230 Y92.095 E0.01605
G1 X120.805 Y51.670 E1.72000
G1 X121.338 Y51.670 E0.01605
G1 X161.230 Y91.562 E1.69731
G1 X161.230 Y91.029 E0.01605
G1 X121.871 Y51.670 E1.67462
G1 X122.405 Y51.670 E0.01605
G1 X161.230 Y90.495 E1.65192
G1 X161.230 Y89.962 E0.01605
G1 X122.938 Y51.670 E1.62923
G1 X123.471 Y51.670 E0.01605
G1 X161.230 Y89.429 E1.60654
G1 X161.230 Y88.895 E0.01605
G1 X124.005 Y51.670 E1.58384
G1 X124.538 Y51.670 E0.01605
G1 X161.230 Y88.362 E1.56115
G1 X161.230 Y87.829 E0.01605
G1 X125.071 Y51.670 E1.53846
G1 X125.605 Y51.670 E0.01605
G1 X161.230 Y87.295 E1.51576
G1 X161.230 Y86.762 E0.01605
G1 X126.138 Y51.670 E1.49307
G1 X126.672 Y51.670 E0.01605
G1 X161.230 Y86.228 E1.47038
G1 X161.230 Y85.695 E0.01605
G1 X127.205 Y51.670 E1.44768
G1 X127.738 Y51.670 E0.01605
G1 X161.230 Y85.162 E1.42499
G1 X161.230 Y84.628 E0.01605
G1 X128.272 Y51.670 E1.40230
G1 X128.805 Y51.670 E0.01605
G1 X161.230 Y84.095 E1.37960
G1 X161.230 Y83.562 E0.01605
G1 X129.338 Y51.670 E1.35691
G1 X129.872 Y51.670 E0.01605
G1 X161.230 Y83.028 E1.33422
G1 X161.230 Y82.495 E0.01605
G1 X130.405 Y51.670 E1.31152
G1 X130.938 Y51.670 E0.01605
G1 X161.230 Y81.962 E1.28883
G1 X161.230 Y81.428 E0.01605
G1 X131.472 Y51.670 E1.26614
G1 X132.005 Y51.670 E0.01605
G1 X161.230 Y80.895 E1.24344
G1 X161.230 Y80.361 E0.01605
G1 X132.539 Y51.670 E1.22075
G1 X133.072 Y51.670 E0.01605
G1 X161.230 Y79.828 E1.19806
G1 X161.230 Y79.295 E0.01605
G1 X133.605 Y51.670 E1.17536
G1 X134.139 Y51.670 E0.01605
G1 X161.230 Y78.761 E1.15267
G1 X161.230 Y78.228 E0.01605
G1 X134.672 Y51.670 E1.12998
G1 X135.205 Y51.670 E0.01605
G1 X161.230 Y77.695 E1.10728
G1 X161.230 Y77.161 E0.01605
G1 X135.739 Y51.670 E1.08459
G1 X136.272 Y51.670 E0.01605
G1 X161.230 Y76.628 E1.06190
G1 X161.230 Y76.094 E0.01605
G1 X136.806 Y51.670 E1.03920
G1 X137.339 Y51.670 E0.01605
G1 X161.230 Y75.561 E1.01651
G1 X161.230 Y75.028 E0.01605
G1 X137.872 Y51.670 E0.99382
G1 X138.406 Y51.670 E0.01605
G1 X161.230 Y74.494 E0.97112
G1 X161.230 Y73.961 E0.01605
G1 X138.939 Y51.670 E0.94843
G1 X139.472 Y51.670 E0.01605
G1 X161.230 Y73.428 E0.92574
G1 X161.230 Y72.894 E0.01605
G1 X140.006 Y51.670 E0.90304
G1 X140.539 Y51.670 E0.01605
G1 X161.230 Y72.361 E0.88035
G1 X161.230 Y71.828 E0.01605
G1 X141.072 Y51.670 E0.85766
G1 X141.606 Y51.670 E0.01605
G1 X161.230 Y71.294 E0.83496
G1 X161.230 Y70.761 E0.01605
G1 X142.139 Y51.670 E0.81227
G1 X142.673 Y51.670 E0.01605
G1 X161.230 Y70.227 E0.78958
G1 X161.230 Y69.694 E0.01605
G1 X143.206 Y51.670 E0.76688
G1 X143.739 Y51.670 E0.01605
G1 X161.230 Y69.161 E0.74419
G1 X161.230 Y68.627 E0.01605
G1 X144.273 Y51.670 E0.72149
G1 X144.806 Y51.670 E0.01605
G1 X161.230 Y68.094 E0.69880
G1 X161.230 Y67.561 E0.01605
G1 X145.339 Y51.670 E0.67611
G1 X145.873 Y51.670 E0.01605
G1 X161.230 Y67.027 E0.65341
G1 X161.230 Y66.494 E0.01605
G1 X146.406 Y51.670 E0.63072
G1 X146.940 Y51.670 E0.01605
G1 X161.230 Y65.960 E0.60803
G1 X161.230 Y65.427 E0.01605
G1 X147.473 Y51.670 E0.58533
G1 X148.006 Y51.670 E0.01605
G1 X161.230 Y64.894 E0.56264
G1 X161.230 Y64.360 E0.01605
G1 X148.540 Y51.670 E0.53995
G1 X149.073 Y51.670 E0.01605
G1 X161.230 Y63.827 E0.51725
G1 X161.230 Y63.294 E0.01605
G1 X149.606 Y51.670 E0.49456
G1 X150.140 Y51.670 E0.01605
G1 X161.230 Y62.760 E0.47187
G1 X161.230 Y62.227 E0.01605
G1 X150.673 Y51.670 E0.44917
G1 X151.206 Y51.670 E0.01605
G1 X161.230 Y61.694 E0.42648
G1 X161.230 Y61.160 E0.01605
G1 X151.740 Y51.670 E0.40379
G1 X152.273 Y51.670 E0.01605
G1 X161.230 Y60.627 E0.38109
G1 X161.230 Y60.093 E0.01605
G1 X152.807 Y51.670 E0.35840
G1 X153.340 Y51.670 E0.01605
G1 X161.230 Y59.560 E0.33571
G1 X161.230 Y59.027 E0.01605
G1 X153.873 Y51.670 E0.31301
G1 X154.407 Y51.670 E0.01605
G1 X161.230 Y58.493 E0.29032
G1 X161.230 Y57.960 E0.01605
G1 X154.940 Y51.670 E0.26763
G1 X155.473 Y51.670 E0.01605
G1 X161.230 Y57.427 E0.24493
G1 X161.230 Y56.893 E0.01605
G1 X156.007 Y51.670 E0.22224
G1 X156.540 Y51.670 E0.01605
G1 X161.230 Y56.360 E0.19955
G1 X161.230 Y55.826 E0.01605
G1 X157.074 Y51.670 E0.17685
G1 X157.607 Y51.670 E0.01605
G1 X161.230 Y55.293 E0.15416
G1 X161.230 Y54.760 E0.01605
G1 X158.140 Y51.670 E0.13147
G1 X158.674 Y51.670 E0.01605
G1 X161.230 Y54.226 E0.10877
G1 X161.230 Y53.693 E0.01605
G1 X159.207 Y51.670 E0.08608
G1 X159.740 Y51.670 E0.01605
G1 X161.230 Y53.160 E0.06339
G1 X161.230 Y52.626 E0.01605
G1 X160.274 Y51.670 E0.04069
G1 X160.807 Y51.670 E0.01605
G1 X161.400 Y52.263 E0.02522
G1 F5760
G1 X160.807 Y51.670 E-0.29033
G1 F5760
G1 X160.274 Y51.670 E-0.18473
G1 F5760
G1 X160.855 Y52.252 E-0.28493
G1 E-0.04000 F2100.00000
G1 X128.832 Y101.300 F7200.000
G1 E0.80000 F2100.00000
G1 F2520
G1 X102.581 Y75.049 E1.11691
G1 X102.791 Y75.649 E0.01913
G1 X102.809 Y75.810 E0.00489
G1 X128.129 Y101.130 E1.07729
G1 X127.595 Y101.130 E0.01605
G1 X102.874 Y76.409 E1.05181
G1 X102.820 Y76.888 E0.01451
G1 X127.062 Y101.130 E1.03142
G1 X126.529 Y101.130 E0.01605
G1 X102.728 Y77.330 E1.01264
G1 X102.590 Y77.725 E0.01259
G1 X125.995 Y101.130 E0.99583
G1 X125.462 Y101.130 E0.01605
G1 X102.407 Y78.075 E0.98094
G1 X102.197 Y78.399 E0.01160
G1 X124.929 Y101.130 E0.96716
G1 X124.395 Y101.130 E0.01605
G1 X101.954 Y78.689 E0.95480
G1 X101.688 Y78.956 E0.01135
G1 X123.862 Y101.130 E0.94345
G1 X123.328 Y101.130 E0.01605
G1 X101.379 Y79.181 E0.93389
G1 X101.051 Y79.386 E0.01164
G1 X122.795 Y101.130 E0.92513
G1 X122.262 Y101.130 E0.01605
G1 X100.674 Y79.543 E0.91849
G1 X100.279 Y79.681 E0.01259
G1 X121.728 Y101.130 E0.91261
G1 X121.195 Y101.130 E0.01605
G1 X99.806 Y79.741 E0.91005
G1 X99.500 Y79.775 E0.00926
G1 X99.282 Y79.751 E0.00659
G1 X120.662 Y101.130 E0.90963
G1 X120.128 Y101.130 E0.01605
G1 X98.380 Y79.382 E0.92533
G1 F5760
G1 X99.931 Y80.933 E-0.76000
G1 E-0.04000 F2100.00000
G1 X89.363 Y101.300 F7200.000
G1 E0.80000 F2100.00000
G1 F2520
G1 X88.770 Y100.707 E0.02522
G1 X88.770 Y100.174 E0.01605
G1 X89.726 Y101.130 E0.04069
G1 X90.260 Y101.130 E0.01605
G1 X88.770 Y99.640 E0.06338
G1 X88.770 Y99.107 E0.01605
G1 X90.793 Y101.130 E0.08608
G1 X91.326 Y101.130 E0.01605
G1 X88.770 Y98.574 E0.10877
G1 X88.770 Y98.040 E0.01605
G1 X91.860 Y101.130 E0.13146
G1 X92.393 Y101.130 E0.01605
G1 X88.770 Y97.507 E0.15416
G1 X88.770 Y96.974 E0.01605
G1 X92.926 Y101.130 E0.17685
G1 X93.460 Y101.130 E0.01605
G1 X88.770 Y96.440 E0.19954
