; generated by Slic3r 1.33.8.devel on 2017-09-21 at 19:37:05

; 

; external perimeters extrusion width = 0.45mm
; perimeters extrusion width = 0.45mm
; infill extrusion width = 0.45mm
; solid infill extrusion width = 0.45mm
; top infill extrusion width = 0.40mm
; first layer extrusion width = 0.42mm

M107
M115 U3.0.12 ; tell printer latest fw version
M83  ; extruder relative mode
M104 S215 ; set extruder temp
M140 S55 ; set bed temp
M190 S55 ; wait for bed temp
M109 S215 ; wait for extruder temp
G28 W ; home all without mesh bed level
G80 ; mesh bed leveling
G1 Y-3.0 F1000.0 ; go outside pritn area
G1 X60.0 E9.0  F1000.0 ; intro line
G1 X100.0 E12.5  F1000.0 ; intro line
; Filament gcode

G21 ; set units to millimeters
G90 ; use absolute coordinates
M83 ; use relative distances for extrusion
G1 E-0.80000 F2100.00000
G1 Z0.200 F7200.000
G1 X17.422 Y14.230 F7200.000
G1 E0.80000 F2100.00000
M204 S1000
G1 F2100
G1 X21.856 Y12.013 E0.14911
G1 X26.191 Y10.866 E0.13490
G1 X30.787 Y10.615 E0.13844
G1 X35.563 Y11.355 E0.14539
G1 X39.974 Y13.047 E0.14210
G1 X43.943 Y15.623 E0.14232
G1 X47.262 Y18.936 E0.14107
G1 X152.760 Y148.759 E5.03187
G1 X153.189 Y149.548 E0.02701
G1 X153.358 Y150.061 E0.01623
G1 X153.451 Y152.110 E0.06171
G1 X153.037 Y153.470 E0.04275
G1 X152.542 Y154.365 E0.03077
G1 X151.685 Y155.446 E0.04152
G1 X150.818 Y156.059 E0.03192
G1 X149.914 Y156.546 E0.03090
G1 X148.555 Y156.925 E0.04243
G1 X146.577 Y156.814 E0.05960
G1 X145.739 Y156.488 E0.02703
G1 X145.288 Y156.213 E0.01589
G1 X15.494 Y50.738 E5.03076
G1 X12.185 Y47.433 E0.14068
G1 X9.494 Y43.229 E0.15014
G1 X7.897 Y39.034 E0.13501
G1 X7.182 Y34.603 E0.13501
G1 X7.405 Y29.651 E0.14912
G1 X8.724 Y24.868 E0.14923
G1 X10.772 Y20.879 E0.13489
G1 X13.586 Y17.382 E0.13501
G1 X17.375 Y14.268 E0.14754
G1 F5760
G1 X19.336 Y13.282 E-0.76000
G1 E-0.04000 F2100.00000
G1 X19.479 Y17.409 F7200.000
G1 E0.80000 F2100.00000
G1 F1680
G1 X22.983 Y15.623 E0.11831
G1 X26.831 Y14.604 E0.11973
G1 X30.708 Y14.400 E0.11678
G1 X34.592 Y15.015 E0.11828
G1 X38.263 Y16.425 E0.11829
G1 X41.561 Y18.566 E0.11829
G1 X44.342 Y21.347 E0.11829
G1 X46.483 Y24.645 E0.11829
G1 X47.893 Y28.316 E0.11829
G1 X48.508 Y32.200 E0.11829
G1 X48.302 Y36.127 E0.11828
G1 X47.284 Y39.926 E0.11829
G1 X45.499 Y43.429 E0.11828
G1 X43.024 Y46.485 E0.11829
G1 X39.968 Y48.960 E0.11829
G1 X36.509 Y50.723 E0.11678
G1 X32.667 Y51.763 E0.11973
G1 X28.739 Y51.969 E0.11831
G1 X24.855 Y51.354 E0.11829
G1 X21.184 Y49.944 E0.11829
G1 X17.886 Y47.803 E0.11829
G1 X15.105 Y45.022 E0.11829
G1 X12.964 Y41.724 E0.11829
G1 X11.554 Y38.053 E0.11829
G1 X10.939 Y34.169 E0.11828
G1 X11.145 Y30.242 E0.11828
G1 X12.163 Y26.444 E0.11829
G1 X13.948 Y22.940 E0.11828
G1 X16.423 Y19.884 E0.11829
G1 X19.432 Y17.447 E0.11648
G1 X19.670 Y17.740 F7200.000
G1 F1260
G1 X23.119 Y15.978 E0.11651
G1 X26.890 Y14.978 E0.11735
G1 X30.688 Y14.779 E0.11441
G1 X34.494 Y15.382 E0.11590
G1 X38.091 Y16.763 E0.11590
G1 X41.323 Y18.861 E0.11590
G1 X44.047 Y21.586 E0.11590
G1 X46.146 Y24.817 E0.11590
G1 X47.526 Y28.414 E0.11590
G1 X48.129 Y32.220 E0.11590
G1 X47.928 Y36.068 E0.11590
G1 X46.930 Y39.790 E0.11590
G1 X45.181 Y43.223 E0.11590
G1 X42.756 Y46.217 E0.11590
G1 X39.762 Y48.642 E0.11590
G1 X36.373 Y50.369 E0.11441
G1 X32.607 Y51.389 E0.11735
G1 X28.759 Y51.590 E0.11591
G1 X24.953 Y50.987 E0.11590
G1 X21.356 Y49.607 E0.11590
G1 X18.125 Y47.508 E0.11590
G1 X15.400 Y44.784 E0.11590
G1 X13.302 Y41.552 E0.11590
G1 X11.921 Y37.955 E0.11590
G1 X11.318 Y34.149 E0.11590
G1 X11.520 Y30.301 E0.11590
G1 X12.517 Y26.580 E0.11590
G1 X14.266 Y23.146 E0.11590
G1 X16.691 Y20.152 E0.11590
G1 X19.623 Y17.778 E0.11348
G1 X19.648 Y17.341 F7200.000
G1 F5760
G1 X21.574 Y16.773 E-0.76000
G1 E-0.04000 F2100.00000
G1 X44.830 Y45.550 F7200.000
G1 E0.80000 F2100.00000
G1 F1680
G1 X46.931 Y47.586 E0.08800
G1 X49.396 Y50.033 E0.10446
G1 X149.965 Y150.602 E4.27816
G1 X149.082 Y152.252 E0.05630
G1 X148.962 Y152.423 E0.00627
G1 X148.791 Y152.543 E0.00627
G1 X147.141 Y153.426 E0.05630
G1 X46.572 Y52.857 E4.27816
G1 X44.125 Y50.392 E0.10446
G1 X42.089 Y48.291 E0.08800
G1 X40.415 Y49.647 E0.06481
G1 X36.758 Y51.510 E0.12344
G1 X32.794 Y52.572 E0.12344
G1 X28.696 Y52.787 E0.12344
G1 X24.643 Y52.145 E0.12344
G1 X20.812 Y50.675 E0.12344
G1 X17.370 Y48.440 E0.12344
G1 X14.469 Y45.538 E0.12344
G1 X12.234 Y42.096 E0.12344
G1 X10.780 Y38.310 E0.12198
G1 X10.121 Y34.211 E0.12489
G1 X10.336 Y30.114 E0.12342
G1 X11.398 Y26.150 E0.12344
G1 X13.261 Y22.494 E0.12344
G1 X15.843 Y19.304 E0.12344
G1 X19.033 Y16.722 E0.12344
G1 X22.689 Y14.859 E0.12344
G1 X26.653 Y13.797 E0.12344
G1 X30.751 Y13.582 E0.12344
G1 X34.756 Y14.216 E0.12198
G1 X38.636 Y15.695 E0.12488
G1 X42.077 Y17.930 E0.12342
G1 X44.979 Y20.831 E0.12344
G1 X47.214 Y24.273 E0.12344
G1 X48.684 Y28.104 E0.12344
G1 X49.326 Y32.157 E0.12344
G1 X49.111 Y36.255 E0.12344
G1 X48.049 Y40.219 E0.12344
G1 X46.186 Y43.876 E0.12344
G1 X44.868 Y45.503 E0.06301
G1 X45.340 Y45.519 F7200.000
G1 F1260
G1 X47.195 Y47.317 E0.07769
G1 X49.662 Y49.766 E0.10455
G1 X150.355 Y150.458 E4.28340
G1 X150.365 Y150.621 E0.00491
G1 X150.346 Y150.690 E0.00214
G1 X149.404 Y152.450 E0.06006
G1 X149.233 Y152.694 E0.00896
G1 X148.989 Y152.865 E0.00896
G1 X147.229 Y153.807 E0.06006
G1 X147.160 Y153.826 E0.00214
G1 X146.997 Y153.816 E0.00491
G1 X46.305 Y53.123 E4.28340
G1 X43.856 Y50.656 E0.10455
G1 X42.058 Y48.801 E0.07769
G1 X40.621 Y49.965 E0.05563
G1 X36.894 Y51.864 E0.12582
G1 X32.854 Y52.947 E0.12582
G1 X28.676 Y53.166 E0.12582
G1 X24.545 Y52.511 E0.12582
G1 X20.640 Y51.012 E0.12582
G1 X17.132 Y48.734 E0.12582
G1 X14.174 Y45.776 E0.12582
G1 X11.896 Y42.268 E0.12582
G1 X10.414 Y38.409 E0.12435
G1 X9.742 Y34.231 E0.12727
G1 X9.961 Y30.055 E0.12581
G1 X11.044 Y26.014 E0.12582
G1 X12.943 Y22.287 E0.12582
G1 X15.575 Y19.036 E0.12582
G1 X18.826 Y16.404 E0.12582
G1 X22.553 Y14.505 E0.12582
G1 X26.594 Y13.422 E0.12582
G1 X30.771 Y13.203 E0.12582
G1 X34.854 Y13.850 E0.12435
G1 X38.807 Y15.357 E0.12727
G1 X42.315 Y17.635 E0.12581
G1 X45.273 Y20.593 E0.12582
G1 X47.551 Y24.101 E0.12582
G1 X49.050 Y28.006 E0.12582
G1 X49.705 Y32.137 E0.12582
G1 X49.486 Y36.315 E0.12582
G1 X48.403 Y40.355 E0.12582
G1 X46.504 Y44.082 E0.12582
G1 X45.378 Y45.473 E0.05382
G1 X45.085 Y45.827 F7200.000
G1 X44.717 Y45.510 F7200.000
G1 F1680
G1 X44.419 Y45.212 E0.01268
G1 X44.658 Y44.918 E0.01141
G1 X44.835 Y45.095 E0.00754
G1 X45.074 Y44.800 E0.01141
G1 X44.896 Y44.623 E0.00754
G1 X45.135 Y44.328 E0.01141
G1 X45.312 Y44.505 E0.00754
G1 X45.551 Y44.211 E0.01141
G1 X45.374 Y44.033 E0.00754
G1 X45.612 Y43.739 E0.01141
G1 X45.790 Y43.916 E0.00754
G1 X45.948 Y43.721 E0.00756
G1 X46.009 Y43.601 E0.00403
G1 X45.823 Y43.416 E0.00789
G1 X46.003 Y43.062 E0.01194
G1 X46.189 Y43.248 E0.00789
G1 X46.369 Y42.894 E0.01194
G1 X46.183 Y42.709 E0.00789
G1 X46.363 Y42.356 E0.01194
G1 X46.549 Y42.541 E0.00789
G1 X46.729 Y42.188 E0.01194
G1 X46.544 Y42.002 E0.00789
G1 X46.724 Y41.649 E0.01194
G1 X46.909 Y41.834 E0.00789
G1 X47.089 Y41.481 E0.01194
G1 X46.904 Y41.295 E0.00789
G1 X47.084 Y40.942 E0.01194
G1 X47.269 Y41.127 E0.00789
G1 X47.449 Y40.774 E0.01194
G1 X47.264 Y40.589 E0.00789
G1 X47.444 Y40.235 E0.01194
G1 X47.629 Y40.420 E0.00789
G1 X47.784 Y40.117 E0.01024
G1 X47.800 Y40.058 E0.00186
G1 X47.596 Y39.854 E0.00866
G1 X47.709 Y39.433 E0.01311
G1 X47.913 Y39.637 E0.00866
G1 X48.025 Y39.216 E0.01311
G1 X47.822 Y39.012 E0.00866
G1 X47.934 Y38.592 E0.01311
G1 X48.138 Y38.795 E0.00866
G1 X48.251 Y38.375 E0.01311
G1 X48.047 Y38.171 E0.00866
G1 X48.160 Y37.750 E0.01311
G1 X48.364 Y37.954 E0.00866
G1 X48.476 Y37.533 E0.01311
G1 X48.273 Y37.329 E0.00867
G1 X48.385 Y36.909 E0.01311
G1 X48.589 Y37.112 E0.00867
G1 X48.702 Y36.692 E0.01311
G1 X48.498 Y36.488 E0.00867
G1 X48.583 Y36.172 E0.00986
G1 X48.589 Y36.046 E0.00379
G1 X48.814 Y36.271 E0.00958
G1 X48.831 Y36.211 E0.00187
G1 X48.853 Y35.776 E0.01310
G1 X48.616 Y35.539 E0.01010
G1 X48.643 Y35.032 E0.01528
G1 X48.880 Y35.269 E0.01010
G1 X48.906 Y34.762 E0.01528
G1 X48.669 Y34.525 E0.01010
G1 X48.696 Y34.018 E0.01528
G1 X48.933 Y34.255 E0.01010
G1 X48.960 Y33.748 E0.01528
G1 X48.722 Y33.511 E0.01010
G1 X48.749 Y33.004 E0.01528
G1 X48.986 Y33.241 E0.01010
G1 X49.013 Y32.735 E0.01528
G1 X48.775 Y32.497 E0.01010
G1 X48.792 Y32.185 E0.00940
G1 X48.753 Y31.942 E0.00743
G1 X49.039 Y32.228 E0.01217
G1 X49.042 Y32.172 E0.00167
G1 X48.953 Y31.608 E0.01720
G1 X48.653 Y31.308 E0.01277
G1 X48.552 Y30.674 E0.01931
G1 X48.852 Y30.974 E0.01277
G1 X48.752 Y30.340 E0.01931
G1 X48.452 Y30.040 E0.01277
G1 X48.352 Y29.406 E0.01931
G1 X48.652 Y29.706 E0.01277
G1 X48.551 Y29.072 E0.01931
G1 X48.251 Y28.772 E0.01277
G1 X48.167 Y28.243 E0.01613
G1 X48.113 Y28.100 E0.00460
G1 X48.451 Y28.438 E0.01439
G1 X48.410 Y28.178 E0.00794
G1 X48.214 Y27.668 E0.01644
G1 X47.780 Y27.234 E0.01845
G1 X47.448 Y26.368 E0.02791
G1 X47.881 Y26.802 E0.01845
G1 X47.549 Y25.936 E0.02791
G1 X47.115 Y25.502 E0.01845
G1 X46.783 Y24.637 E0.02791
G1 X47.512 Y25.365 E0.03100
G1 X47.179 Y24.499 F7200.000
G1 F1680
G1 X45.309 Y22.629 E0.07958
G1 F5760
G1 X46.861 Y24.181 E-0.76000
G1 E-0.04000 F2100.00000
G1 X45.335 Y21.588 F7200.000
G1 E0.80000 F2100.00000
G1 F1680
G1 X41.320 Y17.573 E0.17086
G1 F5760
G1 X42.872 Y19.125 E-0.76000
G1 E-0.04000 F2100.00000
G1 X40.279 Y17.599 F7200.000
G1 E0.80000 F2100.00000
G1 F1680
G1 X38.854 Y16.174 E0.06064
G1 X38.507 Y15.949 E0.01245
G1 X37.841 Y15.695 E0.02143
G1 X38.272 Y16.125 E0.01830
G1 X37.406 Y15.793 E0.02791
G1 X36.979 Y15.366 E0.01814
G1 X36.117 Y15.038 E0.02776
G1 X36.540 Y15.460 E0.01798
G1 X35.674 Y15.128 E0.02791
G1 X35.255 Y14.709 E0.01782
G1 X34.683 Y14.491 E0.01843
G1 X34.470 Y14.457 E0.00649
G1 X34.808 Y14.796 E0.01439
G1 X34.666 Y14.741 E0.00460
G1 X34.136 Y14.657 E0.01613
G1 X33.836 Y14.357 E0.01277
G1 X33.202 Y14.257 E0.01931
G1 X33.502 Y14.557 E0.01277
G1 X32.868 Y14.456 E0.01931
G1 X32.568 Y14.156 E0.01277
G1 X31.934 Y14.056 E0.01931
G1 X32.234 Y14.356 E0.01277
G1 X31.600 Y14.255 E0.01931
G1 X31.301 Y13.955 E0.01277
G1 X30.736 Y13.866 E0.01720
G1 X30.681 Y13.869 E0.00167
G1 X30.967 Y14.155 E0.01217
G1 X30.723 Y14.116 E0.00743
G1 X30.411 Y14.133 E0.00940
G1 X30.174 Y13.895 E0.01010
G1 X29.667 Y13.922 E0.01528
G1 X29.904 Y14.159 E0.01010
G1 X29.397 Y14.186 E0.01528
G1 X29.160 Y13.949 E0.01010
G1 X28.653 Y13.975 E0.01528
G1 X28.890 Y14.212 E0.01010
G1 X28.383 Y14.239 E0.01528
G1 X28.146 Y14.002 E0.01010
G1 X27.639 Y14.028 E0.01528
G1 X27.876 Y14.266 E0.01010
G1 X27.369 Y14.292 E0.01528
G1 X27.132 Y14.055 E0.01010
G1 X26.697 Y14.078 E0.01310
G1 X26.637 Y14.094 E0.00187
G1 X26.862 Y14.319 E0.00958
G1 X26.787 Y14.323 E0.00228
G1 X26.428 Y14.418 E0.01117
G1 X26.217 Y14.206 E0.00899
G1 X25.796 Y14.319 E0.01311
G1 X26.006 Y14.530 E0.00895
G1 X25.585 Y14.641 E0.01313
G1 X25.375 Y14.432 E0.00891
G1 X24.954 Y14.545 E0.01311
G1 X25.163 Y14.753 E0.00887
G1 X24.741 Y14.865 E0.01313
G1 X24.534 Y14.657 E0.00883
G1 X24.113 Y14.770 E0.01311
G1 X24.319 Y14.977 E0.00879
G1 X23.898 Y15.089 E0.01313
G1 X23.692 Y14.883 E0.00875
G1 X23.271 Y14.996 E0.01311
G1 X23.476 Y15.200 E0.00871
G1 X23.054 Y15.312 E0.01313
G1 X22.851 Y15.108 E0.00867
G1 X22.791 Y15.124 E0.00186
G1 X22.488 Y15.279 E0.01024
G1 X22.673 Y15.464 E0.00789
G1 X22.320 Y15.644 E0.01194
G1 X22.134 Y15.459 E0.00789
G1 X21.781 Y15.639 E0.01194
G1 X21.966 Y15.824 E0.00789
G1 X21.613 Y16.004 E0.01194
G1 X21.427 Y15.819 E0.00789
G1 X21.074 Y15.999 E0.01194
G1 X21.259 Y16.185 E0.00789
G1 X20.906 Y16.365 E0.01194
G1 X20.721 Y16.179 E0.00789
G1 X20.367 Y16.359 E0.01194
G1 X20.553 Y16.545 E0.00789
G1 X20.199 Y16.725 E0.01194
G1 X20.014 Y16.539 E0.00789
G1 X19.660 Y16.719 E0.01194
G1 X19.846 Y16.905 E0.00789
G1 X19.492 Y17.085 E0.01194
G1 X19.307 Y16.900 E0.00789
G1 X19.188 Y16.960 E0.00403
G1 X18.992 Y17.118 E0.00756
G1 X19.170 Y17.296 E0.00754
G1 X18.875 Y17.534 E0.01141
G1 X18.698 Y17.357 E0.00754
G1 X18.403 Y17.596 E0.01141
G1 X18.580 Y17.773 E0.00754
G1 X18.285 Y18.012 E0.01141
G1 X18.108 Y17.835 E0.00754
G1 X17.813 Y18.073 E0.01141
G1 X17.990 Y18.251 E0.00754
G1 X17.696 Y18.489 E0.01141
G1 X17.518 Y18.312 E0.00754
G1 X17.224 Y18.551 E0.01141
G1 X17.401 Y18.728 E0.00754
G1 X17.106 Y18.967 E0.01141
G1 X16.929 Y18.789 E0.00754
G1 X16.634 Y19.028 E0.01141
G1 X16.811 Y19.205 E0.00754
G1 X16.517 Y19.444 E0.01141
G1 X16.339 Y19.267 E0.00754
G1 X16.045 Y19.506 E0.01141
G1 X16.222 Y19.683 E0.00754
G1 X15.983 Y19.978 E0.01141
G1 X15.806 Y19.800 E0.00754
G1 X15.567 Y20.095 E0.01141
G1 X15.744 Y20.272 E0.00754
G1 X15.506 Y20.567 E0.01141
G1 X15.328 Y20.390 E0.00754
G1 X15.090 Y20.685 E0.01141
G1 X15.267 Y20.862 E0.00754
G1 X15.028 Y21.157 E0.01141
G1 X14.851 Y20.979 E0.00754
G1 X14.612 Y21.274 E0.01141
G1 X14.790 Y21.452 E0.00754
G1 X14.551 Y21.746 E0.01141
G1 X14.374 Y21.569 E0.00754
G1 X14.135 Y21.864 E0.01141
G1 X14.312 Y22.041 E0.00754
G1 X14.073 Y22.336 E0.01141
G1 X13.896 Y22.159 E0.00754
G1 X13.657 Y22.453 E0.01141
G1 X13.835 Y22.631 E0.00754
G1 X13.710 Y22.785 E0.00598
G1 X13.624 Y22.953 E0.00568
G1 X13.439 Y22.768 E0.00789
G1 X13.258 Y23.121 E0.01194
G1 X13.444 Y23.307 E0.00789
G1 X13.264 Y23.660 E0.01194
G1 X13.078 Y23.475 E0.00789
G1 X12.898 Y23.828 E0.01194
G1 X13.084 Y24.014 E0.00789
G1 X12.904 Y24.367 E0.01194
G1 X12.718 Y24.182 E0.00789
G1 X12.538 Y24.535 E0.01194
G1 X12.724 Y24.720 E0.00789
G1 X12.543 Y25.074 E0.01194
G1 X12.358 Y24.888 E0.00789
G1 X12.178 Y25.242 E0.01194
G1 X12.363 Y25.427 E0.00789
G1 X12.183 Y25.781 E0.01194
G1 X11.998 Y25.595 E0.00789
G1 X11.818 Y25.949 E0.01194
G1 X12.003 Y26.134 E0.00789
G1 X11.897 Y26.342 E0.00701
G1 X11.851 Y26.515 E0.00540
G1 X11.647 Y26.312 E0.00866
G1 X11.535 Y26.732 E0.01311
G1 X11.738 Y26.936 E0.00866
G1 X11.625 Y27.357 E0.01311
G1 X11.422 Y27.153 E0.00866
G1 X11.309 Y27.574 E0.01311
G1 X11.513 Y27.777 E0.00866
G1 X11.400 Y28.198 E0.01311
G1 X11.196 Y27.995 E0.00866
G1 X11.084 Y28.415 E0.01311
G1 X11.287 Y28.619 E0.00866
G1 X11.174 Y29.040 E0.01311
G1 X10.971 Y28.836 E0.00866
G1 X10.858 Y29.257 E0.01311
G1 X11.062 Y29.461 E0.00867
G1 X10.949 Y29.881 E0.01311
G1 X10.745 Y29.678 E0.00867
G1 X10.633 Y30.098 E0.01311
G1 X10.858 Y30.323 E0.00958
G1 X10.831 Y30.830 E0.01528
G1 X10.594 Y30.593 E0.01010
G1 X10.567 Y31.100 E0.01528
G1 X10.805 Y31.337 E0.01010
G1 X10.778 Y31.844 E0.01528
G1 X10.541 Y31.607 E0.01010
G1 X10.514 Y32.114 E0.01528
G1 X10.751 Y32.351 E0.01010
G1 X10.725 Y32.858 E0.01528
G1 X10.488 Y32.621 E0.01010
G1 X10.461 Y33.128 E0.01528
G1 X10.698 Y33.365 E0.01010
G1 X10.672 Y33.872 E0.01528
G1 X10.434 Y33.635 E0.01010
G1 X10.408 Y34.142 E0.01528
G1 X10.694 Y34.428 E0.01217
G1 X10.794 Y35.062 E0.01931
G1 X10.496 Y34.763 E0.01268
G1 X10.599 Y35.399 E0.01938
G1 X10.895 Y35.695 E0.01261
G1 X10.995 Y36.329 E0.01931
G1 X10.701 Y36.035 E0.01253
G1 X10.803 Y36.671 E0.01938
G1 X11.096 Y36.963 E0.01245
G1 X11.196 Y37.597 E0.01931
G1 X10.905 Y37.306 E0.01237
G1 X11.008 Y37.942 E0.01938
G1 X11.335 Y38.269 E0.01392
G1 X11.667 Y39.135 E0.02791
G1 X11.233 Y38.702 E0.01845
G1 X11.566 Y39.567 E0.02791
G1 X11.999 Y40.001 E0.01845
G1 X12.332 Y40.867 E0.02791
G1 X11.898 Y40.433 E0.01845
G1 X12.231 Y41.299 E0.02791
G1 X13.150 Y42.218 E0.03912
G1 X12.268 Y41.870 F7200.000
G1 F1680
G1 X14.138 Y43.740 E0.07958
G1 F5760
G1 X12.586 Y42.188 E-0.76000
G1 E-0.04000 F2100.00000
G1 X14.112 Y44.781 F7200.000
G1 E0.80000 F2100.00000
G1 F1680
G1 X18.127 Y48.796 E0.17085
G1 F5760
G1 X16.575 Y47.244 E-0.76000
G1 E-0.04000 F2100.00000
G1 X19.168 Y48.770 F7200.000
G1 E0.80000 F2100.00000
G1 F1680
G1 X21.038 Y50.640 E0.07958
G1 X20.690 Y49.758 F7200.000
G1 F1680
G1 X21.609 Y50.678 E0.03912
G1 X22.475 Y51.010 E0.02791
G1 X22.041 Y50.576 E0.01845
G1 X22.907 Y50.909 E0.02791
G1 X23.341 Y51.342 E0.01845
G1 X24.207 Y51.675 E0.02791
G1 X23.773 Y51.241 E0.01845
G1 X24.639 Y51.574 E0.02791
G1 X24.977 Y51.912 E0.01439
G1 X25.611 Y52.012 E0.01931
G1 X25.311 Y51.712 E0.01277
G1 X25.945 Y51.813 E0.01931
G1 X26.245 Y52.113 E0.01277
G1 X26.879 Y52.213 E0.01931
G1 X26.579 Y51.913 E0.01277
G1 X27.213 Y52.013 E0.01931
G1 X27.513 Y52.313 E0.01277
G1 X28.147 Y52.414 E0.01931
G1 X27.847 Y52.114 E0.01277
