; generated by Slic3r 1.33.8.devel on 2017-09-22 at 07:41:36

; 

; external perimeters extrusion width = 0.60mm
; perimeters extrusion width = 0.43mm
; infill extrusion width = 0.70mm
; solid infill extrusion width = 0.70mm
; top infill extrusion width = 0.43mm
; first layer extrusion width = 0.42mm

M107
M115 U3.0.12 ; tell printer latest fw version
M83  ; extruder relative mode
M104 S215 ; set extruder temp
M140 S55 ; set bed temp
M190 S55 ; wait for bed temp
M109 S215 ; wait for extruder temp
G28 W ; home all without mesh bed level
G80 ; mesh bed leveling
G1 Y-3.0 F1000.0 ; go outside pritn area
G1 X60.0 E9.0  F1000.0 ; intro line
G1 X100.0 E12.5  F1000.0 ; intro line
; Filament gcode

G21 ; set units to millimeters
G90 ; use absolute coordinates
M83 ; use relative distances for extrusion
G1 E-0.80000 F2100.00000
G1 Z0.200 F7200.000
G1 X30.267 Y32.594 F7200.000
G1 E0.80000 F2100.00000
M204 S1000
G1 F2100
G1 X34.103 Y29.442 E0.14935
G1 X38.537 Y27.225 E0.14911
G1 X42.872 Y26.077 E0.13490
G1 X47.468 Y25.827 E0.13844
G1 X52.244 Y26.567 E0.14539
G1 X56.655 Y28.258 E0.14210
G1 X60.624 Y30.835 E0.14232
G1 X63.943 Y34.148 E0.14107
G1 X169.635 Y163.898 E5.03383
G1 X170.134 Y164.837 E0.03201
G1 X170.303 Y165.354 E0.01635
G1 X170.443 Y167.829 E0.07458
G1 X169.962 Y169.532 E0.05322
G1 X169.189 Y170.687 E0.04180
G1 X168.803 Y171.096 E0.01692
G1 X167.430 Y172.006 E0.04953
G1 X165.743 Y172.444 E0.05244
G1 X163.343 Y172.291 E0.07234
G1 X162.838 Y172.122 E0.01601
G1 X161.895 Y171.618 E0.03218
G1 X32.173 Y65.948 E5.03277
G1 X28.866 Y62.645 E0.14060
G1 X26.175 Y58.441 E0.15014
G1 X24.578 Y54.246 E0.13501
G1 X23.863 Y49.815 E0.13501
G1 X24.086 Y44.863 E0.14912
G1 X25.405 Y40.080 E0.14923
G1 X27.453 Y36.090 E0.13489
G1 X30.229 Y32.641 E0.13320
G1 F5760
G1 X31.921 Y31.243 E-0.76000
G1 E-0.04000 F2100.00000
G1 X33.104 Y35.096 F7200.000
G1 E0.80000 F2100.00000
G1 F1680
G1 X36.160 Y32.621 E0.11829
G1 X39.664 Y30.835 E0.11831
G1 X43.512 Y29.815 E0.11973
G1 X47.389 Y29.612 E0.11678
G1 X51.273 Y30.227 E0.11828
G1 X54.944 Y31.637 E0.11829
G1 X58.242 Y33.778 E0.11829
G1 X61.023 Y36.559 E0.11829
G1 X63.164 Y39.857 E0.11829
G1 X64.574 Y43.528 E0.11829
G1 X65.189 Y47.412 E0.11829
G1 X64.983 Y51.339 E0.11828
G1 X63.965 Y55.137 E0.11829
G1 X62.180 Y58.641 E0.11828
G1 X59.705 Y61.697 E0.11829
G1 X56.649 Y64.172 E0.11829
G1 X53.190 Y65.934 E0.11678
G1 X49.348 Y66.975 E0.11973
G1 X45.420 Y67.181 E0.11831
G1 X41.536 Y66.566 E0.11829
G1 X37.865 Y65.156 E0.11829
G1 X34.567 Y63.015 E0.11829
G1 X31.786 Y60.234 E0.11829
G1 X29.645 Y56.936 E0.11829
G1 X28.235 Y53.265 E0.11829
G1 X27.620 Y49.381 E0.11828
G1 X27.826 Y45.454 E0.11828
G1 X28.844 Y41.655 E0.11829
G1 X30.629 Y38.152 E0.11828
G1 X33.066 Y35.142 E0.11648
G1 X33.359 Y35.380 F7200.000
G1 F1260
G1 X36.366 Y32.939 E0.11650
G1 X39.800 Y31.190 E0.11591
G1 X43.571 Y30.190 E0.11735
G1 X47.369 Y29.991 E0.11441
G1 X51.175 Y30.594 E0.11590
G1 X54.772 Y31.974 E0.11590
G1 X58.004 Y34.073 E0.11590
G1 X60.728 Y36.797 E0.11590
G1 X62.827 Y40.029 E0.11590
G1 X64.207 Y43.626 E0.11590
G1 X64.810 Y47.432 E0.11590
G1 X64.609 Y51.280 E0.11590
G1 X63.611 Y55.001 E0.11590
G1 X61.862 Y58.435 E0.11590
G1 X59.437 Y61.429 E0.11590
G1 X56.443 Y63.854 E0.11590
G1 X53.054 Y65.581 E0.11441
G1 X49.288 Y66.600 E0.11735
G1 X45.440 Y66.802 E0.11591
G1 X41.634 Y66.199 E0.11590
G1 X38.037 Y64.818 E0.11590
G1 X34.806 Y62.720 E0.11590
G1 X32.081 Y59.995 E0.11590
G1 X29.983 Y56.764 E0.11590
G1 X28.602 Y53.167 E0.11590
G1 X27.999 Y49.361 E0.11590
G1 X28.201 Y45.513 E0.11590
G1 X29.198 Y41.791 E0.11590
G1 X30.947 Y38.358 E0.11590
G1 X33.321 Y35.426 E0.11348
G1 X33.255 Y34.993 F7200.000
G1 F5760
G1 X35.021 Y34.038 E-0.76000
G1 E-0.04000 F2100.00000
G1 X61.511 Y60.762 F7200.000
G1 E0.80000 F2100.00000
G1 F1680
G1 X63.612 Y62.798 E0.08800
G1 X66.077 Y65.244 E0.10446
G1 X166.646 Y165.814 E4.27816
G1 X165.763 Y167.464 E0.05630
G1 X165.643 Y167.635 E0.00627
G1 X165.472 Y167.754 E0.00627
G1 X163.822 Y168.638 E0.05630
G1 X63.253 Y68.068 E4.27816
G1 X60.806 Y65.604 E0.10446
G1 X58.770 Y63.503 E0.08800
G1 X57.095 Y64.859 E0.06481
G1 X53.439 Y66.722 E0.12344
G1 X49.475 Y67.784 E0.12344
G1 X45.377 Y67.999 E0.12344
G1 X41.324 Y67.357 E0.12344
G1 X37.493 Y65.886 E0.12344
G1 X34.051 Y63.651 E0.12344
G1 X31.150 Y60.750 E0.12344
G1 X28.915 Y57.308 E0.12344
G1 X27.461 Y53.522 E0.12198
G1 X26.802 Y49.423 E0.12489
G1 X27.017 Y45.326 E0.12342
G1 X28.079 Y41.362 E0.12344
G1 X29.942 Y37.705 E0.12344
G1 X32.524 Y34.516 E0.12344
G1 X35.714 Y31.934 E0.12344
G1 X39.370 Y30.071 E0.12344
G1 X43.334 Y29.009 E0.12344
G1 X47.432 Y28.794 E0.12344
G1 X51.437 Y29.428 E0.12198
G1 X55.317 Y30.907 E0.12488
G1 X58.758 Y33.141 E0.12342
G1 X61.659 Y36.043 E0.12344
G1 X63.894 Y39.485 E0.12344
G1 X65.365 Y43.316 E0.12344
G1 X66.007 Y47.369 E0.12344
G1 X65.792 Y51.467 E0.12344
G1 X64.730 Y55.431 E0.12344
G1 X62.867 Y59.087 E0.12344
G1 X61.549 Y60.715 E0.06301
G1 X62.021 Y60.731 F7200.000
G1 F1260
G1 X63.876 Y62.528 E0.07769
G1 X66.343 Y64.977 E0.10455
G1 X167.036 Y165.670 E4.28340
G1 X167.046 Y165.833 E0.00491
G1 X167.027 Y165.901 E0.00214
G1 X166.085 Y167.662 E0.06006
G1 X165.914 Y167.906 E0.00896
G1 X165.670 Y168.076 E0.00896
G1 X163.910 Y169.019 E0.06006
G1 X163.841 Y169.037 E0.00214
G1 X163.678 Y169.027 E0.00491
G1 X62.986 Y68.335 E4.28340
G1 X60.537 Y65.868 E0.10455
G1 X58.739 Y64.013 E0.07769
G1 X57.302 Y65.177 E0.05563
G1 X53.575 Y67.076 E0.12582
G1 X49.535 Y68.159 E0.12582
G1 X45.357 Y68.378 E0.12582
G1 X41.226 Y67.723 E0.12582
G1 X37.321 Y66.224 E0.12582
G1 X33.813 Y63.946 E0.12582
G1 X30.855 Y60.988 E0.12582
G1 X28.577 Y57.480 E0.12582
G1 X27.095 Y53.621 E0.12435
G1 X26.423 Y49.443 E0.12727
G1 X26.642 Y45.266 E0.12581
G1 X27.725 Y41.226 E0.12582
G1 X29.624 Y37.499 E0.12582
G1 X32.256 Y34.248 E0.12582
G1 X35.507 Y31.616 E0.12582
G1 X39.234 Y29.717 E0.12582
G1 X43.275 Y28.634 E0.12582
G1 X47.452 Y28.415 E0.12582
G1 X51.535 Y29.062 E0.12435
G1 X55.488 Y30.569 E0.12727
G1 X58.996 Y32.847 E0.12581
G1 X61.954 Y35.805 E0.12582
G1 X64.232 Y39.313 E0.12582
G1 X65.731 Y43.218 E0.12582
G1 X66.386 Y47.349 E0.12582
G1 X66.167 Y51.526 E0.12582
G1 X65.084 Y55.567 E0.12582
G1 X63.185 Y59.294 E0.12582
G1 X62.059 Y60.684 E0.05382
G1 X61.766 Y61.039 F7200.000
G1 X61.398 Y60.722 F7200.000
G1 F2520
G1 X61.100 Y60.424 E0.01268
G1 X61.339 Y60.129 E0.01141
G1 X61.516 Y60.307 E0.00754
G1 X61.755 Y60.012 E0.01141
G1 X61.577 Y59.835 E0.00754
G1 X61.816 Y59.540 E0.01141
G1 X61.993 Y59.717 E0.00754
G1 X62.232 Y59.422 E0.01141
G1 X62.055 Y59.245 E0.00754
G1 X62.293 Y58.950 E0.01141
G1 X62.471 Y59.128 E0.00754
G1 X62.629 Y58.932 E0.00756
G1 X62.690 Y58.813 E0.00403
G1 X62.504 Y58.628 E0.00789
G1 X62.684 Y58.274 E0.01194
G1 X62.870 Y58.460 E0.00789
G1 X63.050 Y58.106 E0.01194
G1 X62.864 Y57.921 E0.00789
G1 X63.044 Y57.567 E0.01194
G1 X63.230 Y57.753 E0.00789
G1 X63.410 Y57.399 E0.01194
G1 X63.225 Y57.214 E0.00789
G1 X63.405 Y56.861 E0.01194
G1 X63.590 Y57.046 E0.00789
G1 X63.770 Y56.693 E0.01194
G1 X63.585 Y56.507 E0.00789
G1 X63.765 Y56.154 E0.01194
G1 X63.950 Y56.339 E0.00789
G1 X64.130 Y55.986 E0.01194
G1 X63.945 Y55.800 E0.00789
G1 X64.125 Y55.447 E0.01194
G1 X64.310 Y55.632 E0.00789
G1 X64.465 Y55.329 E0.01024
G1 X64.481 Y55.269 E0.00186
G1 X64.277 Y55.066 E0.00866
G1 X64.390 Y54.645 E0.01311
G1 X64.594 Y54.849 E0.00866
G1 X64.706 Y54.428 E0.01311
G1 X64.503 Y54.224 E0.00866
G1 X64.615 Y53.804 E0.01311
G1 X64.819 Y54.007 E0.00866
G1 X64.932 Y53.586 E0.01311
G1 X64.728 Y53.383 E0.00866
G1 X64.841 Y52.962 E0.01311
G1 X65.045 Y53.166 E0.00866
G1 X65.157 Y52.745 E0.01311
G1 X64.954 Y52.541 E0.00867
G1 X65.066 Y52.120 E0.01311
G1 X65.270 Y52.324 E0.00867
G1 X65.383 Y51.903 E0.01311
G1 X65.179 Y51.700 E0.00867
G1 X65.264 Y51.383 E0.00986
G1 X65.270 Y51.258 E0.00379
G1 X65.495 Y51.483 E0.00958
G1 X65.512 Y51.423 E0.00187
G1 X65.534 Y50.988 E0.01310
G1 X65.297 Y50.751 E0.01010
G1 X65.324 Y50.244 E0.01528
G1 X65.561 Y50.481 E0.01010
G1 X65.587 Y49.974 E0.01528
G1 X65.350 Y49.737 E0.01010
G1 X65.377 Y49.230 E0.01528
G1 X65.614 Y49.467 E0.01010
G1 X65.641 Y48.960 E0.01528
G1 X65.403 Y48.723 E0.01010
G1 X65.430 Y48.216 E0.01528
G1 X65.667 Y48.453 E0.01010
G1 X65.694 Y47.946 E0.01528
G1 X65.456 Y47.709 E0.01010
G1 X65.473 Y47.397 E0.00940
G1 X65.434 Y47.153 E0.00743
G1 X65.720 Y47.439 E0.01217
G1 X65.723 Y47.384 E0.00167
G1 X65.634 Y46.819 E0.01720
G1 X65.334 Y46.519 E0.01277
G1 X65.233 Y45.886 E0.01931
G1 X65.533 Y46.186 E0.01277
G1 X65.433 Y45.552 E0.01931
G1 X65.133 Y45.252 E0.01277
G1 X65.033 Y44.618 E0.01931
G1 X65.333 Y44.918 E0.01277
G1 X65.232 Y44.284 E0.01931
G1 X64.932 Y43.984 E0.01277
G1 X64.848 Y43.454 E0.01613
G1 X64.794 Y43.312 E0.00460
G1 X65.132 Y43.650 E0.01439
G1 X65.091 Y43.390 E0.00794
G1 X64.895 Y42.879 E0.01644
G1 X64.461 Y42.446 E0.01845
G1 X64.129 Y41.580 E0.02791
G1 X64.562 Y42.014 E0.01845
G1 X64.230 Y41.148 E0.02791
G1 X63.796 Y40.714 E0.01845
G1 X63.464 Y39.848 E0.02791
G1 X64.193 Y40.577 E0.03100
G1 X63.860 Y39.711 F7200.000
G1 F2520
G1 X61.990 Y37.841 E0.07958
G1 F5760
G1 X63.542 Y39.393 E-0.76000
G1 E-0.04000 F2100.00000
G1 X62.016 Y36.800 F7200.000
G1 E0.80000 F2100.00000
G1 F2520
G1 X58.001 Y32.785 E0.17086
G1 F5760
G1 X59.553 Y34.337 E-0.76000
G1 E-0.04000 F2100.00000
G1 X56.960 Y32.811 F7200.000
G1 E0.80000 F2100.00000
G1 F2520
G1 X55.535 Y31.386 E0.06064
G1 X55.188 Y31.160 E0.01245
G1 X54.522 Y30.907 E0.02143
G1 X54.953 Y31.337 E0.01830
G1 X54.087 Y31.004 E0.02791
G1 X53.660 Y30.578 E0.01814
G1 X52.798 Y30.250 E0.02776
G1 X53.221 Y30.672 E0.01798
G1 X52.355 Y30.340 E0.02791
G1 X51.936 Y29.921 E0.01782
G1 X51.364 Y29.703 E0.01843
G1 X51.151 Y29.669 E0.00649
G1 X51.489 Y30.007 E0.01439
G1 X51.347 Y29.953 E0.00460
G1 X50.817 Y29.869 E0.01613
G1 X50.517 Y29.569 E0.01277
G1 X49.883 Y29.468 E0.01931
G1 X50.183 Y29.768 E0.01277
G1 X49.549 Y29.668 E0.01931
G1 X49.249 Y29.368 E0.01277
G1 X48.615 Y29.268 E0.01931
G1 X48.915 Y29.568 E0.01277
G1 X48.281 Y29.467 E0.01931
G1 X47.982 Y29.167 E0.01277
G1 X47.417 Y29.078 E0.01720
G1 X47.362 Y29.081 E0.00167
G1 X47.648 Y29.367 E0.01217
G1 X47.404 Y29.328 E0.00743
G1 X47.092 Y29.345 E0.00940
G1 X46.855 Y29.107 E0.01010
G1 X46.348 Y29.134 E0.01528
G1 X46.585 Y29.371 E0.01010
G1 X46.078 Y29.398 E0.01528
G1 X45.841 Y29.160 E0.01010
G1 X45.334 Y29.187 E0.01528
G1 X45.571 Y29.424 E0.01010
G1 X45.064 Y29.451 E0.01528
G1 X44.827 Y29.214 E0.01010
G1 X44.320 Y29.240 E0.01528
G1 X44.557 Y29.477 E0.01010
G1 X44.050 Y29.504 E0.01528
G1 X43.813 Y29.267 E0.01010
G1 X43.378 Y29.289 E0.01310
G1 X43.318 Y29.306 E0.00187
G1 X43.543 Y29.531 E0.00958
G1 X43.468 Y29.534 E0.00228
G1 X43.109 Y29.630 E0.01117
G1 X42.898 Y29.418 E0.00899
G1 X42.477 Y29.531 E0.01311
G1 X42.687 Y29.741 E0.00895
G1 X42.266 Y29.853 E0.01313
G1 X42.056 Y29.644 E0.00891
G1 X41.635 Y29.756 E0.01311
G1 X41.844 Y29.965 E0.00887
G1 X41.422 Y30.077 E0.01313
G1 X41.215 Y29.869 E0.00883
G1 X40.794 Y29.982 E0.01311
G1 X41.000 Y30.189 E0.00879
G1 X40.579 Y30.300 E0.01313
G1 X40.373 Y30.095 E0.00875
G1 X39.952 Y30.207 E0.01311
G1 X40.157 Y30.412 E0.00871
G1 X39.735 Y30.524 E0.01313
G1 X39.532 Y30.320 E0.00867
G1 X39.472 Y30.336 E0.00186
G1 X39.169 Y30.491 E0.01024
G1 X39.354 Y30.676 E0.00789
G1 X39.001 Y30.856 E0.01194
G1 X38.815 Y30.671 E0.00789
G1 X38.462 Y30.851 E0.01194
G1 X38.647 Y31.036 E0.00789
G1 X38.294 Y31.216 E0.01194
G1 X38.108 Y31.031 E0.00789
G1 X37.755 Y31.211 E0.01194
G1 X37.940 Y31.396 E0.00789
G1 X37.587 Y31.576 E0.01194
G1 X37.402 Y31.391 E0.00789
G1 X37.048 Y31.571 E0.01194
G1 X37.234 Y31.757 E0.00789
G1 X36.880 Y31.937 E0.01194
G1 X36.695 Y31.751 E0.00789
G1 X36.341 Y31.931 E0.01194
G1 X36.527 Y32.117 E0.00789
G1 X36.173 Y32.297 E0.01194
G1 X35.988 Y32.111 E0.00789
G1 X35.868 Y32.172 E0.00403
G1 X35.673 Y32.330 E0.00756
G1 X35.851 Y32.508 E0.00754
G1 X35.556 Y32.746 E0.01141
G1 X35.379 Y32.569 E0.00754
G1 X35.084 Y32.808 E0.01141
G1 X35.261 Y32.985 E0.00754
G1 X34.966 Y33.224 E0.01141
G1 X34.789 Y33.046 E0.00754
G1 X34.494 Y33.285 E0.01141
G1 X34.671 Y33.462 E0.00754
G1 X34.377 Y33.701 E0.01141
G1 X34.199 Y33.524 E0.00754
G1 X33.905 Y33.763 E0.01141
G1 X34.082 Y33.940 E0.00754
G1 X33.787 Y34.179 E0.01141
G1 X33.610 Y34.001 E0.00754
G1 X33.315 Y34.240 E0.01141
G1 X33.492 Y34.417 E0.00754
G1 X33.198 Y34.656 E0.01141
G1 X33.020 Y34.479 E0.00754
G1 X32.726 Y34.717 E0.01141
G1 X32.903 Y34.895 E0.00754
G1 X32.664 Y35.189 E0.01141
G1 X32.487 Y35.012 E0.00754
G1 X32.248 Y35.307 E0.01141
G1 X32.425 Y35.484 E0.00754
G1 X32.187 Y35.779 E0.01141
G1 X32.009 Y35.602 E0.00754
G1 X31.771 Y35.897 E0.01141
G1 X31.948 Y36.074 E0.00754
G1 X31.709 Y36.369 E0.01141
G1 X31.532 Y36.191 E0.00754
G1 X31.293 Y36.486 E0.01141
G1 X31.471 Y36.663 E0.00754
G1 X31.232 Y36.958 E0.01141
G1 X31.055 Y36.781 E0.00754
G1 X30.816 Y37.076 E0.01141
G1 X30.993 Y37.253 E0.00754
G1 X30.754 Y37.548 E0.01141
G1 X30.577 Y37.370 E0.00754
G1 X30.338 Y37.665 E0.01141
G1 X30.516 Y37.842 E0.00754
G1 X30.391 Y37.997 E0.00598
G1 X30.305 Y38.165 E0.00568
G1 X30.120 Y37.980 E0.00789
G1 X29.939 Y38.333 E0.01194
G1 X30.125 Y38.519 E0.00789
G1 X29.945 Y38.872 E0.01194
G1 X29.759 Y38.687 E0.00789
G1 X29.579 Y39.040 E0.01194
G1 X29.765 Y39.225 E0.00789
G1 X29.585 Y39.579 E0.01194
G1 X29.399 Y39.393 E0.00789
G1 X29.219 Y39.747 E0.01194
G1 X29.405 Y39.932 E0.00789
G1 X29.224 Y40.286 E0.01194
G1 X29.039 Y40.100 E0.00789
G1 X28.859 Y40.454 E0.01194
G1 X29.044 Y40.639 E0.00789
G1 X28.864 Y40.992 E0.01194
G1 X28.679 Y40.807 E0.00789
G1 X28.499 Y41.161 E0.01194
G1 X28.684 Y41.346 E0.00789
G1 X28.578 Y41.554 E0.00701
G1 X28.532 Y41.727 E0.00540
G1 X28.328 Y41.523 E0.00866
G1 X28.216 Y41.944 E0.01311
G1 X28.419 Y42.148 E0.00866
G1 X28.306 Y42.569 E0.01311
G1 X28.103 Y42.365 E0.00866
G1 X27.990 Y42.786 E0.01311
G1 X28.194 Y42.989 E0.00866
G1 X28.081 Y43.410 E0.01311
G1 X27.877 Y43.206 E0.00866
G1 X27.765 Y43.627 E0.01311
G1 X27.968 Y43.831 E0.00866
G1 X27.855 Y44.252 E0.01311
G1 X27.652 Y44.048 E0.00866
G1 X27.539 Y44.469 E0.01311
G1 X27.743 Y44.672 E0.00867
G1 X27.630 Y45.093 E0.01311
G1 X27.426 Y44.889 E0.00867
G1 X27.314 Y45.310 E0.01311
G1 X27.539 Y45.535 E0.00958
G1 X27.512 Y46.042 E0.01528
G1 X27.275 Y45.805 E0.01010
G1 X27.248 Y46.312 E0.01528
G1 X27.486 Y46.549 E0.01010
G1 X27.459 Y47.056 E0.01528
G1 X27.222 Y46.819 E0.01010
G1 X27.195 Y47.326 E0.01528
G1 X27.432 Y47.563 E0.01010
G1 X27.406 Y48.070 E0.01528
G1 X27.169 Y47.833 E0.01010
G1 X27.142 Y48.340 E0.01528
G1 X27.379 Y48.577 E0.01010
G1 X27.353 Y49.084 E0.01528
G1 X27.115 Y48.846 E0.01010
G1 X27.089 Y49.353 E0.01528
G1 X27.375 Y49.639 E0.01217
G1 X27.475 Y50.273 E0.01931
G1 X27.177 Y49.975 E0.01268
G1 X27.280 Y50.611 E0.01938
G1 X27.576 Y50.907 E0.01261
G1 X27.676 Y51.541 E0.01931
G1 X27.382 Y51.247 E0.01253
G1 X27.484 Y51.883 E0.01938
G1 X27.777 Y52.175 E0.01245
G1 X27.877 Y52.809 E0.01931
G1 X27.586 Y52.518 E0.01237
G1 X27.689 Y53.154 E0.01938
G1 X28.016 Y53.481 E0.01392
G1 X28.348 Y54.347 E0.02791
G1 X27.914 Y53.913 E0.01845
G1 X28.247 Y54.779 E0.02791
G1 X28.680 Y55.213 E0.01845
G1 X29.013 Y56.079 E0.02791
G1 X28.579 Y55.645 E0.01845
G1 X28.912 Y56.511 E0.02791
G1 X29.831 Y57.430 E0.03912
G1 X28.949 Y57.082 F7200.000
G1 F2520
G1 X30.819 Y58.952 E0.07958
G1 F5760
G1 X29.267 Y57.400 E-0.76000
G1 E-0.04000 F2100.00000
G1 X30.793 Y59.993 F7200.000
G1 E0.80000 F2100.00000
G1 F2520
G1 X34.808 Y64.008 E0.17085
G1 F5760
G1 X33.256 Y62.456 E-0.76000
G1 E-0.04000 F2100.00000
G1 X35.849 Y63.982 F7200.000
G1 E0.80000 F2100.00000
G1 F2520
G1 X37.719 Y65.852 E0.07958
G1 X37.371 Y64.970 F7200.000
G1 F2520
G1 X38.290 Y65.889 E0.03912
G1 X39.156 Y66.222 E0.02791
G1 X38.722 Y65.788 E0.01845
G1 X39.588 Y66.121 E0.02791
G1 X40.022 Y66.554 E0.01845
G1 X40.888 Y66.887 E0.02791
G1 X40.454 Y66.453 E0.01845
G1 X41.320 Y66.785 E0.02791
G1 X41.658 Y67.124 E0.01439
G1 X42.292 Y67.224 E0.01931
G1 X41.992 Y66.924 E0.01277
G1 X42.626 Y67.024 E0.01931
G1 X42.926 Y67.324 E0.01277
G1 X43.560 Y67.425 E0.01931
G1 X43.260 Y67.125 E0.01277
G1 X43.894 Y67.225 E0.01931
G1 X44.194 Y67.525 E0.01277
G1 X44.828 Y67.626 E0.01931
G1 X44.528 Y67.326 E0.01277
G1 X45.162 Y67.426 E0.01931
